MODULE MainModule
PROC main()
MoveL [[396.089,615.457,778.262],[0.5,-0.5,0.5,0.5],[1,0,-1,1],[9E+09,9E+09,9E+09,9E+09,9E+09,9E+09]], v200, z50, toolSprayGun;
MoveL [[395.59,615.317,779.263],[0.5,-0.5,0.5,0.5],[1,0,-1,1],[9E+09,9E+09,9E+09,9E+09,9E+09,9E+09]], v200, z50, toolSprayGun;
MoveL [[395.308,615.672,779.575],[0.5,-0.5,0.5,0.5],[1,0,-1,1],[9E+09,9E+09,9E+09,9E+09,9E+09,9E+09]], v200, z50, toolSprayGun;
MoveL [[395.531,615.804,780.163],[0.5,-0.5,0.5,0.5],[1,0,-1,1],[9E+09,9E+09,9E+09,9E+09,9E+09,9E+09]], v200, z50, toolSprayGun;
MoveL [[395.251,615.899,780.319],[0.5,-0.5,0.5,0.5],[1,0,-1,1],[9E+09,9E+09,9E+09,9E+09,9E+09,9E+09]], v200, z50, toolSprayGun;
MoveL [[395.194,614.851,780.514],[0.5,-0.5,0.5,0.5],[1,0,-1,1],[9E+09,9E+09,9E+09,9E+09,9E+09,9E+09]], v200, z50, toolSprayGun;
MoveL [[395.278,615.001,781.056],[0.5,-0.5,0.5,0.5],[1,0,-1,1],[9E+09,9E+09,9E+09,9E+09,9E+09,9E+09]], v200, z50, toolSprayGun;
MoveL [[395.577,615.145,781.076],[0.5,-0.5,0.5,0.5],[1,0,-1,1],[9E+09,9E+09,9E+09,9E+09,9E+09,9E+09]], v200, z50, toolSprayGun;
MoveL [[395.808,615.19,781.277],[0.5,-0.5,0.5,0.5],[1,0,-1,1],[9E+09,9E+09,9E+09,9E+09,9E+09,9E+09]], v200, z50, toolSprayGun;
MoveL [[396.399,615.776,781.739],[0.5,-0.5,0.5,0.5],[1,0,-1,1],[9E+09,9E+09,9E+09,9E+09,9E+09,9E+09]], v200, z50, toolSprayGun;
MoveL [[396.319,616.082,781.984],[0.5,-0.5,0.5,0.5],[1,0,-1,1],[9E+09,9E+09,9E+09,9E+09,9E+09,9E+09]], v200, z50, toolSprayGun;
MoveL [[396.475,616.554,782.462],[0.5,-0.5,0.5,0.5],[1,0,-1,1],[9E+09,9E+09,9E+09,9E+09,9E+09,9E+09]], v200, z50, toolSprayGun;
MoveL [[396.672,616.515,782.379],[0.5,-0.5,0.5,0.5],[1,0,-1,1],[9E+09,9E+09,9E+09,9E+09,9E+09,9E+09]], v200, z50, toolSprayGun;
MoveL [[397.106,615.946,782.121],[0.5,-0.5,0.5,0.5],[1,0,-1,1],[9E+09,9E+09,9E+09,9E+09,9E+09,9E+09]], v200, z50, toolSprayGun;
MoveL [[398.141,615.955,781.057],[0.5,-0.5,0.5,0.5],[1,0,-1,1],[9E+09,9E+09,9E+09,9E+09,9E+09,9E+09]], v200, z50, toolSprayGun;
MoveL [[398.733,616.097,780.45],[0.5,-0.5,0.5,0.5],[1,0,-1,1],[9E+09,9E+09,9E+09,9E+09,9E+09,9E+09]], v200, z50, toolSprayGun;
MoveL [[399.411,615.72,779.867],[0.5,-0.5,0.5,0.5],[1,0,-1,1],[9E+09,9E+09,9E+09,9E+09,9E+09,9E+09]], v200, z50, toolSprayGun;
MoveL [[400.084,615.542,778.226],[0.5,-0.5,0.5,0.5],[1,0,-1,1],[9E+09,9E+09,9E+09,9E+09,9E+09,9E+09]], v200, z50, toolSprayGun;
MoveL [[399.991,614.785,776.948],[0.5,-0.5,0.5,0.5],[1,0,-1,1],[9E+09,9E+09,9E+09,9E+09,9E+09,9E+09]], v200, z50, toolSprayGun;
MoveL [[400.246,614.566,776.011],[0.5,-0.5,0.5,0.5],[1,0,-1,1],[9E+09,9E+09,9E+09,9E+09,9E+09,9E+09]], v200, z50, toolSprayGun;
MoveL [[400.065,614.315,774.655],[0.5,-0.5,0.5,0.5],[1,0,-1,1],[9E+09,9E+09,9E+09,9E+09,9E+09,9E+09]], v200, z50, toolSprayGun;
MoveL [[399.338,613.538,773.029],[0.5,-0.5,0.5,0.5],[1,0,-1,1],[9E+09,9E+09,9E+09,9E+09,9E+09,9E+09]], v200, z50, toolSprayGun;
MoveL [[399.112,613.223,772.164],[0.5,-0.5,0.5,0.5],[1,0,-1,1],[9E+09,9E+09,9E+09,9E+09,9E+09,9E+09]], v200, z50, toolSprayGun;
MoveL [[397.918,612.979,770.752],[0.5,-0.5,0.5,0.5],[1,0,-1,1],[9E+09,9E+09,9E+09,9E+09,9E+09,9E+09]], v200, z50, toolSprayGun;
MoveL [[397.021,612.891,769.831],[0.5,-0.5,0.5,0.5],[1,0,-1,1],[9E+09,9E+09,9E+09,9E+09,9E+09,9E+09]], v200, z50, toolSprayGun;
MoveL [[395.41,613.051,767.807],[0.5,-0.5,0.5,0.5],[1,0,-1,1],[9E+09,9E+09,9E+09,9E+09,9E+09,9E+09]], v200, z50, toolSprayGun;
MoveL [[394.577,612.565,766.576],[0.5,-0.5,0.5,0.5],[1,0,-1,1],[9E+09,9E+09,9E+09,9E+09,9E+09,9E+09]], v200, z50, toolSprayGun;
MoveL [[393.175,612.332,765.114],[0.5,-0.5,0.5,0.5],[1,0,-1,1],[9E+09,9E+09,9E+09,9E+09,9E+09,9E+09]], v200, z50, toolSprayGun;
MoveL [[392.475,612.316,763.853],[0.5,-0.5,0.5,0.5],[1,0,-1,1],[9E+09,9E+09,9E+09,9E+09,9E+09,9E+09]], v200, z50, toolSprayGun;
MoveL [[391.706,611.737,761.657],[0.5,-0.5,0.5,0.5],[1,0,-1,1],[9E+09,9E+09,9E+09,9E+09,9E+09,9E+09]], v200, z50, toolSprayGun;
MoveL [[391.093,611.483,759.983],[0.5,-0.5,0.5,0.5],[1,0,-1,1],[9E+09,9E+09,9E+09,9E+09,9E+09,9E+09]], v200, z50, toolSprayGun;
MoveL [[390.514,611.295,756.964],[0.5,-0.5,0.5,0.5],[1,0,-1,1],[9E+09,9E+09,9E+09,9E+09,9E+09,9E+09]], v200, z50, toolSprayGun;
MoveL [[390.314,611.199,755.249],[0.5,-0.5,0.5,0.5],[1,0,-1,1],[9E+09,9E+09,9E+09,9E+09,9E+09,9E+09]], v200, z50, toolSprayGun;
MoveL [[390.445,610.539,753.503],[0.5,-0.5,0.5,0.5],[1,0,-1,1],[9E+09,9E+09,9E+09,9E+09,9E+09,9E+09]], v200, z50, toolSprayGun;
MoveL [[390.486,610.258,751.724],[0.5,-0.5,0.5,0.5],[1,0,-1,1],[9E+09,9E+09,9E+09,9E+09,9E+09,9E+09]], v200, z50, toolSprayGun;
MoveL [[391.53,609.823,747.906],[0.5,-0.5,0.5,0.5],[1,0,-1,1],[9E+09,9E+09,9E+09,9E+09,9E+09,9E+09]], v200, z50, toolSprayGun;
MoveL [[391.74,610.113,744.795],[0.5,-0.5,0.5,0.5],[1,0,-1,1],[9E+09,9E+09,9E+09,9E+09,9E+09,9E+09]], v200, z50, toolSprayGun;
MoveL [[392.531,609.029,741.425],[0.5,-0.5,0.5,0.5],[1,0,-1,1],[9E+09,9E+09,9E+09,9E+09,9E+09,9E+09]], v200, z50, toolSprayGun;
MoveL [[392.769,608.717,739.323],[0.5,-0.5,0.5,0.5],[1,0,-1,1],[9E+09,9E+09,9E+09,9E+09,9E+09,9E+09]], v200, z50, toolSprayGun;
MoveL [[393.305,608.469,735.45],[0.5,-0.5,0.5,0.5],[1,0,-1,1],[9E+09,9E+09,9E+09,9E+09,9E+09,9E+09]], v200, z50, toolSprayGun;
MoveL [[393.794,608.093,732.175],[0.5,-0.5,0.5,0.5],[1,0,-1,1],[9E+09,9E+09,9E+09,9E+09,9E+09,9E+09]], v200, z50, toolSprayGun;
MoveL [[394.056,607.436,728.043],[0.5,-0.5,0.5,0.5],[1,0,-1,1],[9E+09,9E+09,9E+09,9E+09,9E+09,9E+09]], v200, z50, toolSprayGun;
MoveL [[394.097,607.142,724.361],[0.5,-0.5,0.5,0.5],[1,0,-1,1],[9E+09,9E+09,9E+09,9E+09,9E+09,9E+09]], v200, z50, toolSprayGun;
MoveL [[394.477,607.076,720.865],[0.5,-0.5,0.5,0.5],[1,0,-1,1],[9E+09,9E+09,9E+09,9E+09,9E+09,9E+09]], v200, z50, toolSprayGun;
MoveL [[394.709,606.563,718.732],[0.5,-0.5,0.5,0.5],[1,0,-1,1],[9E+09,9E+09,9E+09,9E+09,9E+09,9E+09]], v200, z50, toolSprayGun;
MoveL [[395.286,606.275,716.261],[0.5,-0.5,0.5,0.5],[1,0,-1,1],[9E+09,9E+09,9E+09,9E+09,9E+09,9E+09]], v200, z50, toolSprayGun;
MoveL [[395.372,605.663,714.115],[0.5,-0.5,0.5,0.5],[1,0,-1,1],[9E+09,9E+09,9E+09,9E+09,9E+09,9E+09]], v200, z50, toolSprayGun;
MoveL [[395.468,606.309,711.472],[0.5,-0.5,0.5,0.5],[1,0,-1,1],[9E+09,9E+09,9E+09,9E+09,9E+09,9E+09]], v200, z50, toolSprayGun;
MoveL [[395.513,606.295,709.461],[0.5,-0.5,0.5,0.5],[1,0,-1,1],[9E+09,9E+09,9E+09,9E+09,9E+09,9E+09]], v200, z50, toolSprayGun;
MoveL [[395.489,605.675,707.577],[0.5,-0.5,0.5,0.5],[1,0,-1,1],[9E+09,9E+09,9E+09,9E+09,9E+09,9E+09]], v200, z50, toolSprayGun;
MoveL [[395.833,605.877,704.999],[0.5,-0.5,0.5,0.5],[1,0,-1,1],[9E+09,9E+09,9E+09,9E+09,9E+09,9E+09]], v200, z50, toolSprayGun;
MoveL [[396.042,605.89,701.353],[0.5,-0.5,0.5,0.5],[1,0,-1,1],[9E+09,9E+09,9E+09,9E+09,9E+09,9E+09]], v200, z50, toolSprayGun;
MoveL [[395.781,606.005,699.507],[0.5,-0.5,0.5,0.5],[1,0,-1,1],[9E+09,9E+09,9E+09,9E+09,9E+09,9E+09]], v200, z50, toolSprayGun;
MoveL [[396.113,605.975,695.238],[0.5,-0.5,0.5,0.5],[1,0,-1,1],[9E+09,9E+09,9E+09,9E+09,9E+09,9E+09]], v200, z50, toolSprayGun;
MoveL [[396.25,605.823,692.979],[0.5,-0.5,0.5,0.5],[1,0,-1,1],[9E+09,9E+09,9E+09,9E+09,9E+09,9E+09]], v200, z50, toolSprayGun;
MoveL [[396.443,605.723,689.572],[0.5,-0.5,0.5,0.5],[1,0,-1,1],[9E+09,9E+09,9E+09,9E+09,9E+09,9E+09]], v200, z50, toolSprayGun;
MoveL [[396.554,606.026,685.856],[0.5,-0.5,0.5,0.5],[1,0,-1,1],[9E+09,9E+09,9E+09,9E+09,9E+09,9E+09]], v200, z50, toolSprayGun;
MoveL [[396.79,606.112,683.685],[0.5,-0.5,0.5,0.5],[1,0,-1,1],[9E+09,9E+09,9E+09,9E+09,9E+09,9E+09]], v200, z50, toolSprayGun;
MoveL [[396.752,606.428,681.102],[0.5,-0.5,0.5,0.5],[1,0,-1,1],[9E+09,9E+09,9E+09,9E+09,9E+09,9E+09]], v200, z50, toolSprayGun;
MoveL [[396.809,606.943,678.478],[0.5,-0.5,0.5,0.5],[1,0,-1,1],[9E+09,9E+09,9E+09,9E+09,9E+09,9E+09]], v200, z50, toolSprayGun;
MoveL [[397.077,607.305,676.732],[0.5,-0.5,0.5,0.5],[1,0,-1,1],[9E+09,9E+09,9E+09,9E+09,9E+09,9E+09]], v200, z50, toolSprayGun;
MoveL [[397.292,607.389,674.196],[0.5,-0.5,0.5,0.5],[1,0,-1,1],[9E+09,9E+09,9E+09,9E+09,9E+09,9E+09]], v200, z50, toolSprayGun;
MoveL [[397.765,607.256,672.362],[0.5,-0.5,0.5,0.5],[1,0,-1,1],[9E+09,9E+09,9E+09,9E+09,9E+09,9E+09]], v200, z50, toolSprayGun;
MoveL [[397.494,607.433,669.902],[0.5,-0.5,0.5,0.5],[1,0,-1,1],[9E+09,9E+09,9E+09,9E+09,9E+09,9E+09]], v200, z50, toolSprayGun;
MoveL [[397.186,607.712,667.443],[0.5,-0.5,0.5,0.5],[1,0,-1,1],[9E+09,9E+09,9E+09,9E+09,9E+09,9E+09]], v200, z50, toolSprayGun;
MoveL [[396.687,607.247,663.502],[0.5,-0.5,0.5,0.5],[1,0,-1,1],[9E+09,9E+09,9E+09,9E+09,9E+09,9E+09]], v200, z50, toolSprayGun;
MoveL [[396.49,607.57,660.377],[0.5,-0.5,0.5,0.5],[1,0,-1,1],[9E+09,9E+09,9E+09,9E+09,9E+09,9E+09]], v200, z50, toolSprayGun;
MoveL [[395.889,607.005,656.981],[0.5,-0.5,0.5,0.5],[1,0,-1,1],[9E+09,9E+09,9E+09,9E+09,9E+09,9E+09]], v200, z50, toolSprayGun;
MoveL [[395.65,607.274,654.621],[0.5,-0.5,0.5,0.5],[1,0,-1,1],[9E+09,9E+09,9E+09,9E+09,9E+09,9E+09]], v200, z50, toolSprayGun;
MoveL [[395.406,607.637,651.409],[0.5,-0.5,0.5,0.5],[1,0,-1,1],[9E+09,9E+09,9E+09,9E+09,9E+09,9E+09]], v200, z50, toolSprayGun;
MoveL [[395.413,608.871,646.179],[0.5,-0.5,0.5,0.5],[1,0,-1,1],[9E+09,9E+09,9E+09,9E+09,9E+09,9E+09]], v200, z50, toolSprayGun;
MoveL [[395.337,609.409,643.219],[0.5,-0.5,0.5,0.5],[1,0,-1,1],[9E+09,9E+09,9E+09,9E+09,9E+09,9E+09]], v200, z50, toolSprayGun;
MoveL [[395.136,609.257,641.226],[0.5,-0.5,0.5,0.5],[1,0,-1,1],[9E+09,9E+09,9E+09,9E+09,9E+09,9E+09]], v200, z50, toolSprayGun;
MoveL [[395.228,608.606,638.277],[0.5,-0.5,0.5,0.5],[1,0,-1,1],[9E+09,9E+09,9E+09,9E+09,9E+09,9E+09]], v200, z50, toolSprayGun;
MoveL [[395.261,608.622,634.873],[0.5,-0.5,0.5,0.5],[1,0,-1,1],[9E+09,9E+09,9E+09,9E+09,9E+09,9E+09]], v200, z50, toolSprayGun;
MoveL [[394.528,608.3,631.697],[0.5,-0.5,0.5,0.5],[1,0,-1,1],[9E+09,9E+09,9E+09,9E+09,9E+09,9E+09]], v200, z50, toolSprayGun;
MoveL [[394.468,608.601,629.155],[0.5,-0.5,0.5,0.5],[1,0,-1,1],[9E+09,9E+09,9E+09,9E+09,9E+09,9E+09]], v200, z50, toolSprayGun;
MoveL [[394.603,609.242,625.286],[0.5,-0.5,0.5,0.5],[1,0,-1,1],[9E+09,9E+09,9E+09,9E+09,9E+09,9E+09]], v200, z50, toolSprayGun;
MoveL [[394.792,609.451,622.76],[0.5,-0.5,0.5,0.5],[1,0,-1,1],[9E+09,9E+09,9E+09,9E+09,9E+09,9E+09]], v200, z50, toolSprayGun;
MoveL [[395.199,609.01,618.939],[0.5,-0.5,0.5,0.5],[1,0,-1,1],[9E+09,9E+09,9E+09,9E+09,9E+09,9E+09]], v200, z50, toolSprayGun;
MoveL [[395.6,609.602,616.03],[0.5,-0.5,0.5,0.5],[1,0,-1,1],[9E+09,9E+09,9E+09,9E+09,9E+09,9E+09]], v200, z50, toolSprayGun;
MoveL [[396.046,609.357,612.423],[0.5,-0.5,0.5,0.5],[1,0,-1,1],[9E+09,9E+09,9E+09,9E+09,9E+09,9E+09]], v200, z50, toolSprayGun;
MoveL [[395.913,609.65,610.782],[0.5,-0.5,0.5,0.5],[1,0,-1,1],[9E+09,9E+09,9E+09,9E+09,9E+09,9E+09]], v200, z50, toolSprayGun;
MoveL [[395.725,609.574,608.914],[0.5,-0.5,0.5,0.5],[1,0,-1,1],[9E+09,9E+09,9E+09,9E+09,9E+09,9E+09]], v200, z50, toolSprayGun;
MoveL [[395.678,610.237,606.615],[0.5,-0.5,0.5,0.5],[1,0,-1,1],[9E+09,9E+09,9E+09,9E+09,9E+09,9E+09]], v200, z50, toolSprayGun;
MoveL [[395.732,610.622,604.292],[0.5,-0.5,0.5,0.5],[1,0,-1,1],[9E+09,9E+09,9E+09,9E+09,9E+09,9E+09]], v200, z50, toolSprayGun;
MoveL [[395.594,610.561,601.581],[0.5,-0.5,0.5,0.5],[1,0,-1,1],[9E+09,9E+09,9E+09,9E+09,9E+09,9E+09]], v200, z50, toolSprayGun;
MoveL [[395.119,610.577,599.36],[0.5,-0.5,0.5,0.5],[1,0,-1,1],[9E+09,9E+09,9E+09,9E+09,9E+09,9E+09]], v200, z50, toolSprayGun;
MoveL [[394.684,611.241,596.416],[0.5,-0.5,0.5,0.5],[1,0,-1,1],[9E+09,9E+09,9E+09,9E+09,9E+09,9E+09]], v200, z50, toolSprayGun;
MoveL [[394.627,612.047,594.591],[0.5,-0.5,0.5,0.5],[1,0,-1,1],[9E+09,9E+09,9E+09,9E+09,9E+09,9E+09]], v200, z50, toolSprayGun;
MoveL [[393.876,611.473,593.192],[0.5,-0.5,0.5,0.5],[1,0,-1,1],[9E+09,9E+09,9E+09,9E+09,9E+09,9E+09]], v200, z50, toolSprayGun;
MoveL [[393.519,611.866,591.733],[0.5,-0.5,0.5,0.5],[1,0,-1,1],[9E+09,9E+09,9E+09,9E+09,9E+09,9E+09]], v200, z50, toolSprayGun;
MoveL [[393.053,612.096,590.454],[0.5,-0.5,0.5,0.5],[1,0,-1,1],[9E+09,9E+09,9E+09,9E+09,9E+09,9E+09]], v200, z50, toolSprayGun;
MoveL [[392.501,613.062,589.677],[0.5,-0.5,0.5,0.5],[1,0,-1,1],[9E+09,9E+09,9E+09,9E+09,9E+09,9E+09]], v200, z50, toolSprayGun;
MoveL [[392.95,612.641,589.191],[0.5,-0.5,0.5,0.5],[1,0,-1,1],[9E+09,9E+09,9E+09,9E+09,9E+09,9E+09]], v200, z50, toolSprayGun;
MoveL [[392.911,613.122,589.738],[0.5,-0.5,0.5,0.5],[1,0,-1,1],[9E+09,9E+09,9E+09,9E+09,9E+09,9E+09]], v200, z50, toolSprayGun;
MoveL [[392.897,613.911,589.744],[0.5,-0.5,0.5,0.5],[1,0,-1,1],[9E+09,9E+09,9E+09,9E+09,9E+09,9E+09]], v200, z50, toolSprayGun;
MoveL [[392.774,614.748,590.205],[0.5,-0.5,0.5,0.5],[1,0,-1,1],[9E+09,9E+09,9E+09,9E+09,9E+09,9E+09]], v200, z50, toolSprayGun;
MoveL [[393.088,615.567,590.467],[0.5,-0.5,0.5,0.5],[1,0,-1,1],[9E+09,9E+09,9E+09,9E+09,9E+09,9E+09]], v200, z50, toolSprayGun;
MoveL [[392.526,617.576,591.501],[0.5,-0.5,0.5,0.5],[1,0,-1,1],[9E+09,9E+09,9E+09,9E+09,9E+09,9E+09]], v200, z50, toolSprayGun;
MoveL [[392.778,618.53,591.752],[0.5,-0.5,0.5,0.5],[1,0,-1,1],[9E+09,9E+09,9E+09,9E+09,9E+09,9E+09]], v200, z50, toolSprayGun;
MoveL [[392.979,619.625,592.576],[0.5,-0.5,0.5,0.5],[1,0,-1,1],[9E+09,9E+09,9E+09,9E+09,9E+09,9E+09]], v200, z50, toolSprayGun;
MoveL [[392.962,620.794,592.822],[0.5,-0.5,0.5,0.5],[1,0,-1,1],[9E+09,9E+09,9E+09,9E+09,9E+09,9E+09]], v200, z50, toolSprayGun;
MoveL [[392.575,622.647,593.614],[0.5,-0.5,0.5,0.5],[1,0,-1,1],[9E+09,9E+09,9E+09,9E+09,9E+09,9E+09]], v200, z50, toolSprayGun;
MoveL [[392.356,624.691,593.723],[0.5,-0.5,0.5,0.5],[1,0,-1,1],[9E+09,9E+09,9E+09,9E+09,9E+09,9E+09]], v200, z50, toolSprayGun;
MoveL [[391.757,628.956,593.183],[0.5,-0.5,0.5,0.5],[1,0,-1,1],[9E+09,9E+09,9E+09,9E+09,9E+09,9E+09]], v200, z50, toolSprayGun;
MoveL [[391.503,632.485,593.166],[0.5,-0.5,0.5,0.5],[1,0,-1,1],[9E+09,9E+09,9E+09,9E+09,9E+09,9E+09]], v200, z50, toolSprayGun;
MoveL [[392.233,635.171,593.051],[0.5,-0.5,0.5,0.5],[1,0,-1,1],[9E+09,9E+09,9E+09,9E+09,9E+09,9E+09]], v200, z50, toolSprayGun;
MoveL [[392.358,637.267,592.402],[0.5,-0.5,0.5,0.5],[1,0,-1,1],[9E+09,9E+09,9E+09,9E+09,9E+09,9E+09]], v200, z50, toolSprayGun;
MoveL [[393.086,641.403,592.216],[0.5,-0.5,0.5,0.5],[1,0,-1,1],[9E+09,9E+09,9E+09,9E+09,9E+09,9E+09]], v200, z50, toolSprayGun;
MoveL [[392.457,643.53,591.778],[0.5,-0.5,0.5,0.5],[1,0,-1,1],[9E+09,9E+09,9E+09,9E+09,9E+09,9E+09]], v200, z50, toolSprayGun;
MoveL [[392.478,650.098,590.992],[0.5,-0.5,0.5,0.5],[1,0,-1,1],[9E+09,9E+09,9E+09,9E+09,9E+09,9E+09]], v200, z50, toolSprayGun;
MoveL [[392.769,653.814,590.582],[0.5,-0.5,0.5,0.5],[1,0,-1,1],[9E+09,9E+09,9E+09,9E+09,9E+09,9E+09]], v200, z50, toolSprayGun;
MoveL [[392.936,659.926,591.071],[0.5,-0.5,0.5,0.5],[1,0,-1,1],[9E+09,9E+09,9E+09,9E+09,9E+09,9E+09]], v200, z50, toolSprayGun;
MoveL [[393.461,662.5,591.308],[0.5,-0.5,0.5,0.5],[1,0,-1,1],[9E+09,9E+09,9E+09,9E+09,9E+09,9E+09]], v200, z50, toolSprayGun;
MoveL [[394.11,665.46,591.124],[0.5,-0.5,0.5,0.5],[1,0,-1,1],[9E+09,9E+09,9E+09,9E+09,9E+09,9E+09]], v200, z50, toolSprayGun;
MoveL [[394.017,670.559,590.281],[0.5,-0.5,0.5,0.5],[1,0,-1,1],[9E+09,9E+09,9E+09,9E+09,9E+09,9E+09]], v200, z50, toolSprayGun;
MoveL [[393.638,676.352,589.815],[0.5,-0.5,0.5,0.5],[1,0,-1,1],[9E+09,9E+09,9E+09,9E+09,9E+09,9E+09]], v200, z50, toolSprayGun;
MoveL [[393.321,680.304,589.185],[0.5,-0.5,0.5,0.5],[1,0,-1,1],[9E+09,9E+09,9E+09,9E+09,9E+09,9E+09]], v200, z50, toolSprayGun;
MoveL [[393.084,683.756,588.845],[0.5,-0.5,0.5,0.5],[1,0,-1,1],[9E+09,9E+09,9E+09,9E+09,9E+09,9E+09]], v200, z50, toolSprayGun;
MoveL [[392.438,687.864,588.106],[0.5,-0.5,0.5,0.5],[1,0,-1,1],[9E+09,9E+09,9E+09,9E+09,9E+09,9E+09]], v200, z50, toolSprayGun;
MoveL [[393.193,690.77,588.081],[0.5,-0.5,0.5,0.5],[1,0,-1,1],[9E+09,9E+09,9E+09,9E+09,9E+09,9E+09]], v200, z50, toolSprayGun;
MoveL [[393.114,695.968,587.502],[0.5,-0.5,0.5,0.5],[1,0,-1,1],[9E+09,9E+09,9E+09,9E+09,9E+09,9E+09]], v200, z50, toolSprayGun;
MoveL [[393.546,700.831,587.336],[0.5,-0.5,0.5,0.5],[1,0,-1,1],[9E+09,9E+09,9E+09,9E+09,9E+09,9E+09]], v200, z50, toolSprayGun;
MoveL [[393.644,705.591,586.78],[0.5,-0.5,0.5,0.5],[1,0,-1,1],[9E+09,9E+09,9E+09,9E+09,9E+09,9E+09]], v200, z50, toolSprayGun;
MoveL [[394.076,709.816,587.17],[0.5,-0.5,0.5,0.5],[1,0,-1,1],[9E+09,9E+09,9E+09,9E+09,9E+09,9E+09]], v200, z50, toolSprayGun;
MoveL [[394.288,713.387,587.075],[0.5,-0.5,0.5,0.5],[1,0,-1,1],[9E+09,9E+09,9E+09,9E+09,9E+09,9E+09]], v200, z50, toolSprayGun;
MoveL [[394.223,717.117,587.466],[0.5,-0.5,0.5,0.5],[1,0,-1,1],[9E+09,9E+09,9E+09,9E+09,9E+09,9E+09]], v200, z50, toolSprayGun;
MoveL [[393.794,722.59,586.659],[0.5,-0.5,0.5,0.5],[1,0,-1,1],[9E+09,9E+09,9E+09,9E+09,9E+09,9E+09]], v200, z50, toolSprayGun;
MoveL [[394.503,727.805,586.203],[0.5,-0.5,0.5,0.5],[1,0,-1,1],[9E+09,9E+09,9E+09,9E+09,9E+09,9E+09]], v200, z50, toolSprayGun;
MoveL [[395.067,731.427,585.794],[0.5,-0.5,0.5,0.5],[1,0,-1,1],[9E+09,9E+09,9E+09,9E+09,9E+09,9E+09]], v200, z50, toolSprayGun;
MoveL [[395.454,735.145,585.131],[0.5,-0.5,0.5,0.5],[1,0,-1,1],[9E+09,9E+09,9E+09,9E+09,9E+09,9E+09]], v200, z50, toolSprayGun;
MoveL [[395.234,739.361,584.131],[0.5,-0.5,0.5,0.5],[1,0,-1,1],[9E+09,9E+09,9E+09,9E+09,9E+09,9E+09]], v200, z50, toolSprayGun;
MoveL [[395.391,742.464,583.693],[0.5,-0.5,0.5,0.5],[1,0,-1,1],[9E+09,9E+09,9E+09,9E+09,9E+09,9E+09]], v200, z50, toolSprayGun;
MoveL [[396.007,746.282,583.315],[0.5,-0.5,0.5,0.5],[1,0,-1,1],[9E+09,9E+09,9E+09,9E+09,9E+09,9E+09]], v200, z50, toolSprayGun;
MoveL [[396.837,749.12,583.142],[0.5,-0.5,0.5,0.5],[1,0,-1,1],[9E+09,9E+09,9E+09,9E+09,9E+09,9E+09]], v200, z50, toolSprayGun;
MoveL [[397.227,753.659,583.182],[0.5,-0.5,0.5,0.5],[1,0,-1,1],[9E+09,9E+09,9E+09,9E+09,9E+09,9E+09]], v200, z50, toolSprayGun;
MoveL [[397.453,756.699,583.116],[0.5,-0.5,0.5,0.5],[1,0,-1,1],[9E+09,9E+09,9E+09,9E+09,9E+09,9E+09]], v200, z50, toolSprayGun;
MoveL [[397.998,760.4,582.936],[0.5,-0.5,0.5,0.5],[1,0,-1,1],[9E+09,9E+09,9E+09,9E+09,9E+09,9E+09]], v200, z50, toolSprayGun;
MoveL [[398.607,763.876,582.872],[0.5,-0.5,0.5,0.5],[1,0,-1,1],[9E+09,9E+09,9E+09,9E+09,9E+09,9E+09]], v200, z50, toolSprayGun;
MoveL [[398.382,768.033,582.3],[0.5,-0.5,0.5,0.5],[1,0,-1,1],[9E+09,9E+09,9E+09,9E+09,9E+09,9E+09]], v200, z50, toolSprayGun;
MoveL [[398.202,771.559,581.802],[0.5,-0.5,0.5,0.5],[1,0,-1,1],[9E+09,9E+09,9E+09,9E+09,9E+09,9E+09]], v200, z50, toolSprayGun;
MoveL [[398.671,774.963,581.43],[0.5,-0.5,0.5,0.5],[1,0,-1,1],[9E+09,9E+09,9E+09,9E+09,9E+09,9E+09]], v200, z50, toolSprayGun;
MoveL [[399.144,778.25,580.417],[0.5,-0.5,0.5,0.5],[1,0,-1,1],[9E+09,9E+09,9E+09,9E+09,9E+09,9E+09]], v200, z50, toolSprayGun;
MoveL [[399.321,780.949,579.633],[0.5,-0.5,0.5,0.5],[1,0,-1,1],[9E+09,9E+09,9E+09,9E+09,9E+09,9E+09]], v200, z50, toolSprayGun;
MoveL [[400.143,783.39,579.085],[0.5,-0.5,0.5,0.5],[1,0,-1,1],[9E+09,9E+09,9E+09,9E+09,9E+09,9E+09]], v200, z50, toolSprayGun;
MoveL [[400.786,786.675,578.363],[0.5,-0.5,0.5,0.5],[1,0,-1,1],[9E+09,9E+09,9E+09,9E+09,9E+09,9E+09]], v200, z50, toolSprayGun;
MoveL [[400.859,789.486,577.409],[0.5,-0.5,0.5,0.5],[1,0,-1,1],[9E+09,9E+09,9E+09,9E+09,9E+09,9E+09]], v200, z50, toolSprayGun;
MoveL [[402.061,794.192,576.053],[0.5,-0.5,0.5,0.5],[1,0,-1,1],[9E+09,9E+09,9E+09,9E+09,9E+09,9E+09]], v200, z50, toolSprayGun;
MoveL [[403.173,798.249,575.253],[0.5,-0.5,0.5,0.5],[1,0,-1,1],[9E+09,9E+09,9E+09,9E+09,9E+09,9E+09]], v200, z50, toolSprayGun;
MoveL [[403.961,802.09,574.848],[0.5,-0.5,0.5,0.5],[1,0,-1,1],[9E+09,9E+09,9E+09,9E+09,9E+09,9E+09]], v200, z50, toolSprayGun;
MoveL [[403.982,804.485,574.865],[0.5,-0.5,0.5,0.5],[1,0,-1,1],[9E+09,9E+09,9E+09,9E+09,9E+09,9E+09]], v200, z50, toolSprayGun;
MoveL [[404.539,808.123,574.343],[0.5,-0.5,0.5,0.5],[1,0,-1,1],[9E+09,9E+09,9E+09,9E+09,9E+09,9E+09]], v200, z50, toolSprayGun;
MoveL [[405.267,811.35,574.103],[0.5,-0.5,0.5,0.5],[1,0,-1,1],[9E+09,9E+09,9E+09,9E+09,9E+09,9E+09]], v200, z50, toolSprayGun;
MoveL [[405.627,815.81,573.917],[0.5,-0.5,0.5,0.5],[1,0,-1,1],[9E+09,9E+09,9E+09,9E+09,9E+09,9E+09]], v200, z50, toolSprayGun;
MoveL [[405.582,819.539,573.967],[0.5,-0.5,0.5,0.5],[1,0,-1,1],[9E+09,9E+09,9E+09,9E+09,9E+09,9E+09]], v200, z50, toolSprayGun;
MoveL [[405.433,822.457,573.723],[0.5,-0.5,0.5,0.5],[1,0,-1,1],[9E+09,9E+09,9E+09,9E+09,9E+09,9E+09]], v200, z50, toolSprayGun;
MoveL [[405.45,826.019,576.175],[0.5,-0.5,0.5,0.5],[1,0,-1,1],[9E+09,9E+09,9E+09,9E+09,9E+09,9E+09]], v200, z50, toolSprayGun;
MoveL [[404.824,828.487,576.111],[0.5,-0.5,0.5,0.5],[1,0,-1,1],[9E+09,9E+09,9E+09,9E+09,9E+09,9E+09]], v200, z50, toolSprayGun;
MoveL [[403.519,830.875,576.1],[0.5,-0.5,0.5,0.5],[1,0,-1,1],[9E+09,9E+09,9E+09,9E+09,9E+09,9E+09]], v200, z50, toolSprayGun;
MoveL [[402.681,832.986,575.65],[0.5,-0.5,0.5,0.5],[1,0,-1,1],[9E+09,9E+09,9E+09,9E+09,9E+09,9E+09]], v200, z50, toolSprayGun;
MoveL [[401.321,835.614,576.55],[0.5,-0.5,0.5,0.5],[1,0,-1,1],[9E+09,9E+09,9E+09,9E+09,9E+09,9E+09]], v200, z50, toolSprayGun;
MoveL [[400.293,837.411,576.557],[0.5,-0.5,0.5,0.5],[1,0,-1,1],[9E+09,9E+09,9E+09,9E+09,9E+09,9E+09]], v200, z50, toolSprayGun;
MoveL [[398.656,838.337,576.715],[0.5,-0.5,0.5,0.5],[1,0,-1,1],[9E+09,9E+09,9E+09,9E+09,9E+09,9E+09]], v200, z50, toolSprayGun;
MoveL [[397.491,840.11,576.695],[0.5,-0.5,0.5,0.5],[1,0,-1,1],[9E+09,9E+09,9E+09,9E+09,9E+09,9E+09]], v200, z50, toolSprayGun;
MoveL [[396.163,840.525,577.597],[0.5,-0.5,0.5,0.5],[1,0,-1,1],[9E+09,9E+09,9E+09,9E+09,9E+09,9E+09]], v200, z50, toolSprayGun;
MoveL [[395.236,841.624,577.53],[0.5,-0.5,0.5,0.5],[1,0,-1,1],[9E+09,9E+09,9E+09,9E+09,9E+09,9E+09]], v200, z50, toolSprayGun;
MoveL [[393.543,842.104,577.781],[0.5,-0.5,0.5,0.5],[1,0,-1,1],[9E+09,9E+09,9E+09,9E+09,9E+09,9E+09]], v200, z50, toolSprayGun;
MoveL [[392.119,843.145,577.819],[0.5,-0.5,0.5,0.5],[1,0,-1,1],[9E+09,9E+09,9E+09,9E+09,9E+09,9E+09]], v200, z50, toolSprayGun;
MoveL [[388.578,843.947,577.674],[0.5,-0.5,0.5,0.5],[1,0,-1,1],[9E+09,9E+09,9E+09,9E+09,9E+09,9E+09]], v200, z50, toolSprayGun;
MoveL [[386.376,844.775,577.894],[0.5,-0.5,0.5,0.5],[1,0,-1,1],[9E+09,9E+09,9E+09,9E+09,9E+09,9E+09]], v200, z50, toolSprayGun;
MoveL [[381.003,845.758,578.344],[0.5,-0.5,0.5,0.5],[1,0,-1,1],[9E+09,9E+09,9E+09,9E+09,9E+09,9E+09]], v200, z50, toolSprayGun;
MoveL [[377.7,845.945,578.32],[0.5,-0.5,0.5,0.5],[1,0,-1,1],[9E+09,9E+09,9E+09,9E+09,9E+09,9E+09]], v200, z50, toolSprayGun;
MoveL [[371.287,845.917,578.139],[0.5,-0.5,0.5,0.5],[1,0,-1,1],[9E+09,9E+09,9E+09,9E+09,9E+09,9E+09]], v200, z50, toolSprayGun;
MoveL [[367.477,846.804,577.858],[0.5,-0.5,0.5,0.5],[1,0,-1,1],[9E+09,9E+09,9E+09,9E+09,9E+09,9E+09]], v200, z50, toolSprayGun;
MoveL [[363.187,846.315,578.882],[0.5,-0.5,0.5,0.5],[1,0,-1,1],[9E+09,9E+09,9E+09,9E+09,9E+09,9E+09]], v200, z50, toolSprayGun;
MoveL [[358.022,846.796,579.559],[0.5,-0.5,0.5,0.5],[1,0,-1,1],[9E+09,9E+09,9E+09,9E+09,9E+09,9E+09]], v200, z50, toolSprayGun;
MoveL [[353.444,845.736,580.357],[0.5,-0.5,0.5,0.5],[1,0,-1,1],[9E+09,9E+09,9E+09,9E+09,9E+09,9E+09]], v200, z50, toolSprayGun;
MoveL [[348.801,845.585,580.669],[0.5,-0.5,0.5,0.5],[1,0,-1,1],[9E+09,9E+09,9E+09,9E+09,9E+09,9E+09]], v200, z50, toolSprayGun;
MoveL [[343.765,846.062,580.271],[0.5,-0.5,0.5,0.5],[1,0,-1,1],[9E+09,9E+09,9E+09,9E+09,9E+09,9E+09]], v200, z50, toolSprayGun;
MoveL [[340.033,845.441,580.298],[0.5,-0.5,0.5,0.5],[1,0,-1,1],[9E+09,9E+09,9E+09,9E+09,9E+09,9E+09]], v200, z50, toolSprayGun;
MoveL [[332.22,846.537,581.162],[0.5,-0.5,0.5,0.5],[1,0,-1,1],[9E+09,9E+09,9E+09,9E+09,9E+09,9E+09]], v200, z50, toolSprayGun;
MoveL [[328.605,848.422,581.112],[0.5,-0.5,0.5,0.5],[1,0,-1,1],[9E+09,9E+09,9E+09,9E+09,9E+09,9E+09]], v200, z50, toolSprayGun;
MoveL [[323.6,850.655,579.977],[0.5,-0.5,0.5,0.5],[1,0,-1,1],[9E+09,9E+09,9E+09,9E+09,9E+09,9E+09]], v200, z50, toolSprayGun;
MoveL [[319.333,850.819,580.115],[0.5,-0.5,0.5,0.5],[1,0,-1,1],[9E+09,9E+09,9E+09,9E+09,9E+09,9E+09]], v200, z50, toolSprayGun;
MoveL [[312.994,850.992,581.479],[0.5,-0.5,0.5,0.5],[1,0,-1,1],[9E+09,9E+09,9E+09,9E+09,9E+09,9E+09]], v200, z50, toolSprayGun;
MoveL [[307.383,850.832,583.014],[0.5,-0.5,0.5,0.5],[1,0,-1,1],[9E+09,9E+09,9E+09,9E+09,9E+09,9E+09]], v200, z50, toolSprayGun;
MoveL [[304.542,851.2,584.375],[0.5,-0.5,0.5,0.5],[1,0,-1,1],[9E+09,9E+09,9E+09,9E+09,9E+09,9E+09]], v200, z50, toolSprayGun;
MoveL [[299.146,851.889,585.903],[0.5,-0.5,0.5,0.5],[1,0,-1,1],[9E+09,9E+09,9E+09,9E+09,9E+09,9E+09]], v200, z50, toolSprayGun;
MoveL [[292.941,851.339,585.722],[0.5,-0.5,0.5,0.5],[1,0,-1,1],[9E+09,9E+09,9E+09,9E+09,9E+09,9E+09]], v200, z50, toolSprayGun;
MoveL [[286.47,849.513,585.71],[0.5,-0.5,0.5,0.5],[1,0,-1,1],[9E+09,9E+09,9E+09,9E+09,9E+09,9E+09]], v200, z50, toolSprayGun;
MoveL [[276.267,845.893,584.508],[0.5,-0.5,0.5,0.5],[1,0,-1,1],[9E+09,9E+09,9E+09,9E+09,9E+09,9E+09]], v200, z50, toolSprayGun;
MoveL [[270.346,845.132,585.334],[0.5,-0.5,0.5,0.5],[1,0,-1,1],[9E+09,9E+09,9E+09,9E+09,9E+09,9E+09]], v200, z50, toolSprayGun;
MoveL [[266.771,845.118,585.87],[0.5,-0.5,0.5,0.5],[1,0,-1,1],[9E+09,9E+09,9E+09,9E+09,9E+09,9E+09]], v200, z50, toolSprayGun;
MoveL [[262.603,845.116,586.45],[0.5,-0.5,0.5,0.5],[1,0,-1,1],[9E+09,9E+09,9E+09,9E+09,9E+09,9E+09]], v200, z50, toolSprayGun;
MoveL [[259.207,845.113,587.055],[0.5,-0.5,0.5,0.5],[1,0,-1,1],[9E+09,9E+09,9E+09,9E+09,9E+09,9E+09]], v200, z50, toolSprayGun;
MoveL [[255.761,845.217,588.646],[0.5,-0.5,0.5,0.5],[1,0,-1,1],[9E+09,9E+09,9E+09,9E+09,9E+09,9E+09]], v200, z50, toolSprayGun;
MoveL [[254.197,845.549,591.096],[0.5,-0.5,0.5,0.5],[1,0,-1,1],[9E+09,9E+09,9E+09,9E+09,9E+09,9E+09]], v200, z50, toolSprayGun;
MoveL [[249.297,845.753,593.102],[0.5,-0.5,0.5,0.5],[1,0,-1,1],[9E+09,9E+09,9E+09,9E+09,9E+09,9E+09]], v200, z50, toolSprayGun;
MoveL [[247.822,847.763,595.427],[0.5,-0.5,0.5,0.5],[1,0,-1,1],[9E+09,9E+09,9E+09,9E+09,9E+09,9E+09]], v200, z50, toolSprayGun;
MoveL [[242.278,848.371,597.218],[0.5,-0.5,0.5,0.5],[1,0,-1,1],[9E+09,9E+09,9E+09,9E+09,9E+09,9E+09]], v200, z50, toolSprayGun;
MoveL [[236.55,849.564,597.456],[0.5,-0.5,0.5,0.5],[1,0,-1,1],[9E+09,9E+09,9E+09,9E+09,9E+09,9E+09]], v200, z50, toolSprayGun;
MoveL [[230.709,848.907,597.487],[0.5,-0.5,0.5,0.5],[1,0,-1,1],[9E+09,9E+09,9E+09,9E+09,9E+09,9E+09]], v200, z50, toolSprayGun;
MoveL [[224.72,849.058,596.535],[0.5,-0.5,0.5,0.5],[1,0,-1,1],[9E+09,9E+09,9E+09,9E+09,9E+09,9E+09]], v200, z50, toolSprayGun;
MoveL [[216.927,848.096,594.94],[0.5,-0.5,0.5,0.5],[1,0,-1,1],[9E+09,9E+09,9E+09,9E+09,9E+09,9E+09]], v200, z50, toolSprayGun;
MoveL [[214.226,848.391,596.6],[0.5,-0.5,0.5,0.5],[1,0,-1,1],[9E+09,9E+09,9E+09,9E+09,9E+09,9E+09]], v200, z50, toolSprayGun;
MoveL [[209.808,847.998,595.608],[0.5,-0.5,0.5,0.5],[1,0,-1,1],[9E+09,9E+09,9E+09,9E+09,9E+09,9E+09]], v200, z50, toolSprayGun;
MoveL [[205.333,847.828,593.107],[0.5,-0.5,0.5,0.5],[1,0,-1,1],[9E+09,9E+09,9E+09,9E+09,9E+09,9E+09]], v200, z50, toolSprayGun;
MoveL [[201.231,849.32,593.997],[0.5,-0.5,0.5,0.5],[1,0,-1,1],[9E+09,9E+09,9E+09,9E+09,9E+09,9E+09]], v200, z50, toolSprayGun;
MoveL [[198.703,850.849,594.583],[0.5,-0.5,0.5,0.5],[1,0,-1,1],[9E+09,9E+09,9E+09,9E+09,9E+09,9E+09]], v200, z50, toolSprayGun;
MoveL [[195.698,851.974,594.319],[0.5,-0.5,0.5,0.5],[1,0,-1,1],[9E+09,9E+09,9E+09,9E+09,9E+09,9E+09]], v200, z50, toolSprayGun;
MoveL [[193.099,851.806,593.838],[0.5,-0.5,0.5,0.5],[1,0,-1,1],[9E+09,9E+09,9E+09,9E+09,9E+09,9E+09]], v200, z50, toolSprayGun;
MoveL [[189.659,852.958,594.498],[0.5,-0.5,0.5,0.5],[1,0,-1,1],[9E+09,9E+09,9E+09,9E+09,9E+09,9E+09]], v200, z50, toolSprayGun;
MoveL [[187.256,854.121,595.4],[0.5,-0.5,0.5,0.5],[1,0,-1,1],[9E+09,9E+09,9E+09,9E+09,9E+09,9E+09]], v200, z50, toolSprayGun;
MoveL [[183.602,854.433,595.331],[0.5,-0.5,0.5,0.5],[1,0,-1,1],[9E+09,9E+09,9E+09,9E+09,9E+09,9E+09]], v200, z50, toolSprayGun;
MoveL [[181.533,854.144,595.635],[0.5,-0.5,0.5,0.5],[1,0,-1,1],[9E+09,9E+09,9E+09,9E+09,9E+09,9E+09]], v200, z50, toolSprayGun;
MoveL [[178.992,854.305,595.874],[0.5,-0.5,0.5,0.5],[1,0,-1,1],[9E+09,9E+09,9E+09,9E+09,9E+09,9E+09]], v200, z50, toolSprayGun;
MoveL [[177.002,854.436,595.844],[0.5,-0.5,0.5,0.5],[1,0,-1,1],[9E+09,9E+09,9E+09,9E+09,9E+09,9E+09]], v200, z50, toolSprayGun;
MoveL [[174.858,854.584,595.612],[0.5,-0.5,0.5,0.5],[1,0,-1,1],[9E+09,9E+09,9E+09,9E+09,9E+09,9E+09]], v200, z50, toolSprayGun;
MoveL [[173.329,854.765,595.043],[0.5,-0.5,0.5,0.5],[1,0,-1,1],[9E+09,9E+09,9E+09,9E+09,9E+09,9E+09]], v200, z50, toolSprayGun;
MoveL [[172.081,854.535,594.914],[0.5,-0.5,0.5,0.5],[1,0,-1,1],[9E+09,9E+09,9E+09,9E+09,9E+09,9E+09]], v200, z50, toolSprayGun;
MoveL [[170.432,853.931,595.26],[0.5,-0.5,0.5,0.5],[1,0,-1,1],[9E+09,9E+09,9E+09,9E+09,9E+09,9E+09]], v200, z50, toolSprayGun;
MoveL [[169.308,853.442,595.179],[0.5,-0.5,0.5,0.5],[1,0,-1,1],[9E+09,9E+09,9E+09,9E+09,9E+09,9E+09]], v200, z50, toolSprayGun;
MoveL [[168.757,851.451,595.786],[0.5,-0.5,0.5,0.5],[1,0,-1,1],[9E+09,9E+09,9E+09,9E+09,9E+09,9E+09]], v200, z50, toolSprayGun;
MoveL [[168,850.946,595.843],[0.5,-0.5,0.5,0.5],[1,0,-1,1],[9E+09,9E+09,9E+09,9E+09,9E+09,9E+09]], v200, z50, toolSprayGun;
MoveL [[167.791,849.008,596.482],[0.5,-0.5,0.5,0.5],[1,0,-1,1],[9E+09,9E+09,9E+09,9E+09,9E+09,9E+09]], v200, z50, toolSprayGun;
MoveL [[167.564,848.049,596.917],[0.5,-0.5,0.5,0.5],[1,0,-1,1],[9E+09,9E+09,9E+09,9E+09,9E+09,9E+09]], v200, z50, toolSprayGun;
MoveL [[168.889,846.096,596.979],[0.5,-0.5,0.5,0.5],[1,0,-1,1],[9E+09,9E+09,9E+09,9E+09,9E+09,9E+09]], v200, z50, toolSprayGun;
MoveL [[168.389,844.588,597.894],[0.5,-0.5,0.5,0.5],[1,0,-1,1],[9E+09,9E+09,9E+09,9E+09,9E+09,9E+09]], v200, z50, toolSprayGun;
MoveL [[169.375,842.5,599.031],[0.5,-0.5,0.5,0.5],[1,0,-1,1],[9E+09,9E+09,9E+09,9E+09,9E+09,9E+09]], v200, z50, toolSprayGun;
MoveL [[169.109,840.019,600.006],[0.5,-0.5,0.5,0.5],[1,0,-1,1],[9E+09,9E+09,9E+09,9E+09,9E+09,9E+09]], v200, z50, toolSprayGun;
MoveL [[170.201,837.154,600.445],[0.5,-0.5,0.5,0.5],[1,0,-1,1],[9E+09,9E+09,9E+09,9E+09,9E+09,9E+09]], v200, z50, toolSprayGun;
MoveL [[170.281,834.04,601.29],[0.5,-0.5,0.5,0.5],[1,0,-1,1],[9E+09,9E+09,9E+09,9E+09,9E+09,9E+09]], v200, z50, toolSprayGun;
MoveL [[171.485,829.564,601.959],[0.5,-0.5,0.5,0.5],[1,0,-1,1],[9E+09,9E+09,9E+09,9E+09,9E+09,9E+09]], v200, z50, toolSprayGun;
MoveL [[171.899,826.036,602.581],[0.5,-0.5,0.5,0.5],[1,0,-1,1],[9E+09,9E+09,9E+09,9E+09,9E+09,9E+09]], v200, z50, toolSprayGun;
MoveL [[172.673,823.075,602.634],[0.5,-0.5,0.5,0.5],[1,0,-1,1],[9E+09,9E+09,9E+09,9E+09,9E+09,9E+09]], v200, z50, toolSprayGun;
MoveL [[172.738,821.4,602.836],[0.5,-0.5,0.5,0.5],[1,0,-1,1],[9E+09,9E+09,9E+09,9E+09,9E+09,9E+09]], v200, z50, toolSprayGun;
MoveL [[173.836,818.472,602.863],[0.5,-0.5,0.5,0.5],[1,0,-1,1],[9E+09,9E+09,9E+09,9E+09,9E+09,9E+09]], v200, z50, toolSprayGun;
MoveL [[174.243,814.705,602.887],[0.5,-0.5,0.5,0.5],[1,0,-1,1],[9E+09,9E+09,9E+09,9E+09,9E+09,9E+09]], v200, z50, toolSprayGun;
MoveL [[175.018,810.283,602.455],[0.5,-0.5,0.5,0.5],[1,0,-1,1],[9E+09,9E+09,9E+09,9E+09,9E+09,9E+09]], v200, z50, toolSprayGun;
MoveL [[174.979,806.575,602.226],[0.5,-0.5,0.5,0.5],[1,0,-1,1],[9E+09,9E+09,9E+09,9E+09,9E+09,9E+09]], v200, z50, toolSprayGun;
MoveL [[175.179,802.584,602.22],[0.5,-0.5,0.5,0.5],[1,0,-1,1],[9E+09,9E+09,9E+09,9E+09,9E+09,9E+09]], v200, z50, toolSprayGun;
MoveL [[175.086,798.34,602.159],[0.5,-0.5,0.5,0.5],[1,0,-1,1],[9E+09,9E+09,9E+09,9E+09,9E+09,9E+09]], v200, z50, toolSprayGun;
MoveL [[175.639,794.89,601.799],[0.5,-0.5,0.5,0.5],[1,0,-1,1],[9E+09,9E+09,9E+09,9E+09,9E+09,9E+09]], v200, z50, toolSprayGun;
MoveL [[175.809,789.833,601.931],[0.5,-0.5,0.5,0.5],[1,0,-1,1],[9E+09,9E+09,9E+09,9E+09,9E+09,9E+09]], v200, z50, toolSprayGun;
MoveL [[176.676,785.83,600.918],[0.5,-0.5,0.5,0.5],[1,0,-1,1],[9E+09,9E+09,9E+09,9E+09,9E+09,9E+09]], v200, z50, toolSprayGun;
MoveL [[176.122,780.271,600.905],[0.5,-0.5,0.5,0.5],[1,0,-1,1],[9E+09,9E+09,9E+09,9E+09,9E+09,9E+09]], v200, z50, toolSprayGun;
MoveL [[177.68,776.539,601.508],[0.5,-0.5,0.5,0.5],[1,0,-1,1],[9E+09,9E+09,9E+09,9E+09,9E+09,9E+09]], v200, z50, toolSprayGun;
MoveL [[177.618,771.753,601.328],[0.5,-0.5,0.5,0.5],[1,0,-1,1],[9E+09,9E+09,9E+09,9E+09,9E+09,9E+09]], v200, z50, toolSprayGun;
MoveL [[177.617,768.546,601.932],[0.5,-0.5,0.5,0.5],[1,0,-1,1],[9E+09,9E+09,9E+09,9E+09,9E+09,9E+09]], v200, z50, toolSprayGun;
MoveL [[176.887,763.914,601.992],[0.5,-0.5,0.5,0.5],[1,0,-1,1],[9E+09,9E+09,9E+09,9E+09,9E+09,9E+09]], v200, z50, toolSprayGun;
MoveL [[177.31,759.044,601.766],[0.5,-0.5,0.5,0.5],[1,0,-1,1],[9E+09,9E+09,9E+09,9E+09,9E+09,9E+09]], v200, z50, toolSprayGun;
MoveL [[178.328,720.747,607.409],[0.5,-0.5,0.5,0.5],[1,0,-1,1],[9E+09,9E+09,9E+09,9E+09,9E+09,9E+09]], v200, z50, toolSprayGun;
MoveL [[178.592,716.965,607.304],[0.5,-0.5,0.5,0.5],[1,0,-1,1],[9E+09,9E+09,9E+09,9E+09,9E+09,9E+09]], v200, z50, toolSprayGun;
MoveL [[178.568,714.095,607.303],[0.5,-0.5,0.5,0.5],[1,0,-1,1],[9E+09,9E+09,9E+09,9E+09,9E+09,9E+09]], v200, z50, toolSprayGun;
MoveL [[180.131,710.096,608.284],[0.5,-0.5,0.5,0.5],[1,0,-1,1],[9E+09,9E+09,9E+09,9E+09,9E+09,9E+09]], v200, z50, toolSprayGun;
MoveL [[180.647,704.807,609.839],[0.5,-0.5,0.5,0.5],[1,0,-1,1],[9E+09,9E+09,9E+09,9E+09,9E+09,9E+09]], v200, z50, toolSprayGun;
MoveL [[180.848,699.35,610.721],[0.5,-0.5,0.5,0.5],[1,0,-1,1],[9E+09,9E+09,9E+09,9E+09,9E+09,9E+09]], v200, z50, toolSprayGun;
MoveL [[181.081,694.721,610.667],[0.5,-0.5,0.5,0.5],[1,0,-1,1],[9E+09,9E+09,9E+09,9E+09,9E+09,9E+09]], v200, z50, toolSprayGun;
MoveL [[182.228,690.695,609.999],[0.5,-0.5,0.5,0.5],[1,0,-1,1],[9E+09,9E+09,9E+09,9E+09,9E+09,9E+09]], v200, z50, toolSprayGun;
MoveL [[182.431,685.357,608.814],[0.5,-0.5,0.5,0.5],[1,0,-1,1],[9E+09,9E+09,9E+09,9E+09,9E+09,9E+09]], v200, z50, toolSprayGun;
MoveL [[182.795,681.565,608.63],[0.5,-0.5,0.5,0.5],[1,0,-1,1],[9E+09,9E+09,9E+09,9E+09,9E+09,9E+09]], v200, z50, toolSprayGun;
MoveL [[182.244,678.332,606.977],[0.5,-0.5,0.5,0.5],[1,0,-1,1],[9E+09,9E+09,9E+09,9E+09,9E+09,9E+09]], v200, z50, toolSprayGun;
MoveL [[182.296,674.561,607.205],[0.5,-0.5,0.5,0.5],[1,0,-1,1],[9E+09,9E+09,9E+09,9E+09,9E+09,9E+09]], v200, z50, toolSprayGun;
MoveL [[181.908,670.06,607.075],[0.5,-0.5,0.5,0.5],[1,0,-1,1],[9E+09,9E+09,9E+09,9E+09,9E+09,9E+09]], v200, z50, toolSprayGun;
MoveL [[182.025,665.972,606.862],[0.5,-0.5,0.5,0.5],[1,0,-1,1],[9E+09,9E+09,9E+09,9E+09,9E+09,9E+09]], v200, z50, toolSprayGun;
MoveL [[181.725,661.178,606.864],[0.5,-0.5,0.5,0.5],[1,0,-1,1],[9E+09,9E+09,9E+09,9E+09,9E+09,9E+09]], v200, z50, toolSprayGun;
MoveL [[181.581,655.35,606.593],[0.5,-0.5,0.5,0.5],[1,0,-1,1],[9E+09,9E+09,9E+09,9E+09,9E+09,9E+09]], v200, z50, toolSprayGun;
MoveL [[180.607,650.304,605.763],[0.5,-0.5,0.5,0.5],[1,0,-1,1],[9E+09,9E+09,9E+09,9E+09,9E+09,9E+09]], v200, z50, toolSprayGun;
MoveL [[179.733,645.297,605.737],[0.5,-0.5,0.5,0.5],[1,0,-1,1],[9E+09,9E+09,9E+09,9E+09,9E+09,9E+09]], v200, z50, toolSprayGun;
MoveL [[180.157,642.898,604.87],[0.5,-0.5,0.5,0.5],[1,0,-1,1],[9E+09,9E+09,9E+09,9E+09,9E+09,9E+09]], v200, z50, toolSprayGun;
MoveL [[179.05,638.676,605.136],[0.5,-0.5,0.5,0.5],[1,0,-1,1],[9E+09,9E+09,9E+09,9E+09,9E+09,9E+09]], v200, z50, toolSprayGun;
MoveL [[177.868,634.815,604.572],[0.5,-0.5,0.5,0.5],[1,0,-1,1],[9E+09,9E+09,9E+09,9E+09,9E+09,9E+09]], v200, z50, toolSprayGun;
MoveL [[177.384,631.501,604.509],[0.5,-0.5,0.5,0.5],[1,0,-1,1],[9E+09,9E+09,9E+09,9E+09,9E+09,9E+09]], v200, z50, toolSprayGun;
MoveL [[177.589,627.259,603.863],[0.5,-0.5,0.5,0.5],[1,0,-1,1],[9E+09,9E+09,9E+09,9E+09,9E+09,9E+09]], v200, z50, toolSprayGun;
MoveL [[177.08,624.217,603.546],[0.5,-0.5,0.5,0.5],[1,0,-1,1],[9E+09,9E+09,9E+09,9E+09,9E+09,9E+09]], v200, z50, toolSprayGun;
MoveL [[176.974,621.588,602.851],[0.5,-0.5,0.5,0.5],[1,0,-1,1],[9E+09,9E+09,9E+09,9E+09,9E+09,9E+09]], v200, z50, toolSprayGun;
MoveL [[176.679,618.712,603.171],[0.5,-0.5,0.5,0.5],[1,0,-1,1],[9E+09,9E+09,9E+09,9E+09,9E+09,9E+09]], v200, z50, toolSprayGun;
MoveL [[176.724,614.588,602.548],[0.5,-0.5,0.5,0.5],[1,0,-1,1],[9E+09,9E+09,9E+09,9E+09,9E+09,9E+09]], v200, z50, toolSprayGun;
MoveL [[177.065,611.107,602.629],[0.5,-0.5,0.5,0.5],[1,0,-1,1],[9E+09,9E+09,9E+09,9E+09,9E+09,9E+09]], v200, z50, toolSprayGun;
MoveL [[178.469,607.245,602.481],[0.5,-0.5,0.5,0.5],[1,0,-1,1],[9E+09,9E+09,9E+09,9E+09,9E+09,9E+09]], v200, z50, toolSprayGun;
MoveL [[179.184,604.432,602.083],[0.5,-0.5,0.5,0.5],[1,0,-1,1],[9E+09,9E+09,9E+09,9E+09,9E+09,9E+09]], v200, z50, toolSprayGun;
MoveL [[179.813,599.157,602.41],[0.5,-0.5,0.5,0.5],[1,0,-1,1],[9E+09,9E+09,9E+09,9E+09,9E+09,9E+09]], v200, z50, toolSprayGun;
MoveL [[179.974,597.053,602.046],[0.5,-0.5,0.5,0.5],[1,0,-1,1],[9E+09,9E+09,9E+09,9E+09,9E+09,9E+09]], v200, z50, toolSprayGun;
MoveL [[180.115,594.199,601.53],[0.5,-0.5,0.5,0.5],[1,0,-1,1],[9E+09,9E+09,9E+09,9E+09,9E+09,9E+09]], v200, z50, toolSprayGun;
MoveL [[179.93,592.475,600.803],[0.5,-0.5,0.5,0.5],[1,0,-1,1],[9E+09,9E+09,9E+09,9E+09,9E+09,9E+09]], v200, z50, toolSprayGun;
MoveL [[180.347,589.843,600.624],[0.5,-0.5,0.5,0.5],[1,0,-1,1],[9E+09,9E+09,9E+09,9E+09,9E+09,9E+09]], v200, z50, toolSprayGun;
MoveL [[180.031,589.35,600.307],[0.5,-0.5,0.5,0.5],[1,0,-1,1],[9E+09,9E+09,9E+09,9E+09,9E+09,9E+09]], v200, z50, toolSprayGun;
MoveL [[180.212,588.928,599.755],[0.5,-0.5,0.5,0.5],[1,0,-1,1],[9E+09,9E+09,9E+09,9E+09,9E+09,9E+09]], v200, z50, toolSprayGun;
MoveL [[180.083,586.979,599.55],[0.5,-0.5,0.5,0.5],[1,0,-1,1],[9E+09,9E+09,9E+09,9E+09,9E+09,9E+09]], v200, z50, toolSprayGun;
MoveL [[180.298,587.497,600.14],[0.5,-0.5,0.5,0.5],[1,0,-1,1],[9E+09,9E+09,9E+09,9E+09,9E+09,9E+09]], v200, z50, toolSprayGun;
MoveL [[180.444,587.256,600.846],[0.5,-0.5,0.5,0.5],[1,0,-1,1],[9E+09,9E+09,9E+09,9E+09,9E+09,9E+09]], v200, z50, toolSprayGun;
MoveL [[180.383,588.715,601.777],[0.5,-0.5,0.5,0.5],[1,0,-1,1],[9E+09,9E+09,9E+09,9E+09,9E+09,9E+09]], v200, z50, toolSprayGun;
MoveL [[179.965,589.594,601.852],[0.5,-0.5,0.5,0.5],[1,0,-1,1],[9E+09,9E+09,9E+09,9E+09,9E+09,9E+09]], v200, z50, toolSprayGun;
MoveL [[179.474,590.399,602.196],[0.5,-0.5,0.5,0.5],[1,0,-1,1],[9E+09,9E+09,9E+09,9E+09,9E+09,9E+09]], v200, z50, toolSprayGun;
MoveL [[179.122,590.445,602.764],[0.5,-0.5,0.5,0.5],[1,0,-1,1],[9E+09,9E+09,9E+09,9E+09,9E+09,9E+09]], v200, z50, toolSprayGun;
MoveL [[178.72,590.745,603.986],[0.5,-0.5,0.5,0.5],[1,0,-1,1],[9E+09,9E+09,9E+09,9E+09,9E+09,9E+09]], v200, z50, toolSprayGun;
MoveL [[178.301,590.768,604.651],[0.5,-0.5,0.5,0.5],[1,0,-1,1],[9E+09,9E+09,9E+09,9E+09,9E+09,9E+09]], v200, z50, toolSprayGun;
MoveL [[178.971,592.418,606.584],[0.5,-0.5,0.5,0.5],[1,0,-1,1],[9E+09,9E+09,9E+09,9E+09,9E+09,9E+09]], v200, z50, toolSprayGun;
MoveL [[179.664,593.573,608.04],[0.5,-0.5,0.5,0.5],[1,0,-1,1],[9E+09,9E+09,9E+09,9E+09,9E+09,9E+09]], v200, z50, toolSprayGun;
MoveL [[180.021,593.898,609.218],[0.5,-0.5,0.5,0.5],[1,0,-1,1],[9E+09,9E+09,9E+09,9E+09,9E+09,9E+09]], v200, z50, toolSprayGun;
MoveL [[180.529,594.829,610.916],[0.5,-0.5,0.5,0.5],[1,0,-1,1],[9E+09,9E+09,9E+09,9E+09,9E+09,9E+09]], v200, z50, toolSprayGun;
MoveL [[181.275,596.166,613.28],[0.5,-0.5,0.5,0.5],[1,0,-1,1],[9E+09,9E+09,9E+09,9E+09,9E+09,9E+09]], v200, z50, toolSprayGun;
MoveL [[181.295,597.467,615.335],[0.5,-0.5,0.5,0.5],[1,0,-1,1],[9E+09,9E+09,9E+09,9E+09,9E+09,9E+09]], v200, z50, toolSprayGun;
MoveL [[182.084,599.587,618.06],[0.5,-0.5,0.5,0.5],[1,0,-1,1],[9E+09,9E+09,9E+09,9E+09,9E+09,9E+09]], v200, z50, toolSprayGun;
MoveL [[182.85,601.417,620.557],[0.5,-0.5,0.5,0.5],[1,0,-1,1],[9E+09,9E+09,9E+09,9E+09,9E+09,9E+09]], v200, z50, toolSprayGun;
MoveL [[183.279,603.356,623.572],[0.5,-0.5,0.5,0.5],[1,0,-1,1],[9E+09,9E+09,9E+09,9E+09,9E+09,9E+09]], v200, z50, toolSprayGun;
MoveL [[183.817,604,626.239],[0.5,-0.5,0.5,0.5],[1,0,-1,1],[9E+09,9E+09,9E+09,9E+09,9E+09,9E+09]], v200, z50, toolSprayGun;
MoveL [[184.515,604.994,631.296],[0.5,-0.5,0.5,0.5],[1,0,-1,1],[9E+09,9E+09,9E+09,9E+09,9E+09,9E+09]], v200, z50, toolSprayGun;
MoveL [[184.935,605.269,632.621],[0.5,-0.5,0.5,0.5],[1,0,-1,1],[9E+09,9E+09,9E+09,9E+09,9E+09,9E+09]], v200, z50, toolSprayGun;
MoveL [[185.588,605.701,638.234],[0.5,-0.5,0.5,0.5],[1,0,-1,1],[9E+09,9E+09,9E+09,9E+09,9E+09,9E+09]], v200, z50, toolSprayGun;
MoveL [[186.01,606.074,642.384],[0.5,-0.5,0.5,0.5],[1,0,-1,1],[9E+09,9E+09,9E+09,9E+09,9E+09,9E+09]], v200, z50, toolSprayGun;
MoveL [[186.681,606.364,645.913],[0.5,-0.5,0.5,0.5],[1,0,-1,1],[9E+09,9E+09,9E+09,9E+09,9E+09,9E+09]], v200, z50, toolSprayGun;
MoveL [[187.077,607.217,648.855],[0.5,-0.5,0.5,0.5],[1,0,-1,1],[9E+09,9E+09,9E+09,9E+09,9E+09,9E+09]], v200, z50, toolSprayGun;
MoveL [[187.805,607.854,655.296],[0.5,-0.5,0.5,0.5],[1,0,-1,1],[9E+09,9E+09,9E+09,9E+09,9E+09,9E+09]], v200, z50, toolSprayGun;
MoveL [[188.035,608.144,658.972],[0.5,-0.5,0.5,0.5],[1,0,-1,1],[9E+09,9E+09,9E+09,9E+09,9E+09,9E+09]], v200, z50, toolSprayGun;
MoveL [[188.935,609.583,664.036],[0.5,-0.5,0.5,0.5],[1,0,-1,1],[9E+09,9E+09,9E+09,9E+09,9E+09,9E+09]], v200, z50, toolSprayGun;
MoveL [[189.128,610.321,667.007],[0.5,-0.5,0.5,0.5],[1,0,-1,1],[9E+09,9E+09,9E+09,9E+09,9E+09,9E+09]], v200, z50, toolSprayGun;
MoveL [[188.436,611.566,672.537],[0.5,-0.5,0.5,0.5],[1,0,-1,1],[9E+09,9E+09,9E+09,9E+09,9E+09,9E+09]], v200, z50, toolSprayGun;
MoveL [[188.376,611.206,678.472],[0.5,-0.5,0.5,0.5],[1,0,-1,1],[9E+09,9E+09,9E+09,9E+09,9E+09,9E+09]], v200, z50, toolSprayGun;
MoveL [[188.384,611.15,681.186],[0.5,-0.5,0.5,0.5],[1,0,-1,1],[9E+09,9E+09,9E+09,9E+09,9E+09,9E+09]], v200, z50, toolSprayGun;
MoveL [[188.534,611.252,683.417],[0.5,-0.5,0.5,0.5],[1,0,-1,1],[9E+09,9E+09,9E+09,9E+09,9E+09,9E+09]], v200, z50, toolSprayGun;
MoveL [[188.967,612.035,687.608],[0.5,-0.5,0.5,0.5],[1,0,-1,1],[9E+09,9E+09,9E+09,9E+09,9E+09,9E+09]], v200, z50, toolSprayGun;
MoveL [[188.732,613.254,690.887],[0.5,-0.5,0.5,0.5],[1,0,-1,1],[9E+09,9E+09,9E+09,9E+09,9E+09,9E+09]], v200, z50, toolSprayGun;
MoveL [[188.813,613.373,693.993],[0.5,-0.5,0.5,0.5],[1,0,-1,1],[9E+09,9E+09,9E+09,9E+09,9E+09,9E+09]], v200, z50, toolSprayGun;
MoveL [[188.573,613.007,696.987],[0.5,-0.5,0.5,0.5],[1,0,-1,1],[9E+09,9E+09,9E+09,9E+09,9E+09,9E+09]], v200, z50, toolSprayGun;
MoveL [[189.008,613.519,701.57],[0.5,-0.5,0.5,0.5],[1,0,-1,1],[9E+09,9E+09,9E+09,9E+09,9E+09,9E+09]], v200, z50, toolSprayGun;
MoveL [[189.057,614.295,706.181],[0.5,-0.5,0.5,0.5],[1,0,-1,1],[9E+09,9E+09,9E+09,9E+09,9E+09,9E+09]], v200, z50, toolSprayGun;
MoveL [[189.032,615.538,711.177],[0.5,-0.5,0.5,0.5],[1,0,-1,1],[9E+09,9E+09,9E+09,9E+09,9E+09,9E+09]], v200, z50, toolSprayGun;
MoveL [[189.394,616.114,714.871],[0.5,-0.5,0.5,0.5],[1,0,-1,1],[9E+09,9E+09,9E+09,9E+09,9E+09,9E+09]], v200, z50, toolSprayGun;
MoveL [[189.892,616.87,719.412],[0.5,-0.5,0.5,0.5],[1,0,-1,1],[9E+09,9E+09,9E+09,9E+09,9E+09,9E+09]], v200, z50, toolSprayGun;
MoveL [[190.256,617.764,723.408],[0.5,-0.5,0.5,0.5],[1,0,-1,1],[9E+09,9E+09,9E+09,9E+09,9E+09,9E+09]], v200, z50, toolSprayGun;
MoveL [[190.527,618.65,728.268],[0.5,-0.5,0.5,0.5],[1,0,-1,1],[9E+09,9E+09,9E+09,9E+09,9E+09,9E+09]], v200, z50, toolSprayGun;
MoveL [[190.787,619.567,734.453],[0.5,-0.5,0.5,0.5],[1,0,-1,1],[9E+09,9E+09,9E+09,9E+09,9E+09,9E+09]], v200, z50, toolSprayGun;
MoveL [[190.95,619.523,738.211],[0.5,-0.5,0.5,0.5],[1,0,-1,1],[9E+09,9E+09,9E+09,9E+09,9E+09,9E+09]], v200, z50, toolSprayGun;
MoveL [[190.803,619.779,742.288],[0.5,-0.5,0.5,0.5],[1,0,-1,1],[9E+09,9E+09,9E+09,9E+09,9E+09,9E+09]], v200, z50, toolSprayGun;
MoveL [[190.62,620.087,745.509],[0.5,-0.5,0.5,0.5],[1,0,-1,1],[9E+09,9E+09,9E+09,9E+09,9E+09,9E+09]], v200, z50, toolSprayGun;
MoveL [[190.71,620.415,748.888],[0.5,-0.5,0.5,0.5],[1,0,-1,1],[9E+09,9E+09,9E+09,9E+09,9E+09,9E+09]], v200, z50, toolSprayGun;
MoveL [[190.369,621.637,752.799],[0.5,-0.5,0.5,0.5],[1,0,-1,1],[9E+09,9E+09,9E+09,9E+09,9E+09,9E+09]], v200, z50, toolSprayGun;
MoveL [[190.048,621.928,755.363],[0.5,-0.5,0.5,0.5],[1,0,-1,1],[9E+09,9E+09,9E+09,9E+09,9E+09,9E+09]], v200, z50, toolSprayGun;
MoveL [[189.574,621.47,758.084],[0.5,-0.5,0.5,0.5],[1,0,-1,1],[9E+09,9E+09,9E+09,9E+09,9E+09,9E+09]], v200, z50, toolSprayGun;
MoveL [[189.036,621.127,760.983],[0.5,-0.5,0.5,0.5],[1,0,-1,1],[9E+09,9E+09,9E+09,9E+09,9E+09,9E+09]], v200, z50, toolSprayGun;
MoveL [[189.152,620.892,763.329],[0.5,-0.5,0.5,0.5],[1,0,-1,1],[9E+09,9E+09,9E+09,9E+09,9E+09,9E+09]], v200, z50, toolSprayGun;
MoveL [[188.629,620.866,766.451],[0.5,-0.5,0.5,0.5],[1,0,-1,1],[9E+09,9E+09,9E+09,9E+09,9E+09,9E+09]], v200, z50, toolSprayGun;
MoveL [[188.13,621.424,768.527],[0.5,-0.5,0.5,0.5],[1,0,-1,1],[9E+09,9E+09,9E+09,9E+09,9E+09,9E+09]], v200, z50, toolSprayGun;
MoveL [[187.71,621.97,770.509],[0.5,-0.5,0.5,0.5],[1,0,-1,1],[9E+09,9E+09,9E+09,9E+09,9E+09,9E+09]], v200, z50, toolSprayGun;
MoveL [[187.07,622.826,773.917],[0.5,-0.5,0.5,0.5],[1,0,-1,1],[9E+09,9E+09,9E+09,9E+09,9E+09,9E+09]], v200, z50, toolSprayGun;
MoveL [[187.075,624.142,776.575],[0.5,-0.5,0.5,0.5],[1,0,-1,1],[9E+09,9E+09,9E+09,9E+09,9E+09,9E+09]], v200, z50, toolSprayGun;
MoveL [[186.915,624.53,778.63],[0.5,-0.5,0.5,0.5],[1,0,-1,1],[9E+09,9E+09,9E+09,9E+09,9E+09,9E+09]], v200, z50, toolSprayGun;
MoveL [[187.061,624.072,779.896],[0.5,-0.5,0.5,0.5],[1,0,-1,1],[9E+09,9E+09,9E+09,9E+09,9E+09,9E+09]], v200, z50, toolSprayGun;
MoveL [[187.618,624.536,781.065],[0.5,-0.5,0.5,0.5],[1,0,-1,1],[9E+09,9E+09,9E+09,9E+09,9E+09,9E+09]], v200, z50, toolSprayGun;
MoveL [[187.487,624.776,782.402],[0.5,-0.5,0.5,0.5],[1,0,-1,1],[9E+09,9E+09,9E+09,9E+09,9E+09,9E+09]], v200, z50, toolSprayGun;
MoveL [[187.079,625.664,782.029],[0.5,-0.5,0.5,0.5],[1,0,-1,1],[9E+09,9E+09,9E+09,9E+09,9E+09,9E+09]], v200, z50, toolSprayGun;
MoveL [[186.585,625.503,781.713],[0.5,-0.5,0.5,0.5],[1,0,-1,1],[9E+09,9E+09,9E+09,9E+09,9E+09,9E+09]], v200, z50, toolSprayGun;
MoveL [[187.146,624.837,781.15],[0.5,-0.5,0.5,0.5],[1,0,-1,1],[9E+09,9E+09,9E+09,9E+09,9E+09,9E+09]], v200, z50, toolSprayGun;
MoveL [[187.755,624.267,780.909],[0.5,-0.5,0.5,0.5],[1,0,-1,1],[9E+09,9E+09,9E+09,9E+09,9E+09,9E+09]], v200, z50, toolSprayGun;
MoveL [[189.456,623.047,779.332],[0.5,-0.5,0.5,0.5],[1,0,-1,1],[9E+09,9E+09,9E+09,9E+09,9E+09,9E+09]], v200, z50, toolSprayGun;
MoveL [[190.5,622.368,779.042],[0.5,-0.5,0.5,0.5],[1,0,-1,1],[9E+09,9E+09,9E+09,9E+09,9E+09,9E+09]], v200, z50, toolSprayGun;
MoveL [[193.135,622.449,778.049],[0.5,-0.5,0.5,0.5],[1,0,-1,1],[9E+09,9E+09,9E+09,9E+09,9E+09,9E+09]], v200, z50, toolSprayGun;
MoveL [[195.115,621.982,777.47],[0.5,-0.5,0.5,0.5],[1,0,-1,1],[9E+09,9E+09,9E+09,9E+09,9E+09,9E+09]], v200, z50, toolSprayGun;
MoveL [[200.506,621.661,776.664],[0.5,-0.5,0.5,0.5],[1,0,-1,1],[9E+09,9E+09,9E+09,9E+09,9E+09,9E+09]], v200, z50, toolSprayGun;
MoveL [[205.409,621.006,776.468],[0.5,-0.5,0.5,0.5],[1,0,-1,1],[9E+09,9E+09,9E+09,9E+09,9E+09,9E+09]], v200, z50, toolSprayGun;
MoveL [[212.057,619.807,776.838],[0.5,-0.5,0.5,0.5],[1,0,-1,1],[9E+09,9E+09,9E+09,9E+09,9E+09,9E+09]], v200, z50, toolSprayGun;
MoveL [[216.438,618.554,777.53],[0.5,-0.5,0.5,0.5],[1,0,-1,1],[9E+09,9E+09,9E+09,9E+09,9E+09,9E+09]], v200, z50, toolSprayGun;
MoveL [[222.963,615.977,777.299],[0.5,-0.5,0.5,0.5],[1,0,-1,1],[9E+09,9E+09,9E+09,9E+09,9E+09,9E+09]], v200, z50, toolSprayGun;
MoveL [[229.506,614.031,777.002],[0.5,-0.5,0.5,0.5],[1,0,-1,1],[9E+09,9E+09,9E+09,9E+09,9E+09,9E+09]], v200, z50, toolSprayGun;
MoveL [[232.864,612.796,777.043],[0.5,-0.5,0.5,0.5],[1,0,-1,1],[9E+09,9E+09,9E+09,9E+09,9E+09,9E+09]], v200, z50, toolSprayGun;
MoveL [[238.012,611.587,777.04],[0.5,-0.5,0.5,0.5],[1,0,-1,1],[9E+09,9E+09,9E+09,9E+09,9E+09,9E+09]], v200, z50, toolSprayGun;
MoveL [[243.44,610.089,776.908],[0.5,-0.5,0.5,0.5],[1,0,-1,1],[9E+09,9E+09,9E+09,9E+09,9E+09,9E+09]], v200, z50, toolSprayGun;
MoveL [[248.826,609.31,777.067],[0.5,-0.5,0.5,0.5],[1,0,-1,1],[9E+09,9E+09,9E+09,9E+09,9E+09,9E+09]], v200, z50, toolSprayGun;
MoveL [[257.846,609.009,778.688],[0.5,-0.5,0.5,0.5],[1,0,-1,1],[9E+09,9E+09,9E+09,9E+09,9E+09,9E+09]], v200, z50, toolSprayGun;
MoveL [[265.503,608.395,779.243],[0.5,-0.5,0.5,0.5],[1,0,-1,1],[9E+09,9E+09,9E+09,9E+09,9E+09,9E+09]], v200, z50, toolSprayGun;
MoveL [[269.102,608.055,779.298],[0.5,-0.5,0.5,0.5],[1,0,-1,1],[9E+09,9E+09,9E+09,9E+09,9E+09,9E+09]], v200, z50, toolSprayGun;
MoveL [[276.366,606.485,780.107],[0.5,-0.5,0.5,0.5],[1,0,-1,1],[9E+09,9E+09,9E+09,9E+09,9E+09,9E+09]], v200, z50, toolSprayGun;
MoveL [[281.973,607.42,780.242],[0.5,-0.5,0.5,0.5],[1,0,-1,1],[9E+09,9E+09,9E+09,9E+09,9E+09,9E+09]], v200, z50, toolSprayGun;
MoveL [[287.062,607.497,780.676],[0.5,-0.5,0.5,0.5],[1,0,-1,1],[9E+09,9E+09,9E+09,9E+09,9E+09,9E+09]], v200, z50, toolSprayGun;
MoveL [[293.972,608.369,780.636],[0.5,-0.5,0.5,0.5],[1,0,-1,1],[9E+09,9E+09,9E+09,9E+09,9E+09,9E+09]], v200, z50, toolSprayGun;
MoveL [[298.792,608.122,780.423],[0.5,-0.5,0.5,0.5],[1,0,-1,1],[9E+09,9E+09,9E+09,9E+09,9E+09,9E+09]], v200, z50, toolSprayGun;
MoveL [[303.288,608.029,780.253],[0.5,-0.5,0.5,0.5],[1,0,-1,1],[9E+09,9E+09,9E+09,9E+09,9E+09,9E+09]], v200, z50, toolSprayGun;
MoveL [[308.059,607.624,780.502],[0.5,-0.5,0.5,0.5],[1,0,-1,1],[9E+09,9E+09,9E+09,9E+09,9E+09,9E+09]], v200, z50, toolSprayGun;
MoveL [[312.77,607.362,781.378],[0.5,-0.5,0.5,0.5],[1,0,-1,1],[9E+09,9E+09,9E+09,9E+09,9E+09,9E+09]], v200, z50, toolSprayGun;
MoveL [[317.279,607.562,781.403],[0.5,-0.5,0.5,0.5],[1,0,-1,1],[9E+09,9E+09,9E+09,9E+09,9E+09,9E+09]], v200, z50, toolSprayGun;
MoveL [[322.506,608.222,780.979],[0.5,-0.5,0.5,0.5],[1,0,-1,1],[9E+09,9E+09,9E+09,9E+09,9E+09,9E+09]], v200, z50, toolSprayGun;
MoveL [[326.341,608.686,781.256],[0.5,-0.5,0.5,0.5],[1,0,-1,1],[9E+09,9E+09,9E+09,9E+09,9E+09,9E+09]], v200, z50, toolSprayGun;
MoveL [[331.332,608.159,781.5],[0.5,-0.5,0.5,0.5],[1,0,-1,1],[9E+09,9E+09,9E+09,9E+09,9E+09,9E+09]], v200, z50, toolSprayGun;
MoveL [[335.922,607.039,781.877],[0.5,-0.5,0.5,0.5],[1,0,-1,1],[9E+09,9E+09,9E+09,9E+09,9E+09,9E+09]], v200, z50, toolSprayGun;
MoveL [[339.261,606.73,781.586],[0.5,-0.5,0.5,0.5],[1,0,-1,1],[9E+09,9E+09,9E+09,9E+09,9E+09,9E+09]], v200, z50, toolSprayGun;
MoveL [[342.015,606.151,781.47],[0.5,-0.5,0.5,0.5],[1,0,-1,1],[9E+09,9E+09,9E+09,9E+09,9E+09,9E+09]], v200, z50, toolSprayGun;
MoveL [[347.263,605.722,781.204],[0.5,-0.5,0.5,0.5],[1,0,-1,1],[9E+09,9E+09,9E+09,9E+09,9E+09,9E+09]], v200, z50, toolSprayGun;
MoveL [[349.656,605.507,781.243],[0.5,-0.5,0.5,0.5],[1,0,-1,1],[9E+09,9E+09,9E+09,9E+09,9E+09,9E+09]], v200, z50, toolSprayGun;
MoveL [[354.654,605.503,781.671],[0.5,-0.5,0.5,0.5],[1,0,-1,1],[9E+09,9E+09,9E+09,9E+09,9E+09,9E+09]], v200, z50, toolSprayGun;
MoveL [[357.261,605.954,781.568],[0.5,-0.5,0.5,0.5],[1,0,-1,1],[9E+09,9E+09,9E+09,9E+09,9E+09,9E+09]], v200, z50, toolSprayGun;
MoveL [[361.131,606.848,781.596],[0.5,-0.5,0.5,0.5],[1,0,-1,1],[9E+09,9E+09,9E+09,9E+09,9E+09,9E+09]], v200, z50, toolSprayGun;
MoveL [[364.736,608.278,780.729],[0.5,-0.5,0.5,0.5],[1,0,-1,1],[9E+09,9E+09,9E+09,9E+09,9E+09,9E+09]], v200, z50, toolSprayGun;
MoveL [[367.004,608.458,780.842],[0.5,-0.5,0.5,0.5],[1,0,-1,1],[9E+09,9E+09,9E+09,9E+09,9E+09,9E+09]], v200, z50, toolSprayGun;
MoveL [[369.6,608.822,780.427],[0.5,-0.5,0.5,0.5],[1,0,-1,1],[9E+09,9E+09,9E+09,9E+09,9E+09,9E+09]], v200, z50, toolSprayGun;
MoveL [[371.979,609.59,779.817],[0.5,-0.5,0.5,0.5],[1,0,-1,1],[9E+09,9E+09,9E+09,9E+09,9E+09,9E+09]], v200, z50, toolSprayGun;
MoveL [[374.409,609.205,779.781],[0.5,-0.5,0.5,0.5],[1,0,-1,1],[9E+09,9E+09,9E+09,9E+09,9E+09,9E+09]], v200, z50, toolSprayGun;
MoveL [[375.487,609.128,779.535],[0.5,-0.5,0.5,0.5],[1,0,-1,1],[9E+09,9E+09,9E+09,9E+09,9E+09,9E+09]], v200, z50, toolSprayGun;
MoveL [[377.466,609.427,779.669],[0.5,-0.5,0.5,0.5],[1,0,-1,1],[9E+09,9E+09,9E+09,9E+09,9E+09,9E+09]], v200, z50, toolSprayGun;
MoveL [[378.343,609.048,780.217],[0.5,-0.5,0.5,0.5],[1,0,-1,1],[9E+09,9E+09,9E+09,9E+09,9E+09,9E+09]], v200, z50, toolSprayGun;
MoveL [[379.662,608.94,780.068],[0.5,-0.5,0.5,0.5],[1,0,-1,1],[9E+09,9E+09,9E+09,9E+09,9E+09,9E+09]], v200, z50, toolSprayGun;
MoveL [[380.251,609.227,779.743],[0.5,-0.5,0.5,0.5],[1,0,-1,1],[9E+09,9E+09,9E+09,9E+09,9E+09,9E+09]], v200, z50, toolSprayGun;
MoveL [[380.723,610.198,779.664],[0.5,-0.5,0.5,0.5],[1,0,-1,1],[9E+09,9E+09,9E+09,9E+09,9E+09,9E+09]], v200, z50, toolSprayGun;
MoveL [[380.727,610.75,779.956],[0.5,-0.5,0.5,0.5],[1,0,-1,1],[9E+09,9E+09,9E+09,9E+09,9E+09,9E+09]], v200, z50, toolSprayGun;
MoveL [[380.792,611.056,780.221],[0.5,-0.5,0.5,0.5],[1,0,-1,1],[9E+09,9E+09,9E+09,9E+09,9E+09,9E+09]], v200, z50, toolSprayGun;
MoveL [[380.078,611.896,780.384],[0.5,-0.5,0.5,0.5],[1,0,-1,1],[9E+09,9E+09,9E+09,9E+09,9E+09,9E+09]], v200, z50, toolSprayGun;
MoveL [[379.716,612.309,779.92],[0.5,-0.5,0.5,0.5],[1,0,-1,1],[9E+09,9E+09,9E+09,9E+09,9E+09,9E+09]], v200, z50, toolSprayGun;
MoveL [[379.277,612.442,779.553],[0.5,-0.5,0.5,0.5],[1,0,-1,1],[9E+09,9E+09,9E+09,9E+09,9E+09,9E+09]], v200, z50, toolSprayGun;
MoveL [[379.162,612.663,779.126],[0.5,-0.5,0.5,0.5],[1,0,-1,1],[9E+09,9E+09,9E+09,9E+09,9E+09,9E+09]], v200, z50, toolSprayGun;
MoveL [[377.903,613.14,778.463],[0.5,-0.5,0.5,0.5],[1,0,-1,1],[9E+09,9E+09,9E+09,9E+09,9E+09,9E+09]], v200, z50, toolSprayGun;
MoveL [[377.814,613.67,778.021],[0.5,-0.5,0.5,0.5],[1,0,-1,1],[9E+09,9E+09,9E+09,9E+09,9E+09,9E+09]], v200, z50, toolSprayGun;
MoveL [[377.26,614.385,778.071],[0.5,-0.5,0.5,0.5],[1,0,-1,1],[9E+09,9E+09,9E+09,9E+09,9E+09,9E+09]], v200, z50, toolSprayGun;
MoveL [[376.964,614.256,777.971],[0.5,-0.5,0.5,0.5],[1,0,-1,1],[9E+09,9E+09,9E+09,9E+09,9E+09,9E+09]], v200, z50, toolSprayGun;
MoveL [[376.672,614.528,778.012],[0.5,-0.5,0.5,0.5],[1,0,-1,1],[9E+09,9E+09,9E+09,9E+09,9E+09,9E+09]], v200, z50, toolSprayGun;
MoveL [[376.318,614.919,778.089],[0.5,-0.5,0.5,0.5],[1,0,-1,1],[9E+09,9E+09,9E+09,9E+09,9E+09,9E+09]], v200, z50, toolSprayGun;
MoveL [[375.841,615.05,778.168],[0.5,-0.5,0.5,0.5],[1,0,-1,1],[9E+09,9E+09,9E+09,9E+09,9E+09,9E+09]], v200, z50, toolSprayGun;
MoveL [[375.738,615.124,778.128],[0.5,-0.5,0.5,0.5],[1,0,-1,1],[9E+09,9E+09,9E+09,9E+09,9E+09,9E+09]], v200, z50, toolSprayGun;
MoveL [[375.511,614.802,777.835],[0.5,-0.5,0.5,0.5],[1,0,-1,1],[9E+09,9E+09,9E+09,9E+09,9E+09,9E+09]], v200, z50, toolSprayGun;
MoveL [[375.649,615.157,777.809],[0.5,-0.5,0.5,0.5],[1,0,-1,1],[9E+09,9E+09,9E+09,9E+09,9E+09,9E+09]], v200, z50, toolSprayGun;
MoveL [[376.098,615.469,778.016],[0.5,-0.5,0.5,0.5],[1,0,-1,1],[9E+09,9E+09,9E+09,9E+09,9E+09,9E+09]], v200, z50, toolSprayGun;
ENDPROC
ENDMODULE
