MODULE MainModule
PROC main()
MoveL [[546.31,782.217,861.786],[0.5,-0.5,0.5,0.5],[1,0,-1,1],[9E+09,9E+09,9E+09,9E+09,9E+09,9E+09]], v200, z50, toolSprayGun;
MoveL [[546.585,781.869,861.869],[0.5,-0.5,0.5,0.5],[1,0,-1,1],[9E+09,9E+09,9E+09,9E+09,9E+09,9E+09]], v200, z50, toolSprayGun;
MoveL [[546.62,781.729,861.847],[0.5,-0.5,0.5,0.5],[1,0,-1,1],[9E+09,9E+09,9E+09,9E+09,9E+09,9E+09]], v200, z50, toolSprayGun;
MoveL [[546.715,781.804,861.711],[0.5,-0.5,0.5,0.5],[1,0,-1,1],[9E+09,9E+09,9E+09,9E+09,9E+09,9E+09]], v200, z50, toolSprayGun;
MoveL [[547.143,782.109,861.585],[0.5,-0.5,0.5,0.5],[1,0,-1,1],[9E+09,9E+09,9E+09,9E+09,9E+09,9E+09]], v200, z50, toolSprayGun;
MoveL [[547.201,781.975,861.728],[0.5,-0.5,0.5,0.5],[1,0,-1,1],[9E+09,9E+09,9E+09,9E+09,9E+09,9E+09]], v200, z50, toolSprayGun;
MoveL [[547.131,781.259,861.544],[0.5,-0.5,0.5,0.5],[1,0,-1,1],[9E+09,9E+09,9E+09,9E+09,9E+09,9E+09]], v200, z50, toolSprayGun;
MoveL [[546.976,780.951,861.646],[0.5,-0.5,0.5,0.5],[1,0,-1,1],[9E+09,9E+09,9E+09,9E+09,9E+09,9E+09]], v200, z50, toolSprayGun;
MoveL [[546.793,780.857,861.764],[0.5,-0.5,0.5,0.5],[1,0,-1,1],[9E+09,9E+09,9E+09,9E+09,9E+09,9E+09]], v200, z50, toolSprayGun;
MoveL [[546.72,780.665,861.744],[0.5,-0.5,0.5,0.5],[1,0,-1,1],[9E+09,9E+09,9E+09,9E+09,9E+09,9E+09]], v200, z50, toolSprayGun;
MoveL [[546.461,780.464,861.793],[0.5,-0.5,0.5,0.5],[1,0,-1,1],[9E+09,9E+09,9E+09,9E+09,9E+09,9E+09]], v200, z50, toolSprayGun;
MoveL [[546.062,780.254,861.838],[0.5,-0.5,0.5,0.5],[1,0,-1,1],[9E+09,9E+09,9E+09,9E+09,9E+09,9E+09]], v200, z50, toolSprayGun;
MoveL [[545.529,780.086,861.891],[0.5,-0.5,0.5,0.5],[1,0,-1,1],[9E+09,9E+09,9E+09,9E+09,9E+09,9E+09]], v200, z50, toolSprayGun;
MoveL [[544.926,779.606,861.757],[0.5,-0.5,0.5,0.5],[1,0,-1,1],[9E+09,9E+09,9E+09,9E+09,9E+09,9E+09]], v200, z50, toolSprayGun;
MoveL [[544.078,779.103,861.588],[0.5,-0.5,0.5,0.5],[1,0,-1,1],[9E+09,9E+09,9E+09,9E+09,9E+09,9E+09]], v200, z50, toolSprayGun;
MoveL [[542.492,778.293,861.365],[0.5,-0.5,0.5,0.5],[1,0,-1,1],[9E+09,9E+09,9E+09,9E+09,9E+09,9E+09]], v200, z50, toolSprayGun;
MoveL [[540.275,776.946,861.171],[0.5,-0.5,0.5,0.5],[1,0,-1,1],[9E+09,9E+09,9E+09,9E+09,9E+09,9E+09]], v200, z50, toolSprayGun;
MoveL [[538.9,776.959,860.95],[0.5,-0.5,0.5,0.5],[1,0,-1,1],[9E+09,9E+09,9E+09,9E+09,9E+09,9E+09]], v200, z50, toolSprayGun;
MoveL [[536.75,777.193,860.826],[0.5,-0.5,0.5,0.5],[1,0,-1,1],[9E+09,9E+09,9E+09,9E+09,9E+09,9E+09]], v200, z50, toolSprayGun;
MoveL [[533.978,776.746,860.699],[0.5,-0.5,0.5,0.5],[1,0,-1,1],[9E+09,9E+09,9E+09,9E+09,9E+09,9E+09]], v200, z50, toolSprayGun;
MoveL [[532.078,776.751,860.78],[0.5,-0.5,0.5,0.5],[1,0,-1,1],[9E+09,9E+09,9E+09,9E+09,9E+09,9E+09]], v200, z50, toolSprayGun;
MoveL [[529.197,776.791,860.702],[0.5,-0.5,0.5,0.5],[1,0,-1,1],[9E+09,9E+09,9E+09,9E+09,9E+09,9E+09]], v200, z50, toolSprayGun;
MoveL [[527.014,776.832,860.699],[0.5,-0.5,0.5,0.5],[1,0,-1,1],[9E+09,9E+09,9E+09,9E+09,9E+09,9E+09]], v200, z50, toolSprayGun;
MoveL [[523.278,777.394,859.985],[0.5,-0.5,0.5,0.5],[1,0,-1,1],[9E+09,9E+09,9E+09,9E+09,9E+09,9E+09]], v200, z50, toolSprayGun;
MoveL [[520.429,777.26,859.975],[0.5,-0.5,0.5,0.5],[1,0,-1,1],[9E+09,9E+09,9E+09,9E+09,9E+09,9E+09]], v200, z50, toolSprayGun;
MoveL [[516.78,776.716,859.429],[0.5,-0.5,0.5,0.5],[1,0,-1,1],[9E+09,9E+09,9E+09,9E+09,9E+09,9E+09]], v200, z50, toolSprayGun;
MoveL [[514.262,776.72,859.15],[0.5,-0.5,0.5,0.5],[1,0,-1,1],[9E+09,9E+09,9E+09,9E+09,9E+09,9E+09]], v200, z50, toolSprayGun;
MoveL [[510.331,775.48,858.8],[0.5,-0.5,0.5,0.5],[1,0,-1,1],[9E+09,9E+09,9E+09,9E+09,9E+09,9E+09]], v200, z50, toolSprayGun;
MoveL [[507.629,774.457,857.933],[0.5,-0.5,0.5,0.5],[1,0,-1,1],[9E+09,9E+09,9E+09,9E+09,9E+09,9E+09]], v200, z50, toolSprayGun;
MoveL [[503.875,773.774,857.375],[0.5,-0.5,0.5,0.5],[1,0,-1,1],[9E+09,9E+09,9E+09,9E+09,9E+09,9E+09]], v200, z50, toolSprayGun;
MoveL [[498.046,772.836,856.815],[0.5,-0.5,0.5,0.5],[1,0,-1,1],[9E+09,9E+09,9E+09,9E+09,9E+09,9E+09]], v200, z50, toolSprayGun;
MoveL [[490.759,771.455,856.51],[0.5,-0.5,0.5,0.5],[1,0,-1,1],[9E+09,9E+09,9E+09,9E+09,9E+09,9E+09]], v200, z50, toolSprayGun;
MoveL [[487.739,771.201,856.178],[0.5,-0.5,0.5,0.5],[1,0,-1,1],[9E+09,9E+09,9E+09,9E+09,9E+09,9E+09]], v200, z50, toolSprayGun;
MoveL [[484.367,771.02,856.225],[0.5,-0.5,0.5,0.5],[1,0,-1,1],[9E+09,9E+09,9E+09,9E+09,9E+09,9E+09]], v200, z50, toolSprayGun;
MoveL [[477.916,769.917,855.712],[0.5,-0.5,0.5,0.5],[1,0,-1,1],[9E+09,9E+09,9E+09,9E+09,9E+09,9E+09]], v200, z50, toolSprayGun;
MoveL [[472.528,768.519,855.767],[0.5,-0.5,0.5,0.5],[1,0,-1,1],[9E+09,9E+09,9E+09,9E+09,9E+09,9E+09]], v200, z50, toolSprayGun;
MoveL [[466.963,768.382,855.513],[0.5,-0.5,0.5,0.5],[1,0,-1,1],[9E+09,9E+09,9E+09,9E+09,9E+09,9E+09]], v200, z50, toolSprayGun;
MoveL [[460.954,766.765,856.041],[0.5,-0.5,0.5,0.5],[1,0,-1,1],[9E+09,9E+09,9E+09,9E+09,9E+09,9E+09]], v200, z50, toolSprayGun;
MoveL [[453.641,765.59,856.557],[0.5,-0.5,0.5,0.5],[1,0,-1,1],[9E+09,9E+09,9E+09,9E+09,9E+09,9E+09]], v200, z50, toolSprayGun;
MoveL [[449.702,765.337,857.056],[0.5,-0.5,0.5,0.5],[1,0,-1,1],[9E+09,9E+09,9E+09,9E+09,9E+09,9E+09]], v200, z50, toolSprayGun;
MoveL [[445.821,764.981,857.048],[0.5,-0.5,0.5,0.5],[1,0,-1,1],[9E+09,9E+09,9E+09,9E+09,9E+09,9E+09]], v200, z50, toolSprayGun;
MoveL [[438.019,764.684,858.017],[0.5,-0.5,0.5,0.5],[1,0,-1,1],[9E+09,9E+09,9E+09,9E+09,9E+09,9E+09]], v200, z50, toolSprayGun;
MoveL [[431.286,764.614,859.048],[0.5,-0.5,0.5,0.5],[1,0,-1,1],[9E+09,9E+09,9E+09,9E+09,9E+09,9E+09]], v200, z50, toolSprayGun;
MoveL [[426.913,764.364,859.667],[0.5,-0.5,0.5,0.5],[1,0,-1,1],[9E+09,9E+09,9E+09,9E+09,9E+09,9E+09]], v200, z50, toolSprayGun;
MoveL [[422.892,764.428,860.517],[0.5,-0.5,0.5,0.5],[1,0,-1,1],[9E+09,9E+09,9E+09,9E+09,9E+09,9E+09]], v200, z50, toolSprayGun;
MoveL [[416.588,764.088,861.22],[0.5,-0.5,0.5,0.5],[1,0,-1,1],[9E+09,9E+09,9E+09,9E+09,9E+09,9E+09]], v200, z50, toolSprayGun;
MoveL [[411.472,763.676,861.462],[0.5,-0.5,0.5,0.5],[1,0,-1,1],[9E+09,9E+09,9E+09,9E+09,9E+09,9E+09]], v200, z50, toolSprayGun;
MoveL [[408.053,763.718,862.122],[0.5,-0.5,0.5,0.5],[1,0,-1,1],[9E+09,9E+09,9E+09,9E+09,9E+09,9E+09]], v200, z50, toolSprayGun;
MoveL [[402.69,762.56,863.532],[0.5,-0.5,0.5,0.5],[1,0,-1,1],[9E+09,9E+09,9E+09,9E+09,9E+09,9E+09]], v200, z50, toolSprayGun;
MoveL [[397.097,761.595,863.799],[0.5,-0.5,0.5,0.5],[1,0,-1,1],[9E+09,9E+09,9E+09,9E+09,9E+09,9E+09]], v200, z50, toolSprayGun;
MoveL [[391.793,760.05,864.299],[0.5,-0.5,0.5,0.5],[1,0,-1,1],[9E+09,9E+09,9E+09,9E+09,9E+09,9E+09]], v200, z50, toolSprayGun;
MoveL [[385.776,758.625,864.084],[0.5,-0.5,0.5,0.5],[1,0,-1,1],[9E+09,9E+09,9E+09,9E+09,9E+09,9E+09]], v200, z50, toolSprayGun;
MoveL [[374.77,758.338,864.49],[0.5,-0.5,0.5,0.5],[1,0,-1,1],[9E+09,9E+09,9E+09,9E+09,9E+09,9E+09]], v200, z50, toolSprayGun;
MoveL [[371.078,758.752,864.667],[0.5,-0.5,0.5,0.5],[1,0,-1,1],[9E+09,9E+09,9E+09,9E+09,9E+09,9E+09]], v200, z50, toolSprayGun;
MoveL [[365.498,758.594,865.477],[0.5,-0.5,0.5,0.5],[1,0,-1,1],[9E+09,9E+09,9E+09,9E+09,9E+09,9E+09]], v200, z50, toolSprayGun;
MoveL [[361.972,758.655,865.755],[0.5,-0.5,0.5,0.5],[1,0,-1,1],[9E+09,9E+09,9E+09,9E+09,9E+09,9E+09]], v200, z50, toolSprayGun;
MoveL [[357.966,758.452,865.615],[0.5,-0.5,0.5,0.5],[1,0,-1,1],[9E+09,9E+09,9E+09,9E+09,9E+09,9E+09]], v200, z50, toolSprayGun;
MoveL [[354.539,758.635,865.72],[0.5,-0.5,0.5,0.5],[1,0,-1,1],[9E+09,9E+09,9E+09,9E+09,9E+09,9E+09]], v200, z50, toolSprayGun;
MoveL [[351.171,758.594,866.107],[0.5,-0.5,0.5,0.5],[1,0,-1,1],[9E+09,9E+09,9E+09,9E+09,9E+09,9E+09]], v200, z50, toolSprayGun;
MoveL [[347.425,758.842,866.48],[0.5,-0.5,0.5,0.5],[1,0,-1,1],[9E+09,9E+09,9E+09,9E+09,9E+09,9E+09]], v200, z50, toolSprayGun;
MoveL [[339.182,759.687,867.907],[0.5,-0.5,0.5,0.5],[1,0,-1,1],[9E+09,9E+09,9E+09,9E+09,9E+09,9E+09]], v200, z50, toolSprayGun;
MoveL [[336.118,759.913,868.754],[0.5,-0.5,0.5,0.5],[1,0,-1,1],[9E+09,9E+09,9E+09,9E+09,9E+09,9E+09]], v200, z50, toolSprayGun;
MoveL [[331.168,760.145,869.459],[0.5,-0.5,0.5,0.5],[1,0,-1,1],[9E+09,9E+09,9E+09,9E+09,9E+09,9E+09]], v200, z50, toolSprayGun;
MoveL [[325.025,760.582,870.49],[0.5,-0.5,0.5,0.5],[1,0,-1,1],[9E+09,9E+09,9E+09,9E+09,9E+09,9E+09]], v200, z50, toolSprayGun;
MoveL [[319.729,761.086,871.773],[0.5,-0.5,0.5,0.5],[1,0,-1,1],[9E+09,9E+09,9E+09,9E+09,9E+09,9E+09]], v200, z50, toolSprayGun;
MoveL [[315.262,760.963,872.561],[0.5,-0.5,0.5,0.5],[1,0,-1,1],[9E+09,9E+09,9E+09,9E+09,9E+09,9E+09]], v200, z50, toolSprayGun;
MoveL [[308.77,761.074,873.418],[0.5,-0.5,0.5,0.5],[1,0,-1,1],[9E+09,9E+09,9E+09,9E+09,9E+09,9E+09]], v200, z50, toolSprayGun;
MoveL [[303.95,760.822,874.101],[0.5,-0.5,0.5,0.5],[1,0,-1,1],[9E+09,9E+09,9E+09,9E+09,9E+09,9E+09]], v200, z50, toolSprayGun;
MoveL [[298.683,760.417,873.29],[0.5,-0.5,0.5,0.5],[1,0,-1,1],[9E+09,9E+09,9E+09,9E+09,9E+09,9E+09]], v200, z50, toolSprayGun;
MoveL [[293.2,760.645,873.089],[0.5,-0.5,0.5,0.5],[1,0,-1,1],[9E+09,9E+09,9E+09,9E+09,9E+09,9E+09]], v200, z50, toolSprayGun;
MoveL [[286.843,760.477,874.038],[0.5,-0.5,0.5,0.5],[1,0,-1,1],[9E+09,9E+09,9E+09,9E+09,9E+09,9E+09]], v200, z50, toolSprayGun;
MoveL [[281.822,760.287,874.851],[0.5,-0.5,0.5,0.5],[1,0,-1,1],[9E+09,9E+09,9E+09,9E+09,9E+09,9E+09]], v200, z50, toolSprayGun;
MoveL [[275.715,760.84,874.161],[0.5,-0.5,0.5,0.5],[1,0,-1,1],[9E+09,9E+09,9E+09,9E+09,9E+09,9E+09]], v200, z50, toolSprayGun;
MoveL [[271.091,760.46,874.266],[0.5,-0.5,0.5,0.5],[1,0,-1,1],[9E+09,9E+09,9E+09,9E+09,9E+09,9E+09]], v200, z50, toolSprayGun;
MoveL [[265.874,760.293,874.607],[0.5,-0.5,0.5,0.5],[1,0,-1,1],[9E+09,9E+09,9E+09,9E+09,9E+09,9E+09]], v200, z50, toolSprayGun;
MoveL [[257.835,760.031,874.463],[0.5,-0.5,0.5,0.5],[1,0,-1,1],[9E+09,9E+09,9E+09,9E+09,9E+09,9E+09]], v200, z50, toolSprayGun;
MoveL [[254.815,759.415,874.424],[0.5,-0.5,0.5,0.5],[1,0,-1,1],[9E+09,9E+09,9E+09,9E+09,9E+09,9E+09]], v200, z50, toolSprayGun;
MoveL [[249.487,759.683,874.838],[0.5,-0.5,0.5,0.5],[1,0,-1,1],[9E+09,9E+09,9E+09,9E+09,9E+09,9E+09]], v200, z50, toolSprayGun;
MoveL [[242.69,758.649,874.729],[0.5,-0.5,0.5,0.5],[1,0,-1,1],[9E+09,9E+09,9E+09,9E+09,9E+09,9E+09]], v200, z50, toolSprayGun;
MoveL [[238.264,758.274,874.473],[0.5,-0.5,0.5,0.5],[1,0,-1,1],[9E+09,9E+09,9E+09,9E+09,9E+09,9E+09]], v200, z50, toolSprayGun;
MoveL [[233.511,758.163,874.32],[0.5,-0.5,0.5,0.5],[1,0,-1,1],[9E+09,9E+09,9E+09,9E+09,9E+09,9E+09]], v200, z50, toolSprayGun;
MoveL [[228.31,758.046,874.805],[0.5,-0.5,0.5,0.5],[1,0,-1,1],[9E+09,9E+09,9E+09,9E+09,9E+09,9E+09]], v200, z50, toolSprayGun;
MoveL [[224.328,757.966,874.436],[0.5,-0.5,0.5,0.5],[1,0,-1,1],[9E+09,9E+09,9E+09,9E+09,9E+09,9E+09]], v200, z50, toolSprayGun;
MoveL [[217.457,757.662,874.528],[0.5,-0.5,0.5,0.5],[1,0,-1,1],[9E+09,9E+09,9E+09,9E+09,9E+09,9E+09]], v200, z50, toolSprayGun;
MoveL [[214.09,758.345,874.53],[0.5,-0.5,0.5,0.5],[1,0,-1,1],[9E+09,9E+09,9E+09,9E+09,9E+09,9E+09]], v200, z50, toolSprayGun;
MoveL [[207.18,759.043,874.851],[0.5,-0.5,0.5,0.5],[1,0,-1,1],[9E+09,9E+09,9E+09,9E+09,9E+09,9E+09]], v200, z50, toolSprayGun;
MoveL [[203.896,759.186,874.53],[0.5,-0.5,0.5,0.5],[1,0,-1,1],[9E+09,9E+09,9E+09,9E+09,9E+09,9E+09]], v200, z50, toolSprayGun;
MoveL [[200.522,759.419,874.818],[0.5,-0.5,0.5,0.5],[1,0,-1,1],[9E+09,9E+09,9E+09,9E+09,9E+09,9E+09]], v200, z50, toolSprayGun;
MoveL [[196.571,759.956,874.94],[0.5,-0.5,0.5,0.5],[1,0,-1,1],[9E+09,9E+09,9E+09,9E+09,9E+09,9E+09]], v200, z50, toolSprayGun;
MoveL [[192.047,760.228,876.208],[0.5,-0.5,0.5,0.5],[1,0,-1,1],[9E+09,9E+09,9E+09,9E+09,9E+09,9E+09]], v200, z50, toolSprayGun;
MoveL [[189.706,760.773,876.094],[0.5,-0.5,0.5,0.5],[1,0,-1,1],[9E+09,9E+09,9E+09,9E+09,9E+09,9E+09]], v200, z50, toolSprayGun;
MoveL [[184.894,761.146,876.273],[0.5,-0.5,0.5,0.5],[1,0,-1,1],[9E+09,9E+09,9E+09,9E+09,9E+09,9E+09]], v200, z50, toolSprayGun;
MoveL [[181.286,761.361,876.385],[0.5,-0.5,0.5,0.5],[1,0,-1,1],[9E+09,9E+09,9E+09,9E+09,9E+09,9E+09]], v200, z50, toolSprayGun;
MoveL [[176.315,762.076,876.883],[0.5,-0.5,0.5,0.5],[1,0,-1,1],[9E+09,9E+09,9E+09,9E+09,9E+09,9E+09]], v200, z50, toolSprayGun;
MoveL [[172.704,763.072,877.134],[0.5,-0.5,0.5,0.5],[1,0,-1,1],[9E+09,9E+09,9E+09,9E+09,9E+09,9E+09]], v200, z50, toolSprayGun;
MoveL [[168.384,764.405,877.428],[0.5,-0.5,0.5,0.5],[1,0,-1,1],[9E+09,9E+09,9E+09,9E+09,9E+09,9E+09]], v200, z50, toolSprayGun;
MoveL [[164.269,764.289,878.158],[0.5,-0.5,0.5,0.5],[1,0,-1,1],[9E+09,9E+09,9E+09,9E+09,9E+09,9E+09]], v200, z50, toolSprayGun;
MoveL [[162.197,764.118,878.235],[0.5,-0.5,0.5,0.5],[1,0,-1,1],[9E+09,9E+09,9E+09,9E+09,9E+09,9E+09]], v200, z50, toolSprayGun;
MoveL [[158.963,764.492,878.876],[0.5,-0.5,0.5,0.5],[1,0,-1,1],[9E+09,9E+09,9E+09,9E+09,9E+09,9E+09]], v200, z50, toolSprayGun;
MoveL [[156.104,764.951,879.429],[0.5,-0.5,0.5,0.5],[1,0,-1,1],[9E+09,9E+09,9E+09,9E+09,9E+09,9E+09]], v200, z50, toolSprayGun;
MoveL [[153.078,764.916,880.163],[0.5,-0.5,0.5,0.5],[1,0,-1,1],[9E+09,9E+09,9E+09,9E+09,9E+09,9E+09]], v200, z50, toolSprayGun;
MoveL [[149.035,765.258,879.469],[0.5,-0.5,0.5,0.5],[1,0,-1,1],[9E+09,9E+09,9E+09,9E+09,9E+09,9E+09]], v200, z50, toolSprayGun;
MoveL [[145.74,765.961,878.249],[0.5,-0.5,0.5,0.5],[1,0,-1,1],[9E+09,9E+09,9E+09,9E+09,9E+09,9E+09]], v200, z50, toolSprayGun;
MoveL [[143.95,766.35,878.481],[0.5,-0.5,0.5,0.5],[1,0,-1,1],[9E+09,9E+09,9E+09,9E+09,9E+09,9E+09]], v200, z50, toolSprayGun;
MoveL [[141.915,766.587,878.571],[0.5,-0.5,0.5,0.5],[1,0,-1,1],[9E+09,9E+09,9E+09,9E+09,9E+09,9E+09]], v200, z50, toolSprayGun;
MoveL [[139.717,766.854,878.684],[0.5,-0.5,0.5,0.5],[1,0,-1,1],[9E+09,9E+09,9E+09,9E+09,9E+09,9E+09]], v200, z50, toolSprayGun;
MoveL [[136.994,767.146,878.668],[0.5,-0.5,0.5,0.5],[1,0,-1,1],[9E+09,9E+09,9E+09,9E+09,9E+09,9E+09]], v200, z50, toolSprayGun;
MoveL [[135.179,767.244,878.552],[0.5,-0.5,0.5,0.5],[1,0,-1,1],[9E+09,9E+09,9E+09,9E+09,9E+09,9E+09]], v200, z50, toolSprayGun;
MoveL [[130.555,767.77,879.079],[0.5,-0.5,0.5,0.5],[1,0,-1,1],[9E+09,9E+09,9E+09,9E+09,9E+09,9E+09]], v200, z50, toolSprayGun;
MoveL [[129.471,767.888,879.093],[0.5,-0.5,0.5,0.5],[1,0,-1,1],[9E+09,9E+09,9E+09,9E+09,9E+09,9E+09]], v200, z50, toolSprayGun;
MoveL [[126.761,768.45,879.714],[0.5,-0.5,0.5,0.5],[1,0,-1,1],[9E+09,9E+09,9E+09,9E+09,9E+09,9E+09]], v200, z50, toolSprayGun;
MoveL [[124.545,768.587,879.824],[0.5,-0.5,0.5,0.5],[1,0,-1,1],[9E+09,9E+09,9E+09,9E+09,9E+09,9E+09]], v200, z50, toolSprayGun;
MoveL [[122.341,768.785,880.046],[0.5,-0.5,0.5,0.5],[1,0,-1,1],[9E+09,9E+09,9E+09,9E+09,9E+09,9E+09]], v200, z50, toolSprayGun;
MoveL [[121.002,769.252,879.95],[0.5,-0.5,0.5,0.5],[1,0,-1,1],[9E+09,9E+09,9E+09,9E+09,9E+09,9E+09]], v200, z50, toolSprayGun;
MoveL [[118.479,769.336,878.598],[0.5,-0.5,0.5,0.5],[1,0,-1,1],[9E+09,9E+09,9E+09,9E+09,9E+09,9E+09]], v200, z50, toolSprayGun;
MoveL [[117.421,769.473,878.557],[0.5,-0.5,0.5,0.5],[1,0,-1,1],[9E+09,9E+09,9E+09,9E+09,9E+09,9E+09]], v200, z50, toolSprayGun;
MoveL [[115.829,769.84,878.603],[0.5,-0.5,0.5,0.5],[1,0,-1,1],[9E+09,9E+09,9E+09,9E+09,9E+09,9E+09]], v200, z50, toolSprayGun;
MoveL [[115.578,770.047,877.952],[0.5,-0.5,0.5,0.5],[1,0,-1,1],[9E+09,9E+09,9E+09,9E+09,9E+09,9E+09]], v200, z50, toolSprayGun;
MoveL [[114.416,770.578,877.022],[0.5,-0.5,0.5,0.5],[1,0,-1,1],[9E+09,9E+09,9E+09,9E+09,9E+09,9E+09]], v200, z50, toolSprayGun;
MoveL [[113.798,771.079,875.754],[0.5,-0.5,0.5,0.5],[1,0,-1,1],[9E+09,9E+09,9E+09,9E+09,9E+09,9E+09]], v200, z50, toolSprayGun;
MoveL [[112.615,771.944,874.988],[0.5,-0.5,0.5,0.5],[1,0,-1,1],[9E+09,9E+09,9E+09,9E+09,9E+09,9E+09]], v200, z50, toolSprayGun;
MoveL [[112.158,772.026,874.651],[0.5,-0.5,0.5,0.5],[1,0,-1,1],[9E+09,9E+09,9E+09,9E+09,9E+09,9E+09]], v200, z50, toolSprayGun;
MoveL [[111.704,772.113,873.857],[0.5,-0.5,0.5,0.5],[1,0,-1,1],[9E+09,9E+09,9E+09,9E+09,9E+09,9E+09]], v200, z50, toolSprayGun;
MoveL [[111.465,772.21,873.05],[0.5,-0.5,0.5,0.5],[1,0,-1,1],[9E+09,9E+09,9E+09,9E+09,9E+09,9E+09]], v200, z50, toolSprayGun;
MoveL [[111.079,772.336,872.342],[0.5,-0.5,0.5,0.5],[1,0,-1,1],[9E+09,9E+09,9E+09,9E+09,9E+09,9E+09]], v200, z50, toolSprayGun;
MoveL [[111.145,772.373,870.84],[0.5,-0.5,0.5,0.5],[1,0,-1,1],[9E+09,9E+09,9E+09,9E+09,9E+09,9E+09]], v200, z50, toolSprayGun;
MoveL [[111.643,772.16,868.8],[0.5,-0.5,0.5,0.5],[1,0,-1,1],[9E+09,9E+09,9E+09,9E+09,9E+09,9E+09]], v200, z50, toolSprayGun;
MoveL [[111.34,772.339,868.548],[0.5,-0.5,0.5,0.5],[1,0,-1,1],[9E+09,9E+09,9E+09,9E+09,9E+09,9E+09]], v200, z50, toolSprayGun;
MoveL [[111.835,772.176,866.787],[0.5,-0.5,0.5,0.5],[1,0,-1,1],[9E+09,9E+09,9E+09,9E+09,9E+09,9E+09]], v200, z50, toolSprayGun;
MoveL [[112.33,772.508,866.053],[0.5,-0.5,0.5,0.5],[1,0,-1,1],[9E+09,9E+09,9E+09,9E+09,9E+09,9E+09]], v200, z50, toolSprayGun;
MoveL [[113.542,772.178,864.754],[0.5,-0.5,0.5,0.5],[1,0,-1,1],[9E+09,9E+09,9E+09,9E+09,9E+09,9E+09]], v200, z50, toolSprayGun;
MoveL [[114.117,772.016,863.686],[0.5,-0.5,0.5,0.5],[1,0,-1,1],[9E+09,9E+09,9E+09,9E+09,9E+09,9E+09]], v200, z50, toolSprayGun;
MoveL [[114.876,772.413,862.403],[0.5,-0.5,0.5,0.5],[1,0,-1,1],[9E+09,9E+09,9E+09,9E+09,9E+09,9E+09]], v200, z50, toolSprayGun;
MoveL [[114.77,772.368,860.612],[0.5,-0.5,0.5,0.5],[1,0,-1,1],[9E+09,9E+09,9E+09,9E+09,9E+09,9E+09]], v200, z50, toolSprayGun;
MoveL [[114.987,772.465,859.652],[0.5,-0.5,0.5,0.5],[1,0,-1,1],[9E+09,9E+09,9E+09,9E+09,9E+09,9E+09]], v200, z50, toolSprayGun;
MoveL [[114.921,772.367,856.273],[0.5,-0.5,0.5,0.5],[1,0,-1,1],[9E+09,9E+09,9E+09,9E+09,9E+09,9E+09]], v200, z50, toolSprayGun;
MoveL [[115.333,772.791,854.707],[0.5,-0.5,0.5,0.5],[1,0,-1,1],[9E+09,9E+09,9E+09,9E+09,9E+09,9E+09]], v200, z50, toolSprayGun;
MoveL [[115.366,772.457,850.873],[0.5,-0.5,0.5,0.5],[1,0,-1,1],[9E+09,9E+09,9E+09,9E+09,9E+09,9E+09]], v200, z50, toolSprayGun;
MoveL [[115.327,772.642,849.308],[0.5,-0.5,0.5,0.5],[1,0,-1,1],[9E+09,9E+09,9E+09,9E+09,9E+09,9E+09]], v200, z50, toolSprayGun;
MoveL [[115.062,772.661,846.092],[0.5,-0.5,0.5,0.5],[1,0,-1,1],[9E+09,9E+09,9E+09,9E+09,9E+09,9E+09]], v200, z50, toolSprayGun;
MoveL [[114.912,773.311,843.498],[0.5,-0.5,0.5,0.5],[1,0,-1,1],[9E+09,9E+09,9E+09,9E+09,9E+09,9E+09]], v200, z50, toolSprayGun;
MoveL [[114.555,773.141,840.54],[0.5,-0.5,0.5,0.5],[1,0,-1,1],[9E+09,9E+09,9E+09,9E+09,9E+09,9E+09]], v200, z50, toolSprayGun;
MoveL [[114.382,772.832,838.738],[0.5,-0.5,0.5,0.5],[1,0,-1,1],[9E+09,9E+09,9E+09,9E+09,9E+09,9E+09]], v200, z50, toolSprayGun;
MoveL [[114.065,772.573,836.267],[0.5,-0.5,0.5,0.5],[1,0,-1,1],[9E+09,9E+09,9E+09,9E+09,9E+09,9E+09]], v200, z50, toolSprayGun;
MoveL [[114.296,772.691,833.19],[0.5,-0.5,0.5,0.5],[1,0,-1,1],[9E+09,9E+09,9E+09,9E+09,9E+09,9E+09]], v200, z50, toolSprayGun;
MoveL [[114.83,772.692,829.665],[0.5,-0.5,0.5,0.5],[1,0,-1,1],[9E+09,9E+09,9E+09,9E+09,9E+09,9E+09]], v200, z50, toolSprayGun;
MoveL [[114.579,772.107,827.333],[0.5,-0.5,0.5,0.5],[1,0,-1,1],[9E+09,9E+09,9E+09,9E+09,9E+09,9E+09]], v200, z50, toolSprayGun;
MoveL [[114.511,772.363,825.793],[0.5,-0.5,0.5,0.5],[1,0,-1,1],[9E+09,9E+09,9E+09,9E+09,9E+09,9E+09]], v200, z50, toolSprayGun;
MoveL [[114.74,772.917,823.391],[0.5,-0.5,0.5,0.5],[1,0,-1,1],[9E+09,9E+09,9E+09,9E+09,9E+09,9E+09]], v200, z50, toolSprayGun;
MoveL [[114.603,773.526,820.322],[0.5,-0.5,0.5,0.5],[1,0,-1,1],[9E+09,9E+09,9E+09,9E+09,9E+09,9E+09]], v200, z50, toolSprayGun;
MoveL [[114.67,774.234,817.923],[0.5,-0.5,0.5,0.5],[1,0,-1,1],[9E+09,9E+09,9E+09,9E+09,9E+09,9E+09]], v200, z50, toolSprayGun;
MoveL [[114.591,774.141,814.916],[0.5,-0.5,0.5,0.5],[1,0,-1,1],[9E+09,9E+09,9E+09,9E+09,9E+09,9E+09]], v200, z50, toolSprayGun;
MoveL [[114.573,773.978,812.405],[0.5,-0.5,0.5,0.5],[1,0,-1,1],[9E+09,9E+09,9E+09,9E+09,9E+09,9E+09]], v200, z50, toolSprayGun;
MoveL [[114.399,773.224,810.222],[0.5,-0.5,0.5,0.5],[1,0,-1,1],[9E+09,9E+09,9E+09,9E+09,9E+09,9E+09]], v200, z50, toolSprayGun;
MoveL [[113.055,772.581,807.85],[0.5,-0.5,0.5,0.5],[1,0,-1,1],[9E+09,9E+09,9E+09,9E+09,9E+09,9E+09]], v200, z50, toolSprayGun;
MoveL [[112.143,771.405,803.451],[0.5,-0.5,0.5,0.5],[1,0,-1,1],[9E+09,9E+09,9E+09,9E+09,9E+09,9E+09]], v200, z50, toolSprayGun;
MoveL [[110.713,771.6,799.403],[0.5,-0.5,0.5,0.5],[1,0,-1,1],[9E+09,9E+09,9E+09,9E+09,9E+09,9E+09]], v200, z50, toolSprayGun;
MoveL [[110.361,771.702,797.488],[0.5,-0.5,0.5,0.5],[1,0,-1,1],[9E+09,9E+09,9E+09,9E+09,9E+09,9E+09]], v200, z50, toolSprayGun;
MoveL [[109.607,771.887,795.437],[0.5,-0.5,0.5,0.5],[1,0,-1,1],[9E+09,9E+09,9E+09,9E+09,9E+09,9E+09]], v200, z50, toolSprayGun;
MoveL [[108.727,772.825,792.871],[0.5,-0.5,0.5,0.5],[1,0,-1,1],[9E+09,9E+09,9E+09,9E+09,9E+09,9E+09]], v200, z50, toolSprayGun;
MoveL [[108.681,773.9,789.842],[0.5,-0.5,0.5,0.5],[1,0,-1,1],[9E+09,9E+09,9E+09,9E+09,9E+09,9E+09]], v200, z50, toolSprayGun;
MoveL [[108.188,774.302,785.907],[0.5,-0.5,0.5,0.5],[1,0,-1,1],[9E+09,9E+09,9E+09,9E+09,9E+09,9E+09]], v200, z50, toolSprayGun;
MoveL [[108.078,775.369,782.717],[0.5,-0.5,0.5,0.5],[1,0,-1,1],[9E+09,9E+09,9E+09,9E+09,9E+09,9E+09]], v200, z50, toolSprayGun;
MoveL [[107.575,776.467,780.352],[0.5,-0.5,0.5,0.5],[1,0,-1,1],[9E+09,9E+09,9E+09,9E+09,9E+09,9E+09]], v200, z50, toolSprayGun;
MoveL [[107.536,777.035,778.34],[0.5,-0.5,0.5,0.5],[1,0,-1,1],[9E+09,9E+09,9E+09,9E+09,9E+09,9E+09]], v200, z50, toolSprayGun;
MoveL [[107.179,777.497,774.988],[0.5,-0.5,0.5,0.5],[1,0,-1,1],[9E+09,9E+09,9E+09,9E+09,9E+09,9E+09]], v200, z50, toolSprayGun;
MoveL [[106.981,777.757,773.228],[0.5,-0.5,0.5,0.5],[1,0,-1,1],[9E+09,9E+09,9E+09,9E+09,9E+09,9E+09]], v200, z50, toolSprayGun;
MoveL [[105.849,777.779,769.591],[0.5,-0.5,0.5,0.5],[1,0,-1,1],[9E+09,9E+09,9E+09,9E+09,9E+09,9E+09]], v200, z50, toolSprayGun;
MoveL [[105.539,778.651,766.947],[0.5,-0.5,0.5,0.5],[1,0,-1,1],[9E+09,9E+09,9E+09,9E+09,9E+09,9E+09]], v200, z50, toolSprayGun;
MoveL [[104.56,779.135,762.611],[0.5,-0.5,0.5,0.5],[1,0,-1,1],[9E+09,9E+09,9E+09,9E+09,9E+09,9E+09]], v200, z50, toolSprayGun;
MoveL [[104.418,779.482,760.527],[0.5,-0.5,0.5,0.5],[1,0,-1,1],[9E+09,9E+09,9E+09,9E+09,9E+09,9E+09]], v200, z50, toolSprayGun;
MoveL [[104.534,780.216,756.881],[0.5,-0.5,0.5,0.5],[1,0,-1,1],[9E+09,9E+09,9E+09,9E+09,9E+09,9E+09]], v200, z50, toolSprayGun;
MoveL [[104.864,779.986,755.656],[0.5,-0.5,0.5,0.5],[1,0,-1,1],[9E+09,9E+09,9E+09,9E+09,9E+09,9E+09]], v200, z50, toolSprayGun;
MoveL [[104.957,780.667,753.163],[0.5,-0.5,0.5,0.5],[1,0,-1,1],[9E+09,9E+09,9E+09,9E+09,9E+09,9E+09]], v200, z50, toolSprayGun;
MoveL [[105.142,780.737,752.166],[0.5,-0.5,0.5,0.5],[1,0,-1,1],[9E+09,9E+09,9E+09,9E+09,9E+09,9E+09]], v200, z50, toolSprayGun;
MoveL [[104.951,781.878,748.161],[0.5,-0.5,0.5,0.5],[1,0,-1,1],[9E+09,9E+09,9E+09,9E+09,9E+09,9E+09]], v200, z50, toolSprayGun;
MoveL [[104.027,782.116,743.729],[0.5,-0.5,0.5,0.5],[1,0,-1,1],[9E+09,9E+09,9E+09,9E+09,9E+09,9E+09]], v200, z50, toolSprayGun;
MoveL [[104.082,782.406,742.837],[0.5,-0.5,0.5,0.5],[1,0,-1,1],[9E+09,9E+09,9E+09,9E+09,9E+09,9E+09]], v200, z50, toolSprayGun;
MoveL [[102.303,781.97,738.999],[0.5,-0.5,0.5,0.5],[1,0,-1,1],[9E+09,9E+09,9E+09,9E+09,9E+09,9E+09]], v200, z50, toolSprayGun;
MoveL [[101.411,782.667,733.403],[0.5,-0.5,0.5,0.5],[1,0,-1,1],[9E+09,9E+09,9E+09,9E+09,9E+09,9E+09]], v200, z50, toolSprayGun;
MoveL [[101.382,783.761,730.171],[0.5,-0.5,0.5,0.5],[1,0,-1,1],[9E+09,9E+09,9E+09,9E+09,9E+09,9E+09]], v200, z50, toolSprayGun;
MoveL [[100.222,783.936,725.629],[0.5,-0.5,0.5,0.5],[1,0,-1,1],[9E+09,9E+09,9E+09,9E+09,9E+09,9E+09]], v200, z50, toolSprayGun;
MoveL [[99.4248,783.889,722.023],[0.5,-0.5,0.5,0.5],[1,0,-1,1],[9E+09,9E+09,9E+09,9E+09,9E+09,9E+09]], v200, z50, toolSprayGun;
MoveL [[98.5947,785.119,718.878],[0.5,-0.5,0.5,0.5],[1,0,-1,1],[9E+09,9E+09,9E+09,9E+09,9E+09,9E+09]], v200, z50, toolSprayGun;
MoveL [[98.7092,784.846,716.816],[0.5,-0.5,0.5,0.5],[1,0,-1,1],[9E+09,9E+09,9E+09,9E+09,9E+09,9E+09]], v200, z50, toolSprayGun;
MoveL [[98.2229,783.925,713.014],[0.5,-0.5,0.5,0.5],[1,0,-1,1],[9E+09,9E+09,9E+09,9E+09,9E+09,9E+09]], v200, z50, toolSprayGun;
MoveL [[97.6744,785.818,708.843],[0.5,-0.5,0.5,0.5],[1,0,-1,1],[9E+09,9E+09,9E+09,9E+09,9E+09,9E+09]], v200, z50, toolSprayGun;
MoveL [[97.3992,786.279,706.883],[0.5,-0.5,0.5,0.5],[1,0,-1,1],[9E+09,9E+09,9E+09,9E+09,9E+09,9E+09]], v200, z50, toolSprayGun;
MoveL [[97.6592,786.57,705.519],[0.5,-0.5,0.5,0.5],[1,0,-1,1],[9E+09,9E+09,9E+09,9E+09,9E+09,9E+09]], v200, z50, toolSprayGun;
MoveL [[97.8724,786.776,703.374],[0.5,-0.5,0.5,0.5],[1,0,-1,1],[9E+09,9E+09,9E+09,9E+09,9E+09,9E+09]], v200, z50, toolSprayGun;
MoveL [[97.5108,788.054,699.662],[0.5,-0.5,0.5,0.5],[1,0,-1,1],[9E+09,9E+09,9E+09,9E+09,9E+09,9E+09]], v200, z50, toolSprayGun;
MoveL [[97.5944,789.29,697.631],[0.5,-0.5,0.5,0.5],[1,0,-1,1],[9E+09,9E+09,9E+09,9E+09,9E+09,9E+09]], v200, z50, toolSprayGun;
MoveL [[97.8938,790.079,694.865],[0.5,-0.5,0.5,0.5],[1,0,-1,1],[9E+09,9E+09,9E+09,9E+09,9E+09,9E+09]], v200, z50, toolSprayGun;
MoveL [[97.9182,790.626,692.968],[0.5,-0.5,0.5,0.5],[1,0,-1,1],[9E+09,9E+09,9E+09,9E+09,9E+09,9E+09]], v200, z50, toolSprayGun;
MoveL [[97.3442,790.853,690.549],[0.5,-0.5,0.5,0.5],[1,0,-1,1],[9E+09,9E+09,9E+09,9E+09,9E+09,9E+09]], v200, z50, toolSprayGun;
MoveL [[96.9192,791.132,687.993],[0.5,-0.5,0.5,0.5],[1,0,-1,1],[9E+09,9E+09,9E+09,9E+09,9E+09,9E+09]], v200, z50, toolSprayGun;
MoveL [[96.7789,791.832,686.368],[0.5,-0.5,0.5,0.5],[1,0,-1,1],[9E+09,9E+09,9E+09,9E+09,9E+09,9E+09]], v200, z50, toolSprayGun;
MoveL [[96.7522,792.951,683.933],[0.5,-0.5,0.5,0.5],[1,0,-1,1],[9E+09,9E+09,9E+09,9E+09,9E+09,9E+09]], v200, z50, toolSprayGun;
MoveL [[96.3129,795.197,681.266],[0.5,-0.5,0.5,0.5],[1,0,-1,1],[9E+09,9E+09,9E+09,9E+09,9E+09,9E+09]], v200, z50, toolSprayGun;
MoveL [[96.5655,796.67,680.707],[0.5,-0.5,0.5,0.5],[1,0,-1,1],[9E+09,9E+09,9E+09,9E+09,9E+09,9E+09]], v200, z50, toolSprayGun;
MoveL [[97.0166,796.638,679.311],[0.5,-0.5,0.5,0.5],[1,0,-1,1],[9E+09,9E+09,9E+09,9E+09,9E+09,9E+09]], v200, z50, toolSprayGun;
MoveL [[96.5718,797.195,676.919],[0.5,-0.5,0.5,0.5],[1,0,-1,1],[9E+09,9E+09,9E+09,9E+09,9E+09,9E+09]], v200, z50, toolSprayGun;
MoveL [[96.9622,797.654,674.153],[0.5,-0.5,0.5,0.5],[1,0,-1,1],[9E+09,9E+09,9E+09,9E+09,9E+09,9E+09]], v200, z50, toolSprayGun;
MoveL [[95.9509,796.046,672.281],[0.5,-0.5,0.5,0.5],[1,0,-1,1],[9E+09,9E+09,9E+09,9E+09,9E+09,9E+09]], v200, z50, toolSprayGun;
MoveL [[96.0819,796.21,670.187],[0.5,-0.5,0.5,0.5],[1,0,-1,1],[9E+09,9E+09,9E+09,9E+09,9E+09,9E+09]], v200, z50, toolSprayGun;
MoveL [[95.2834,795.702,666.956],[0.5,-0.5,0.5,0.5],[1,0,-1,1],[9E+09,9E+09,9E+09,9E+09,9E+09,9E+09]], v200, z50, toolSprayGun;
MoveL [[94.6029,795.946,664.674],[0.5,-0.5,0.5,0.5],[1,0,-1,1],[9E+09,9E+09,9E+09,9E+09,9E+09,9E+09]], v200, z50, toolSprayGun;
MoveL [[93.1335,795.325,660.941],[0.5,-0.5,0.5,0.5],[1,0,-1,1],[9E+09,9E+09,9E+09,9E+09,9E+09,9E+09]], v200, z50, toolSprayGun;
MoveL [[91.8889,794.724,656.624],[0.5,-0.5,0.5,0.5],[1,0,-1,1],[9E+09,9E+09,9E+09,9E+09,9E+09,9E+09]], v200, z50, toolSprayGun;
MoveL [[91.5096,794.795,654.755],[0.5,-0.5,0.5,0.5],[1,0,-1,1],[9E+09,9E+09,9E+09,9E+09,9E+09,9E+09]], v200, z50, toolSprayGun;
MoveL [[90.8371,794.948,653.613],[0.5,-0.5,0.5,0.5],[1,0,-1,1],[9E+09,9E+09,9E+09,9E+09,9E+09,9E+09]], v200, z50, toolSprayGun;
MoveL [[89.9351,795.514,650.689],[0.5,-0.5,0.5,0.5],[1,0,-1,1],[9E+09,9E+09,9E+09,9E+09,9E+09,9E+09]], v200, z50, toolSprayGun;
MoveL [[89.2192,795.546,649.159],[0.5,-0.5,0.5,0.5],[1,0,-1,1],[9E+09,9E+09,9E+09,9E+09,9E+09,9E+09]], v200, z50, toolSprayGun;
MoveL [[88.5988,795.221,647],[0.5,-0.5,0.5,0.5],[1,0,-1,1],[9E+09,9E+09,9E+09,9E+09,9E+09,9E+09]], v200, z50, toolSprayGun;
MoveL [[87.4764,795.008,644.383],[0.5,-0.5,0.5,0.5],[1,0,-1,1],[9E+09,9E+09,9E+09,9E+09,9E+09,9E+09]], v200, z50, toolSprayGun;
MoveL [[86.0292,795.445,642.612],[0.5,-0.5,0.5,0.5],[1,0,-1,1],[9E+09,9E+09,9E+09,9E+09,9E+09,9E+09]], v200, z50, toolSprayGun;
MoveL [[84.5324,796.983,640.425],[0.5,-0.5,0.5,0.5],[1,0,-1,1],[9E+09,9E+09,9E+09,9E+09,9E+09,9E+09]], v200, z50, toolSprayGun;
MoveL [[83.9359,797.559,638.452],[0.5,-0.5,0.5,0.5],[1,0,-1,1],[9E+09,9E+09,9E+09,9E+09,9E+09,9E+09]], v200, z50, toolSprayGun;
MoveL [[82.6796,798.064,634.979],[0.5,-0.5,0.5,0.5],[1,0,-1,1],[9E+09,9E+09,9E+09,9E+09,9E+09,9E+09]], v200, z50, toolSprayGun;
MoveL [[81.7993,797.803,634.531],[0.5,-0.5,0.5,0.5],[1,0,-1,1],[9E+09,9E+09,9E+09,9E+09,9E+09,9E+09]], v200, z50, toolSprayGun;
MoveL [[80.6464,798.69,632.173],[0.5,-0.5,0.5,0.5],[1,0,-1,1],[9E+09,9E+09,9E+09,9E+09,9E+09,9E+09]], v200, z50, toolSprayGun;
MoveL [[80.1494,798.967,631.107],[0.5,-0.5,0.5,0.5],[1,0,-1,1],[9E+09,9E+09,9E+09,9E+09,9E+09,9E+09]], v200, z50, toolSprayGun;
MoveL [[79.0091,798.558,628.858],[0.5,-0.5,0.5,0.5],[1,0,-1,1],[9E+09,9E+09,9E+09,9E+09,9E+09,9E+09]], v200, z50, toolSprayGun;
MoveL [[78.8356,798.985,628.128],[0.5,-0.5,0.5,0.5],[1,0,-1,1],[9E+09,9E+09,9E+09,9E+09,9E+09,9E+09]], v200, z50, toolSprayGun;
MoveL [[79.2714,798.774,627.397],[0.5,-0.5,0.5,0.5],[1,0,-1,1],[9E+09,9E+09,9E+09,9E+09,9E+09,9E+09]], v200, z50, toolSprayGun;
MoveL [[80.5305,797.294,626.388],[0.5,-0.5,0.5,0.5],[1,0,-1,1],[9E+09,9E+09,9E+09,9E+09,9E+09,9E+09]], v200, z50, toolSprayGun;
MoveL [[81.1266,796.399,626.644],[0.5,-0.5,0.5,0.5],[1,0,-1,1],[9E+09,9E+09,9E+09,9E+09,9E+09,9E+09]], v200, z50, toolSprayGun;
MoveL [[81.6775,796.204,626.704],[0.5,-0.5,0.5,0.5],[1,0,-1,1],[9E+09,9E+09,9E+09,9E+09,9E+09,9E+09]], v200, z50, toolSprayGun;
MoveL [[84.2122,794.449,627.047],[0.5,-0.5,0.5,0.5],[1,0,-1,1],[9E+09,9E+09,9E+09,9E+09,9E+09,9E+09]], v200, z50, toolSprayGun;
MoveL [[87.0245,793.581,626.988],[0.5,-0.5,0.5,0.5],[1,0,-1,1],[9E+09,9E+09,9E+09,9E+09,9E+09,9E+09]], v200, z50, toolSprayGun;
MoveL [[88.6385,793.495,627.159],[0.5,-0.5,0.5,0.5],[1,0,-1,1],[9E+09,9E+09,9E+09,9E+09,9E+09,9E+09]], v200, z50, toolSprayGun;
MoveL [[90.3634,793.042,627.342],[0.5,-0.5,0.5,0.5],[1,0,-1,1],[9E+09,9E+09,9E+09,9E+09,9E+09,9E+09]], v200, z50, toolSprayGun;
MoveL [[93.7994,792.862,627.817],[0.5,-0.5,0.5,0.5],[1,0,-1,1],[9E+09,9E+09,9E+09,9E+09,9E+09,9E+09]], v200, z50, toolSprayGun;
MoveL [[97.9448,793.471,628.59],[0.5,-0.5,0.5,0.5],[1,0,-1,1],[9E+09,9E+09,9E+09,9E+09,9E+09,9E+09]], v200, z50, toolSprayGun;
MoveL [[102.791,794.166,628.944],[0.5,-0.5,0.5,0.5],[1,0,-1,1],[9E+09,9E+09,9E+09,9E+09,9E+09,9E+09]], v200, z50, toolSprayGun;
MoveL [[105.343,792.652,629.538],[0.5,-0.5,0.5,0.5],[1,0,-1,1],[9E+09,9E+09,9E+09,9E+09,9E+09,9E+09]], v200, z50, toolSprayGun;
MoveL [[110.101,791.363,630.707],[0.5,-0.5,0.5,0.5],[1,0,-1,1],[9E+09,9E+09,9E+09,9E+09,9E+09,9E+09]], v200, z50, toolSprayGun;
MoveL [[111.919,790.709,630.988],[0.5,-0.5,0.5,0.5],[1,0,-1,1],[9E+09,9E+09,9E+09,9E+09,9E+09,9E+09]], v200, z50, toolSprayGun;
MoveL [[116.059,789.342,631.149],[0.5,-0.5,0.5,0.5],[1,0,-1,1],[9E+09,9E+09,9E+09,9E+09,9E+09,9E+09]], v200, z50, toolSprayGun;
MoveL [[119.972,789.564,631.194],[0.5,-0.5,0.5,0.5],[1,0,-1,1],[9E+09,9E+09,9E+09,9E+09,9E+09,9E+09]], v200, z50, toolSprayGun;
MoveL [[123.638,789.649,631.943],[0.5,-0.5,0.5,0.5],[1,0,-1,1],[9E+09,9E+09,9E+09,9E+09,9E+09,9E+09]], v200, z50, toolSprayGun;
MoveL [[126.888,787.699,632.775],[0.5,-0.5,0.5,0.5],[1,0,-1,1],[9E+09,9E+09,9E+09,9E+09,9E+09,9E+09]], v200, z50, toolSprayGun;
MoveL [[129.856,787.548,633.088],[0.5,-0.5,0.5,0.5],[1,0,-1,1],[9E+09,9E+09,9E+09,9E+09,9E+09,9E+09]], v200, z50, toolSprayGun;
MoveL [[133.363,788.084,633.981],[0.5,-0.5,0.5,0.5],[1,0,-1,1],[9E+09,9E+09,9E+09,9E+09,9E+09,9E+09]], v200, z50, toolSprayGun;
MoveL [[136.975,786.669,633.887],[0.5,-0.5,0.5,0.5],[1,0,-1,1],[9E+09,9E+09,9E+09,9E+09,9E+09,9E+09]], v200, z50, toolSprayGun;
MoveL [[139.12,785.728,633.855],[0.5,-0.5,0.5,0.5],[1,0,-1,1],[9E+09,9E+09,9E+09,9E+09,9E+09,9E+09]], v200, z50, toolSprayGun;
MoveL [[145.135,783.536,634.226],[0.5,-0.5,0.5,0.5],[1,0,-1,1],[9E+09,9E+09,9E+09,9E+09,9E+09,9E+09]], v200, z50, toolSprayGun;
MoveL [[147.788,782.572,634.084],[0.5,-0.5,0.5,0.5],[1,0,-1,1],[9E+09,9E+09,9E+09,9E+09,9E+09,9E+09]], v200, z50, toolSprayGun;
MoveL [[151.864,782.598,634.401],[0.5,-0.5,0.5,0.5],[1,0,-1,1],[9E+09,9E+09,9E+09,9E+09,9E+09,9E+09]], v200, z50, toolSprayGun;
MoveL [[153.799,783.153,634.832],[0.5,-0.5,0.5,0.5],[1,0,-1,1],[9E+09,9E+09,9E+09,9E+09,9E+09,9E+09]], v200, z50, toolSprayGun;
MoveL [[159.971,784.566,636.448],[0.5,-0.5,0.5,0.5],[1,0,-1,1],[9E+09,9E+09,9E+09,9E+09,9E+09,9E+09]], v200, z50, toolSprayGun;
MoveL [[162.719,784.582,636.5],[0.5,-0.5,0.5,0.5],[1,0,-1,1],[9E+09,9E+09,9E+09,9E+09,9E+09,9E+09]], v200, z50, toolSprayGun;
MoveL [[168.586,781.915,635.735],[0.5,-0.5,0.5,0.5],[1,0,-1,1],[9E+09,9E+09,9E+09,9E+09,9E+09,9E+09]], v200, z50, toolSprayGun;
MoveL [[170.77,781.101,635.747],[0.5,-0.5,0.5,0.5],[1,0,-1,1],[9E+09,9E+09,9E+09,9E+09,9E+09,9E+09]], v200, z50, toolSprayGun;
MoveL [[174.146,779.341,635.558],[0.5,-0.5,0.5,0.5],[1,0,-1,1],[9E+09,9E+09,9E+09,9E+09,9E+09,9E+09]], v200, z50, toolSprayGun;
MoveL [[177.409,776.457,633.957],[0.5,-0.5,0.5,0.5],[1,0,-1,1],[9E+09,9E+09,9E+09,9E+09,9E+09,9E+09]], v200, z50, toolSprayGun;
MoveL [[180.861,774.29,633.124],[0.5,-0.5,0.5,0.5],[1,0,-1,1],[9E+09,9E+09,9E+09,9E+09,9E+09,9E+09]], v200, z50, toolSprayGun;
MoveL [[182.323,774.208,631.602],[0.5,-0.5,0.5,0.5],[1,0,-1,1],[9E+09,9E+09,9E+09,9E+09,9E+09,9E+09]], v200, z50, toolSprayGun;
MoveL [[185.673,773.633,630.69],[0.5,-0.5,0.5,0.5],[1,0,-1,1],[9E+09,9E+09,9E+09,9E+09,9E+09,9E+09]], v200, z50, toolSprayGun;
MoveL [[188.706,772.577,630.021],[0.5,-0.5,0.5,0.5],[1,0,-1,1],[9E+09,9E+09,9E+09,9E+09,9E+09,9E+09]], v200, z50, toolSprayGun;
MoveL [[192.8,771.523,628.795],[0.5,-0.5,0.5,0.5],[1,0,-1,1],[9E+09,9E+09,9E+09,9E+09,9E+09,9E+09]], v200, z50, toolSprayGun;
MoveL [[196.3,771.202,628.631],[0.5,-0.5,0.5,0.5],[1,0,-1,1],[9E+09,9E+09,9E+09,9E+09,9E+09,9E+09]], v200, z50, toolSprayGun;
MoveL [[199.244,771.306,628.736],[0.5,-0.5,0.5,0.5],[1,0,-1,1],[9E+09,9E+09,9E+09,9E+09,9E+09,9E+09]], v200, z50, toolSprayGun;
MoveL [[203.311,770.572,629.061],[0.5,-0.5,0.5,0.5],[1,0,-1,1],[9E+09,9E+09,9E+09,9E+09,9E+09,9E+09]], v200, z50, toolSprayGun;
MoveL [[208.832,770.495,629.282],[0.5,-0.5,0.5,0.5],[1,0,-1,1],[9E+09,9E+09,9E+09,9E+09,9E+09,9E+09]], v200, z50, toolSprayGun;
MoveL [[214.381,770.217,629.314],[0.5,-0.5,0.5,0.5],[1,0,-1,1],[9E+09,9E+09,9E+09,9E+09,9E+09,9E+09]], v200, z50, toolSprayGun;
MoveL [[218.488,769.566,629.737],[0.5,-0.5,0.5,0.5],[1,0,-1,1],[9E+09,9E+09,9E+09,9E+09,9E+09,9E+09]], v200, z50, toolSprayGun;
MoveL [[223.043,768.938,630.089],[0.5,-0.5,0.5,0.5],[1,0,-1,1],[9E+09,9E+09,9E+09,9E+09,9E+09,9E+09]], v200, z50, toolSprayGun;
MoveL [[227.444,768.493,630.449],[0.5,-0.5,0.5,0.5],[1,0,-1,1],[9E+09,9E+09,9E+09,9E+09,9E+09,9E+09]], v200, z50, toolSprayGun;
MoveL [[234.552,767.978,630.885],[0.5,-0.5,0.5,0.5],[1,0,-1,1],[9E+09,9E+09,9E+09,9E+09,9E+09,9E+09]], v200, z50, toolSprayGun;
MoveL [[239.806,768.158,631.861],[0.5,-0.5,0.5,0.5],[1,0,-1,1],[9E+09,9E+09,9E+09,9E+09,9E+09,9E+09]], v200, z50, toolSprayGun;
MoveL [[243.937,767.695,632.501],[0.5,-0.5,0.5,0.5],[1,0,-1,1],[9E+09,9E+09,9E+09,9E+09,9E+09,9E+09]], v200, z50, toolSprayGun;
MoveL [[249.372,768.16,633.268],[0.5,-0.5,0.5,0.5],[1,0,-1,1],[9E+09,9E+09,9E+09,9E+09,9E+09,9E+09]], v200, z50, toolSprayGun;
MoveL [[254.665,768.3,634.242],[0.5,-0.5,0.5,0.5],[1,0,-1,1],[9E+09,9E+09,9E+09,9E+09,9E+09,9E+09]], v200, z50, toolSprayGun;
MoveL [[262.132,768.588,635.922],[0.5,-0.5,0.5,0.5],[1,0,-1,1],[9E+09,9E+09,9E+09,9E+09,9E+09,9E+09]], v200, z50, toolSprayGun;
MoveL [[268.242,769.279,636.726],[0.5,-0.5,0.5,0.5],[1,0,-1,1],[9E+09,9E+09,9E+09,9E+09,9E+09,9E+09]], v200, z50, toolSprayGun;
MoveL [[274.927,767.796,637.355],[0.5,-0.5,0.5,0.5],[1,0,-1,1],[9E+09,9E+09,9E+09,9E+09,9E+09,9E+09]], v200, z50, toolSprayGun;
MoveL [[279.335,768.105,637.003],[0.5,-0.5,0.5,0.5],[1,0,-1,1],[9E+09,9E+09,9E+09,9E+09,9E+09,9E+09]], v200, z50, toolSprayGun;
MoveL [[283.082,768.548,636.714],[0.5,-0.5,0.5,0.5],[1,0,-1,1],[9E+09,9E+09,9E+09,9E+09,9E+09,9E+09]], v200, z50, toolSprayGun;
MoveL [[289.581,768.161,638.289],[0.5,-0.5,0.5,0.5],[1,0,-1,1],[9E+09,9E+09,9E+09,9E+09,9E+09,9E+09]], v200, z50, toolSprayGun;
MoveL [[293.447,768.18,637.681],[0.5,-0.5,0.5,0.5],[1,0,-1,1],[9E+09,9E+09,9E+09,9E+09,9E+09,9E+09]], v200, z50, toolSprayGun;
MoveL [[299.27,769.356,636.281],[0.5,-0.5,0.5,0.5],[1,0,-1,1],[9E+09,9E+09,9E+09,9E+09,9E+09,9E+09]], v200, z50, toolSprayGun;
MoveL [[304.514,769.34,636.433],[0.5,-0.5,0.5,0.5],[1,0,-1,1],[9E+09,9E+09,9E+09,9E+09,9E+09,9E+09]], v200, z50, toolSprayGun;
MoveL [[309.737,770.169,636.213],[0.5,-0.5,0.5,0.5],[1,0,-1,1],[9E+09,9E+09,9E+09,9E+09,9E+09,9E+09]], v200, z50, toolSprayGun;
MoveL [[311.396,770.603,636.355],[0.5,-0.5,0.5,0.5],[1,0,-1,1],[9E+09,9E+09,9E+09,9E+09,9E+09,9E+09]], v200, z50, toolSprayGun;
MoveL [[317.748,772.05,635.272],[0.5,-0.5,0.5,0.5],[1,0,-1,1],[9E+09,9E+09,9E+09,9E+09,9E+09,9E+09]], v200, z50, toolSprayGun;
MoveL [[323.893,772.804,635.31],[0.5,-0.5,0.5,0.5],[1,0,-1,1],[9E+09,9E+09,9E+09,9E+09,9E+09,9E+09]], v200, z50, toolSprayGun;
MoveL [[330.145,772.924,635.567],[0.5,-0.5,0.5,0.5],[1,0,-1,1],[9E+09,9E+09,9E+09,9E+09,9E+09,9E+09]], v200, z50, toolSprayGun;
MoveL [[335.845,773.583,635.885],[0.5,-0.5,0.5,0.5],[1,0,-1,1],[9E+09,9E+09,9E+09,9E+09,9E+09,9E+09]], v200, z50, toolSprayGun;
MoveL [[340.641,773.546,636.708],[0.5,-0.5,0.5,0.5],[1,0,-1,1],[9E+09,9E+09,9E+09,9E+09,9E+09,9E+09]], v200, z50, toolSprayGun;
MoveL [[348.801,775.442,638.057],[0.5,-0.5,0.5,0.5],[1,0,-1,1],[9E+09,9E+09,9E+09,9E+09,9E+09,9E+09]], v200, z50, toolSprayGun;
MoveL [[356.18,775.508,638.868],[0.5,-0.5,0.5,0.5],[1,0,-1,1],[9E+09,9E+09,9E+09,9E+09,9E+09,9E+09]], v200, z50, toolSprayGun;
MoveL [[361.047,774.659,638.76],[0.5,-0.5,0.5,0.5],[1,0,-1,1],[9E+09,9E+09,9E+09,9E+09,9E+09,9E+09]], v200, z50, toolSprayGun;
MoveL [[367.289,775.486,638.354],[0.5,-0.5,0.5,0.5],[1,0,-1,1],[9E+09,9E+09,9E+09,9E+09,9E+09,9E+09]], v200, z50, toolSprayGun;
MoveL [[370.681,775.107,637.881],[0.5,-0.5,0.5,0.5],[1,0,-1,1],[9E+09,9E+09,9E+09,9E+09,9E+09,9E+09]], v200, z50, toolSprayGun;
MoveL [[378.368,774.937,637.633],[0.5,-0.5,0.5,0.5],[1,0,-1,1],[9E+09,9E+09,9E+09,9E+09,9E+09,9E+09]], v200, z50, toolSprayGun;
MoveL [[385.404,775.709,637.347],[0.5,-0.5,0.5,0.5],[1,0,-1,1],[9E+09,9E+09,9E+09,9E+09,9E+09,9E+09]], v200, z50, toolSprayGun;
MoveL [[390.376,774.711,638.363],[0.5,-0.5,0.5,0.5],[1,0,-1,1],[9E+09,9E+09,9E+09,9E+09,9E+09,9E+09]], v200, z50, toolSprayGun;
MoveL [[392.51,773.957,638.405],[0.5,-0.5,0.5,0.5],[1,0,-1,1],[9E+09,9E+09,9E+09,9E+09,9E+09,9E+09]], v200, z50, toolSprayGun;
MoveL [[398.052,774.383,638.486],[0.5,-0.5,0.5,0.5],[1,0,-1,1],[9E+09,9E+09,9E+09,9E+09,9E+09,9E+09]], v200, z50, toolSprayGun;
MoveL [[405.674,775.556,638.731],[0.5,-0.5,0.5,0.5],[1,0,-1,1],[9E+09,9E+09,9E+09,9E+09,9E+09,9E+09]], v200, z50, toolSprayGun;
MoveL [[410.31,775.299,639.229],[0.5,-0.5,0.5,0.5],[1,0,-1,1],[9E+09,9E+09,9E+09,9E+09,9E+09,9E+09]], v200, z50, toolSprayGun;
MoveL [[414.829,774.677,639.698],[0.5,-0.5,0.5,0.5],[1,0,-1,1],[9E+09,9E+09,9E+09,9E+09,9E+09,9E+09]], v200, z50, toolSprayGun;
MoveL [[419.694,773.396,640.544],[0.5,-0.5,0.5,0.5],[1,0,-1,1],[9E+09,9E+09,9E+09,9E+09,9E+09,9E+09]], v200, z50, toolSprayGun;
MoveL [[425.554,773.718,640.53],[0.5,-0.5,0.5,0.5],[1,0,-1,1],[9E+09,9E+09,9E+09,9E+09,9E+09,9E+09]], v200, z50, toolSprayGun;
MoveL [[428.911,773.528,640.139],[0.5,-0.5,0.5,0.5],[1,0,-1,1],[9E+09,9E+09,9E+09,9E+09,9E+09,9E+09]], v200, z50, toolSprayGun;
MoveL [[437.882,776.028,640.018],[0.5,-0.5,0.5,0.5],[1,0,-1,1],[9E+09,9E+09,9E+09,9E+09,9E+09,9E+09]], v200, z50, toolSprayGun;
MoveL [[441.72,775.859,640.106],[0.5,-0.5,0.5,0.5],[1,0,-1,1],[9E+09,9E+09,9E+09,9E+09,9E+09,9E+09]], v200, z50, toolSprayGun;
MoveL [[447.088,776.074,640.859],[0.5,-0.5,0.5,0.5],[1,0,-1,1],[9E+09,9E+09,9E+09,9E+09,9E+09,9E+09]], v200, z50, toolSprayGun;
MoveL [[450.58,776.539,641.217],[0.5,-0.5,0.5,0.5],[1,0,-1,1],[9E+09,9E+09,9E+09,9E+09,9E+09,9E+09]], v200, z50, toolSprayGun;
MoveL [[456.808,778.142,641.796],[0.5,-0.5,0.5,0.5],[1,0,-1,1],[9E+09,9E+09,9E+09,9E+09,9E+09,9E+09]], v200, z50, toolSprayGun;
MoveL [[461.569,778.086,642.116],[0.5,-0.5,0.5,0.5],[1,0,-1,1],[9E+09,9E+09,9E+09,9E+09,9E+09,9E+09]], v200, z50, toolSprayGun;
MoveL [[468.035,778.453,642.695],[0.5,-0.5,0.5,0.5],[1,0,-1,1],[9E+09,9E+09,9E+09,9E+09,9E+09,9E+09]], v200, z50, toolSprayGun;
MoveL [[473.764,779.04,643.505],[0.5,-0.5,0.5,0.5],[1,0,-1,1],[9E+09,9E+09,9E+09,9E+09,9E+09,9E+09]], v200, z50, toolSprayGun;
MoveL [[477.942,779.098,643.556],[0.5,-0.5,0.5,0.5],[1,0,-1,1],[9E+09,9E+09,9E+09,9E+09,9E+09,9E+09]], v200, z50, toolSprayGun;
MoveL [[483.314,780.636,643.041],[0.5,-0.5,0.5,0.5],[1,0,-1,1],[9E+09,9E+09,9E+09,9E+09,9E+09,9E+09]], v200, z50, toolSprayGun;
MoveL [[486.607,780.858,643.528],[0.5,-0.5,0.5,0.5],[1,0,-1,1],[9E+09,9E+09,9E+09,9E+09,9E+09,9E+09]], v200, z50, toolSprayGun;
MoveL [[492.702,781,644.652],[0.5,-0.5,0.5,0.5],[1,0,-1,1],[9E+09,9E+09,9E+09,9E+09,9E+09,9E+09]], v200, z50, toolSprayGun;
MoveL [[497.705,780.535,645.443],[0.5,-0.5,0.5,0.5],[1,0,-1,1],[9E+09,9E+09,9E+09,9E+09,9E+09,9E+09]], v200, z50, toolSprayGun;
MoveL [[502.356,780.082,645.72],[0.5,-0.5,0.5,0.5],[1,0,-1,1],[9E+09,9E+09,9E+09,9E+09,9E+09,9E+09]], v200, z50, toolSprayGun;
MoveL [[506.892,780.197,645.637],[0.5,-0.5,0.5,0.5],[1,0,-1,1],[9E+09,9E+09,9E+09,9E+09,9E+09,9E+09]], v200, z50, toolSprayGun;
MoveL [[510.609,780.991,645.644],[0.5,-0.5,0.5,0.5],[1,0,-1,1],[9E+09,9E+09,9E+09,9E+09,9E+09,9E+09]], v200, z50, toolSprayGun;
MoveL [[514.688,780.193,645.653],[0.5,-0.5,0.5,0.5],[1,0,-1,1],[9E+09,9E+09,9E+09,9E+09,9E+09,9E+09]], v200, z50, toolSprayGun;
MoveL [[520.278,780.837,645.171],[0.5,-0.5,0.5,0.5],[1,0,-1,1],[9E+09,9E+09,9E+09,9E+09,9E+09,9E+09]], v200, z50, toolSprayGun;
MoveL [[524.066,781.691,644.752],[0.5,-0.5,0.5,0.5],[1,0,-1,1],[9E+09,9E+09,9E+09,9E+09,9E+09,9E+09]], v200, z50, toolSprayGun;
MoveL [[528.146,782.044,644.145],[0.5,-0.5,0.5,0.5],[1,0,-1,1],[9E+09,9E+09,9E+09,9E+09,9E+09,9E+09]], v200, z50, toolSprayGun;
MoveL [[531.99,782.509,644.258],[0.5,-0.5,0.5,0.5],[1,0,-1,1],[9E+09,9E+09,9E+09,9E+09,9E+09,9E+09]], v200, z50, toolSprayGun;
MoveL [[537.633,783.132,642.338],[0.5,-0.5,0.5,0.5],[1,0,-1,1],[9E+09,9E+09,9E+09,9E+09,9E+09,9E+09]], v200, z50, toolSprayGun;
MoveL [[539.744,783.72,641.985],[0.5,-0.5,0.5,0.5],[1,0,-1,1],[9E+09,9E+09,9E+09,9E+09,9E+09,9E+09]], v200, z50, toolSprayGun;
MoveL [[542.685,783.441,642.618],[0.5,-0.5,0.5,0.5],[1,0,-1,1],[9E+09,9E+09,9E+09,9E+09,9E+09,9E+09]], v200, z50, toolSprayGun;
MoveL [[545.543,783.5,642.672],[0.5,-0.5,0.5,0.5],[1,0,-1,1],[9E+09,9E+09,9E+09,9E+09,9E+09,9E+09]], v200, z50, toolSprayGun;
MoveL [[547.128,783.863,643.131],[0.5,-0.5,0.5,0.5],[1,0,-1,1],[9E+09,9E+09,9E+09,9E+09,9E+09,9E+09]], v200, z50, toolSprayGun;
MoveL [[550.436,783.951,644.002],[0.5,-0.5,0.5,0.5],[1,0,-1,1],[9E+09,9E+09,9E+09,9E+09,9E+09,9E+09]], v200, z50, toolSprayGun;
MoveL [[553.361,783.186,645.798],[0.5,-0.5,0.5,0.5],[1,0,-1,1],[9E+09,9E+09,9E+09,9E+09,9E+09,9E+09]], v200, z50, toolSprayGun;
MoveL [[555.222,783.073,646.855],[0.5,-0.5,0.5,0.5],[1,0,-1,1],[9E+09,9E+09,9E+09,9E+09,9E+09,9E+09]], v200, z50, toolSprayGun;
MoveL [[557.44,783.059,649.03],[0.5,-0.5,0.5,0.5],[1,0,-1,1],[9E+09,9E+09,9E+09,9E+09,9E+09,9E+09]], v200, z50, toolSprayGun;
MoveL [[557.758,782.345,654.679],[0.5,-0.5,0.5,0.5],[1,0,-1,1],[9E+09,9E+09,9E+09,9E+09,9E+09,9E+09]], v200, z50, toolSprayGun;
MoveL [[558.539,780.685,659.754],[0.5,-0.5,0.5,0.5],[1,0,-1,1],[9E+09,9E+09,9E+09,9E+09,9E+09,9E+09]], v200, z50, toolSprayGun;
MoveL [[558.76,779.118,662.577],[0.5,-0.5,0.5,0.5],[1,0,-1,1],[9E+09,9E+09,9E+09,9E+09,9E+09,9E+09]], v200, z50, toolSprayGun;
MoveL [[558.037,778.452,667.668],[0.5,-0.5,0.5,0.5],[1,0,-1,1],[9E+09,9E+09,9E+09,9E+09,9E+09,9E+09]], v200, z50, toolSprayGun;
MoveL [[558.315,777.095,670.925],[0.5,-0.5,0.5,0.5],[1,0,-1,1],[9E+09,9E+09,9E+09,9E+09,9E+09,9E+09]], v200, z50, toolSprayGun;
MoveL [[558.758,776.467,676.408],[0.5,-0.5,0.5,0.5],[1,0,-1,1],[9E+09,9E+09,9E+09,9E+09,9E+09,9E+09]], v200, z50, toolSprayGun;
MoveL [[559.358,776.253,681.201],[0.5,-0.5,0.5,0.5],[1,0,-1,1],[9E+09,9E+09,9E+09,9E+09,9E+09,9E+09]], v200, z50, toolSprayGun;
MoveL [[558.659,775.997,686.639],[0.5,-0.5,0.5,0.5],[1,0,-1,1],[9E+09,9E+09,9E+09,9E+09,9E+09,9E+09]], v200, z50, toolSprayGun;
MoveL [[559.01,775.621,689.651],[0.5,-0.5,0.5,0.5],[1,0,-1,1],[9E+09,9E+09,9E+09,9E+09,9E+09,9E+09]], v200, z50, toolSprayGun;
MoveL [[559.201,775.544,696.613],[0.5,-0.5,0.5,0.5],[1,0,-1,1],[9E+09,9E+09,9E+09,9E+09,9E+09,9E+09]], v200, z50, toolSprayGun;
MoveL [[559.226,775.507,700.983],[0.5,-0.5,0.5,0.5],[1,0,-1,1],[9E+09,9E+09,9E+09,9E+09,9E+09,9E+09]], v200, z50, toolSprayGun;
MoveL [[560.06,775.054,709.594],[0.5,-0.5,0.5,0.5],[1,0,-1,1],[9E+09,9E+09,9E+09,9E+09,9E+09,9E+09]], v200, z50, toolSprayGun;
MoveL [[559.936,775.228,716.3],[0.5,-0.5,0.5,0.5],[1,0,-1,1],[9E+09,9E+09,9E+09,9E+09,9E+09,9E+09]], v200, z50, toolSprayGun;
MoveL [[560.618,775.151,721.061],[0.5,-0.5,0.5,0.5],[1,0,-1,1],[9E+09,9E+09,9E+09,9E+09,9E+09,9E+09]], v200, z50, toolSprayGun;
MoveL [[560.917,775.223,723.766],[0.5,-0.5,0.5,0.5],[1,0,-1,1],[9E+09,9E+09,9E+09,9E+09,9E+09,9E+09]], v200, z50, toolSprayGun;
MoveL [[560.909,777.082,731.244],[0.5,-0.5,0.5,0.5],[1,0,-1,1],[9E+09,9E+09,9E+09,9E+09,9E+09,9E+09]], v200, z50, toolSprayGun;
MoveL [[561.408,778.327,736.8],[0.5,-0.5,0.5,0.5],[1,0,-1,1],[9E+09,9E+09,9E+09,9E+09,9E+09,9E+09]], v200, z50, toolSprayGun;
MoveL [[561.811,779,743.136],[0.5,-0.5,0.5,0.5],[1,0,-1,1],[9E+09,9E+09,9E+09,9E+09,9E+09,9E+09]], v200, z50, toolSprayGun;
MoveL [[561.266,779.746,749.726],[0.5,-0.5,0.5,0.5],[1,0,-1,1],[9E+09,9E+09,9E+09,9E+09,9E+09,9E+09]], v200, z50, toolSprayGun;
MoveL [[560.733,779.76,753.796],[0.5,-0.5,0.5,0.5],[1,0,-1,1],[9E+09,9E+09,9E+09,9E+09,9E+09,9E+09]], v200, z50, toolSprayGun;
MoveL [[559.657,779.871,758.786],[0.5,-0.5,0.5,0.5],[1,0,-1,1],[9E+09,9E+09,9E+09,9E+09,9E+09,9E+09]], v200, z50, toolSprayGun;
MoveL [[559.679,779.647,763.41],[0.5,-0.5,0.5,0.5],[1,0,-1,1],[9E+09,9E+09,9E+09,9E+09,9E+09,9E+09]], v200, z50, toolSprayGun;
MoveL [[559.847,779.349,769.691],[0.5,-0.5,0.5,0.5],[1,0,-1,1],[9E+09,9E+09,9E+09,9E+09,9E+09,9E+09]], v200, z50, toolSprayGun;
MoveL [[559.51,780.429,775.69],[0.5,-0.5,0.5,0.5],[1,0,-1,1],[9E+09,9E+09,9E+09,9E+09,9E+09,9E+09]], v200, z50, toolSprayGun;
MoveL [[559.17,780.768,778.724],[0.5,-0.5,0.5,0.5],[1,0,-1,1],[9E+09,9E+09,9E+09,9E+09,9E+09,9E+09]], v200, z50, toolSprayGun;
MoveL [[558.955,780.33,783.226],[0.5,-0.5,0.5,0.5],[1,0,-1,1],[9E+09,9E+09,9E+09,9E+09,9E+09,9E+09]], v200, z50, toolSprayGun;
MoveL [[558.449,780.249,786.343],[0.5,-0.5,0.5,0.5],[1,0,-1,1],[9E+09,9E+09,9E+09,9E+09,9E+09,9E+09]], v200, z50, toolSprayGun;
MoveL [[557.834,780.846,790.773],[0.5,-0.5,0.5,0.5],[1,0,-1,1],[9E+09,9E+09,9E+09,9E+09,9E+09,9E+09]], v200, z50, toolSprayGun;
MoveL [[557.417,780.641,792.265],[0.5,-0.5,0.5,0.5],[1,0,-1,1],[9E+09,9E+09,9E+09,9E+09,9E+09,9E+09]], v200, z50, toolSprayGun;
MoveL [[556.991,780.666,797.554],[0.5,-0.5,0.5,0.5],[1,0,-1,1],[9E+09,9E+09,9E+09,9E+09,9E+09,9E+09]], v200, z50, toolSprayGun;
MoveL [[556.501,780.266,801.233],[0.5,-0.5,0.5,0.5],[1,0,-1,1],[9E+09,9E+09,9E+09,9E+09,9E+09,9E+09]], v200, z50, toolSprayGun;
MoveL [[555.417,779.852,806.229],[0.5,-0.5,0.5,0.5],[1,0,-1,1],[9E+09,9E+09,9E+09,9E+09,9E+09,9E+09]], v200, z50, toolSprayGun;
MoveL [[555.812,779.889,809.738],[0.5,-0.5,0.5,0.5],[1,0,-1,1],[9E+09,9E+09,9E+09,9E+09,9E+09,9E+09]], v200, z50, toolSprayGun;
MoveL [[555.833,779.887,811.527],[0.5,-0.5,0.5,0.5],[1,0,-1,1],[9E+09,9E+09,9E+09,9E+09,9E+09,9E+09]], v200, z50, toolSprayGun;
MoveL [[555.543,779.282,816.437],[0.5,-0.5,0.5,0.5],[1,0,-1,1],[9E+09,9E+09,9E+09,9E+09,9E+09,9E+09]], v200, z50, toolSprayGun;
MoveL [[554.734,779.544,821.387],[0.5,-0.5,0.5,0.5],[1,0,-1,1],[9E+09,9E+09,9E+09,9E+09,9E+09,9E+09]], v200, z50, toolSprayGun;
MoveL [[554.848,779.448,825.393],[0.5,-0.5,0.5,0.5],[1,0,-1,1],[9E+09,9E+09,9E+09,9E+09,9E+09,9E+09]], v200, z50, toolSprayGun;
MoveL [[554.052,778.679,829.799],[0.5,-0.5,0.5,0.5],[1,0,-1,1],[9E+09,9E+09,9E+09,9E+09,9E+09,9E+09]], v200, z50, toolSprayGun;
MoveL [[553.217,778.472,832.655],[0.5,-0.5,0.5,0.5],[1,0,-1,1],[9E+09,9E+09,9E+09,9E+09,9E+09,9E+09]], v200, z50, toolSprayGun;
MoveL [[551.433,778.045,838.006],[0.5,-0.5,0.5,0.5],[1,0,-1,1],[9E+09,9E+09,9E+09,9E+09,9E+09,9E+09]], v200, z50, toolSprayGun;
MoveL [[550.41,778.638,840.974],[0.5,-0.5,0.5,0.5],[1,0,-1,1],[9E+09,9E+09,9E+09,9E+09,9E+09,9E+09]], v200, z50, toolSprayGun;
MoveL [[549.121,778.193,844.714],[0.5,-0.5,0.5,0.5],[1,0,-1,1],[9E+09,9E+09,9E+09,9E+09,9E+09,9E+09]], v200, z50, toolSprayGun;
MoveL [[548.51,778.474,846.714],[0.5,-0.5,0.5,0.5],[1,0,-1,1],[9E+09,9E+09,9E+09,9E+09,9E+09,9E+09]], v200, z50, toolSprayGun;
MoveL [[547.411,778,850.804],[0.5,-0.5,0.5,0.5],[1,0,-1,1],[9E+09,9E+09,9E+09,9E+09,9E+09,9E+09]], v200, z50, toolSprayGun;
MoveL [[546.447,777.161,854.984],[0.5,-0.5,0.5,0.5],[1,0,-1,1],[9E+09,9E+09,9E+09,9E+09,9E+09,9E+09]], v200, z50, toolSprayGun;
MoveL [[545.429,776.639,858.661],[0.5,-0.5,0.5,0.5],[1,0,-1,1],[9E+09,9E+09,9E+09,9E+09,9E+09,9E+09]], v200, z50, toolSprayGun;
MoveL [[544.932,776.21,859.76],[0.5,-0.5,0.5,0.5],[1,0,-1,1],[9E+09,9E+09,9E+09,9E+09,9E+09,9E+09]], v200, z50, toolSprayGun;
MoveL [[544.003,776.77,859.78],[0.5,-0.5,0.5,0.5],[1,0,-1,1],[9E+09,9E+09,9E+09,9E+09,9E+09,9E+09]], v200, z50, toolSprayGun;
MoveL [[543.086,777.053,860.864],[0.5,-0.5,0.5,0.5],[1,0,-1,1],[9E+09,9E+09,9E+09,9E+09,9E+09,9E+09]], v200, z50, toolSprayGun;
MoveL [[542.987,777.283,860.483],[0.5,-0.5,0.5,0.5],[1,0,-1,1],[9E+09,9E+09,9E+09,9E+09,9E+09,9E+09]], v200, z50, toolSprayGun;
MoveL [[542.681,776.497,861.979],[0.5,-0.5,0.5,0.5],[1,0,-1,1],[9E+09,9E+09,9E+09,9E+09,9E+09,9E+09]], v200, z50, toolSprayGun;
MoveL [[543.046,776.285,861.594],[0.5,-0.5,0.5,0.5],[1,0,-1,1],[9E+09,9E+09,9E+09,9E+09,9E+09,9E+09]], v200, z50, toolSprayGun;
MoveL [[543.745,776.983,860.556],[0.5,-0.5,0.5,0.5],[1,0,-1,1],[9E+09,9E+09,9E+09,9E+09,9E+09,9E+09]], v200, z50, toolSprayGun;
MoveL [[544.651,777.048,859.59],[0.5,-0.5,0.5,0.5],[1,0,-1,1],[9E+09,9E+09,9E+09,9E+09,9E+09,9E+09]], v200, z50, toolSprayGun;
MoveL [[545.477,777.571,859.446],[0.5,-0.5,0.5,0.5],[1,0,-1,1],[9E+09,9E+09,9E+09,9E+09,9E+09,9E+09]], v200, z50, toolSprayGun;
MoveL [[546.512,778.298,858.317],[0.5,-0.5,0.5,0.5],[1,0,-1,1],[9E+09,9E+09,9E+09,9E+09,9E+09,9E+09]], v200, z50, toolSprayGun;
MoveL [[546.876,778.241,858.263],[0.5,-0.5,0.5,0.5],[1,0,-1,1],[9E+09,9E+09,9E+09,9E+09,9E+09,9E+09]], v200, z50, toolSprayGun;
MoveL [[547.384,778.335,857.807],[0.5,-0.5,0.5,0.5],[1,0,-1,1],[9E+09,9E+09,9E+09,9E+09,9E+09,9E+09]], v200, z50, toolSprayGun;
MoveL [[548.285,778.774,856.82],[0.5,-0.5,0.5,0.5],[1,0,-1,1],[9E+09,9E+09,9E+09,9E+09,9E+09,9E+09]], v200, z50, toolSprayGun;
MoveL [[548.358,779.144,855.877],[0.5,-0.5,0.5,0.5],[1,0,-1,1],[9E+09,9E+09,9E+09,9E+09,9E+09,9E+09]], v200, z50, toolSprayGun;
MoveL [[548.358,779.193,854.78],[0.5,-0.5,0.5,0.5],[1,0,-1,1],[9E+09,9E+09,9E+09,9E+09,9E+09,9E+09]], v200, z50, toolSprayGun;
MoveL [[548.71,779.363,854.634],[0.5,-0.5,0.5,0.5],[1,0,-1,1],[9E+09,9E+09,9E+09,9E+09,9E+09,9E+09]], v200, z50, toolSprayGun;
MoveL [[548.757,779.47,853.86],[0.5,-0.5,0.5,0.5],[1,0,-1,1],[9E+09,9E+09,9E+09,9E+09,9E+09,9E+09]], v200, z50, toolSprayGun;
MoveL [[548.76,779.505,853.382],[0.5,-0.5,0.5,0.5],[1,0,-1,1],[9E+09,9E+09,9E+09,9E+09,9E+09,9E+09]], v200, z50, toolSprayGun;
MoveL [[548.514,779.789,853.118],[0.5,-0.5,0.5,0.5],[1,0,-1,1],[9E+09,9E+09,9E+09,9E+09,9E+09,9E+09]], v200, z50, toolSprayGun;
MoveL [[548.388,780.121,853.294],[0.5,-0.5,0.5,0.5],[1,0,-1,1],[9E+09,9E+09,9E+09,9E+09,9E+09,9E+09]], v200, z50, toolSprayGun;
MoveL [[548.045,780.582,853.358],[0.5,-0.5,0.5,0.5],[1,0,-1,1],[9E+09,9E+09,9E+09,9E+09,9E+09,9E+09]], v200, z50, toolSprayGun;
MoveL [[547.569,780.522,853.26],[0.5,-0.5,0.5,0.5],[1,0,-1,1],[9E+09,9E+09,9E+09,9E+09,9E+09,9E+09]], v200, z50, toolSprayGun;
MoveL [[547.19,780.398,853.236],[0.5,-0.5,0.5,0.5],[1,0,-1,1],[9E+09,9E+09,9E+09,9E+09,9E+09,9E+09]], v200, z50, toolSprayGun;
ENDPROC
ENDMODULE
