MODULE MainModule
PROC main()
MoveL [[435.438,700.243,770.872],[0.5,-0.5,0.5,0.5],[1,0,-1,1],[9E+09,9E+09,9E+09,9E+09,9E+09,9E+09]], v200, z50, toolSprayGun;
MoveL [[435.854,699.105,770.289],[0.5,-0.5,0.5,0.5],[1,0,-1,1],[9E+09,9E+09,9E+09,9E+09,9E+09,9E+09]], v200, z50, toolSprayGun;
MoveL [[435.978,698.734,769.986],[0.5,-0.5,0.5,0.5],[1,0,-1,1],[9E+09,9E+09,9E+09,9E+09,9E+09,9E+09]], v200, z50, toolSprayGun;
MoveL [[436.355,697.872,769.304],[0.5,-0.5,0.5,0.5],[1,0,-1,1],[9E+09,9E+09,9E+09,9E+09,9E+09,9E+09]], v200, z50, toolSprayGun;
MoveL [[436.489,697.254,769.035],[0.5,-0.5,0.5,0.5],[1,0,-1,1],[9E+09,9E+09,9E+09,9E+09,9E+09,9E+09]], v200, z50, toolSprayGun;
MoveL [[436.583,697.129,768.82],[0.5,-0.5,0.5,0.5],[1,0,-1,1],[9E+09,9E+09,9E+09,9E+09,9E+09,9E+09]], v200, z50, toolSprayGun;
MoveL [[437.483,695.817,768.257],[0.5,-0.5,0.5,0.5],[1,0,-1,1],[9E+09,9E+09,9E+09,9E+09,9E+09,9E+09]], v200, z50, toolSprayGun;
MoveL [[437.964,694.868,767.669],[0.5,-0.5,0.5,0.5],[1,0,-1,1],[9E+09,9E+09,9E+09,9E+09,9E+09,9E+09]], v200, z50, toolSprayGun;
MoveL [[438.54,693.857,767.448],[0.5,-0.5,0.5,0.5],[1,0,-1,1],[9E+09,9E+09,9E+09,9E+09,9E+09,9E+09]], v200, z50, toolSprayGun;
MoveL [[439.499,692.673,767.063],[0.5,-0.5,0.5,0.5],[1,0,-1,1],[9E+09,9E+09,9E+09,9E+09,9E+09,9E+09]], v200, z50, toolSprayGun;
MoveL [[440.055,691.719,766.581],[0.5,-0.5,0.5,0.5],[1,0,-1,1],[9E+09,9E+09,9E+09,9E+09,9E+09,9E+09]], v200, z50, toolSprayGun;
MoveL [[440.121,691.493,766.259],[0.5,-0.5,0.5,0.5],[1,0,-1,1],[9E+09,9E+09,9E+09,9E+09,9E+09,9E+09]], v200, z50, toolSprayGun;
MoveL [[440.38,690.965,766.137],[0.5,-0.5,0.5,0.5],[1,0,-1,1],[9E+09,9E+09,9E+09,9E+09,9E+09,9E+09]], v200, z50, toolSprayGun;
MoveL [[440.609,690.821,766.034],[0.5,-0.5,0.5,0.5],[1,0,-1,1],[9E+09,9E+09,9E+09,9E+09,9E+09,9E+09]], v200, z50, toolSprayGun;
MoveL [[440.92,690.405,765.66],[0.5,-0.5,0.5,0.5],[1,0,-1,1],[9E+09,9E+09,9E+09,9E+09,9E+09,9E+09]], v200, z50, toolSprayGun;
MoveL [[441.155,689.81,764.877],[0.5,-0.5,0.5,0.5],[1,0,-1,1],[9E+09,9E+09,9E+09,9E+09,9E+09,9E+09]], v200, z50, toolSprayGun;
MoveL [[441.086,689.952,763.552],[0.5,-0.5,0.5,0.5],[1,0,-1,1],[9E+09,9E+09,9E+09,9E+09,9E+09,9E+09]], v200, z50, toolSprayGun;
MoveL [[441.543,689.124,762.37],[0.5,-0.5,0.5,0.5],[1,0,-1,1],[9E+09,9E+09,9E+09,9E+09,9E+09,9E+09]], v200, z50, toolSprayGun;
MoveL [[441.959,688.682,760.199],[0.5,-0.5,0.5,0.5],[1,0,-1,1],[9E+09,9E+09,9E+09,9E+09,9E+09,9E+09]], v200, z50, toolSprayGun;
MoveL [[442.348,688.08,759.378],[0.5,-0.5,0.5,0.5],[1,0,-1,1],[9E+09,9E+09,9E+09,9E+09,9E+09,9E+09]], v200, z50, toolSprayGun;
MoveL [[442.332,688.141,757.768],[0.5,-0.5,0.5,0.5],[1,0,-1,1],[9E+09,9E+09,9E+09,9E+09,9E+09,9E+09]], v200, z50, toolSprayGun;
MoveL [[442.681,687.792,754.275],[0.5,-0.5,0.5,0.5],[1,0,-1,1],[9E+09,9E+09,9E+09,9E+09,9E+09,9E+09]], v200, z50, toolSprayGun;
MoveL [[442.966,686.43,747.564],[0.5,-0.5,0.5,0.5],[1,0,-1,1],[9E+09,9E+09,9E+09,9E+09,9E+09,9E+09]], v200, z50, toolSprayGun;
MoveL [[443.4,685.204,745.165],[0.5,-0.5,0.5,0.5],[1,0,-1,1],[9E+09,9E+09,9E+09,9E+09,9E+09,9E+09]], v200, z50, toolSprayGun;
MoveL [[443.701,684.152,741.8],[0.5,-0.5,0.5,0.5],[1,0,-1,1],[9E+09,9E+09,9E+09,9E+09,9E+09,9E+09]], v200, z50, toolSprayGun;
MoveL [[443.781,683.65,738.828],[0.5,-0.5,0.5,0.5],[1,0,-1,1],[9E+09,9E+09,9E+09,9E+09,9E+09,9E+09]], v200, z50, toolSprayGun;
MoveL [[444.704,682.918,733.969],[0.5,-0.5,0.5,0.5],[1,0,-1,1],[9E+09,9E+09,9E+09,9E+09,9E+09,9E+09]], v200, z50, toolSprayGun;
MoveL [[444.623,682.784,731.288],[0.5,-0.5,0.5,0.5],[1,0,-1,1],[9E+09,9E+09,9E+09,9E+09,9E+09,9E+09]], v200, z50, toolSprayGun;
MoveL [[444.908,682.182,726.814],[0.5,-0.5,0.5,0.5],[1,0,-1,1],[9E+09,9E+09,9E+09,9E+09,9E+09,9E+09]], v200, z50, toolSprayGun;
MoveL [[444.892,681.795,723.847],[0.5,-0.5,0.5,0.5],[1,0,-1,1],[9E+09,9E+09,9E+09,9E+09,9E+09,9E+09]], v200, z50, toolSprayGun;
MoveL [[444.739,681.528,721.576],[0.5,-0.5,0.5,0.5],[1,0,-1,1],[9E+09,9E+09,9E+09,9E+09,9E+09,9E+09]], v200, z50, toolSprayGun;
MoveL [[444.421,680.724,716.959],[0.5,-0.5,0.5,0.5],[1,0,-1,1],[9E+09,9E+09,9E+09,9E+09,9E+09,9E+09]], v200, z50, toolSprayGun;
MoveL [[444.17,679.961,711.938],[0.5,-0.5,0.5,0.5],[1,0,-1,1],[9E+09,9E+09,9E+09,9E+09,9E+09,9E+09]], v200, z50, toolSprayGun;
MoveL [[443.546,680.143,709.096],[0.5,-0.5,0.5,0.5],[1,0,-1,1],[9E+09,9E+09,9E+09,9E+09,9E+09,9E+09]], v200, z50, toolSprayGun;
MoveL [[443.741,680.106,704.336],[0.5,-0.5,0.5,0.5],[1,0,-1,1],[9E+09,9E+09,9E+09,9E+09,9E+09,9E+09]], v200, z50, toolSprayGun;
MoveL [[443.926,680.266,701.174],[0.5,-0.5,0.5,0.5],[1,0,-1,1],[9E+09,9E+09,9E+09,9E+09,9E+09,9E+09]], v200, z50, toolSprayGun;
MoveL [[444.213,679.79,699.569],[0.5,-0.5,0.5,0.5],[1,0,-1,1],[9E+09,9E+09,9E+09,9E+09,9E+09,9E+09]], v200, z50, toolSprayGun;
MoveL [[444.262,679.453,694.02],[0.5,-0.5,0.5,0.5],[1,0,-1,1],[9E+09,9E+09,9E+09,9E+09,9E+09,9E+09]], v200, z50, toolSprayGun;
MoveL [[443.829,678.629,688.785],[0.5,-0.5,0.5,0.5],[1,0,-1,1],[9E+09,9E+09,9E+09,9E+09,9E+09,9E+09]], v200, z50, toolSprayGun;
MoveL [[443.836,678.216,685.593],[0.5,-0.5,0.5,0.5],[1,0,-1,1],[9E+09,9E+09,9E+09,9E+09,9E+09,9E+09]], v200, z50, toolSprayGun;
MoveL [[443.671,678.497,679.861],[0.5,-0.5,0.5,0.5],[1,0,-1,1],[9E+09,9E+09,9E+09,9E+09,9E+09,9E+09]], v200, z50, toolSprayGun;
MoveL [[443.604,678.483,676.381],[0.5,-0.5,0.5,0.5],[1,0,-1,1],[9E+09,9E+09,9E+09,9E+09,9E+09,9E+09]], v200, z50, toolSprayGun;
MoveL [[443.04,678.472,672.11],[0.5,-0.5,0.5,0.5],[1,0,-1,1],[9E+09,9E+09,9E+09,9E+09,9E+09,9E+09]], v200, z50, toolSprayGun;
MoveL [[443.074,678.721,667.954],[0.5,-0.5,0.5,0.5],[1,0,-1,1],[9E+09,9E+09,9E+09,9E+09,9E+09,9E+09]], v200, z50, toolSprayGun;
MoveL [[443.1,678.977,662.575],[0.5,-0.5,0.5,0.5],[1,0,-1,1],[9E+09,9E+09,9E+09,9E+09,9E+09,9E+09]], v200, z50, toolSprayGun;
MoveL [[443.217,679.185,659.364],[0.5,-0.5,0.5,0.5],[1,0,-1,1],[9E+09,9E+09,9E+09,9E+09,9E+09,9E+09]], v200, z50, toolSprayGun;
MoveL [[443.058,679.358,655.304],[0.5,-0.5,0.5,0.5],[1,0,-1,1],[9E+09,9E+09,9E+09,9E+09,9E+09,9E+09]], v200, z50, toolSprayGun;
MoveL [[443.365,679.352,651.216],[0.5,-0.5,0.5,0.5],[1,0,-1,1],[9E+09,9E+09,9E+09,9E+09,9E+09,9E+09]], v200, z50, toolSprayGun;
MoveL [[443.319,679.369,646.2],[0.5,-0.5,0.5,0.5],[1,0,-1,1],[9E+09,9E+09,9E+09,9E+09,9E+09,9E+09]], v200, z50, toolSprayGun;
MoveL [[443.46,678.682,641.214],[0.5,-0.5,0.5,0.5],[1,0,-1,1],[9E+09,9E+09,9E+09,9E+09,9E+09,9E+09]], v200, z50, toolSprayGun;
MoveL [[443.655,678.742,639.47],[0.5,-0.5,0.5,0.5],[1,0,-1,1],[9E+09,9E+09,9E+09,9E+09,9E+09,9E+09]], v200, z50, toolSprayGun;
MoveL [[444.414,679.221,632.772],[0.5,-0.5,0.5,0.5],[1,0,-1,1],[9E+09,9E+09,9E+09,9E+09,9E+09,9E+09]], v200, z50, toolSprayGun;
MoveL [[444.899,679.662,629.954],[0.5,-0.5,0.5,0.5],[1,0,-1,1],[9E+09,9E+09,9E+09,9E+09,9E+09,9E+09]], v200, z50, toolSprayGun;
MoveL [[445.675,679.777,626.415],[0.5,-0.5,0.5,0.5],[1,0,-1,1],[9E+09,9E+09,9E+09,9E+09,9E+09,9E+09]], v200, z50, toolSprayGun;
MoveL [[445.986,679.242,622.83],[0.5,-0.5,0.5,0.5],[1,0,-1,1],[9E+09,9E+09,9E+09,9E+09,9E+09,9E+09]], v200, z50, toolSprayGun;
MoveL [[446.618,679.49,618.712],[0.5,-0.5,0.5,0.5],[1,0,-1,1],[9E+09,9E+09,9E+09,9E+09,9E+09,9E+09]], v200, z50, toolSprayGun;
MoveL [[447.038,679.706,615.478],[0.5,-0.5,0.5,0.5],[1,0,-1,1],[9E+09,9E+09,9E+09,9E+09,9E+09,9E+09]], v200, z50, toolSprayGun;
MoveL [[446.682,680.54,612.148],[0.5,-0.5,0.5,0.5],[1,0,-1,1],[9E+09,9E+09,9E+09,9E+09,9E+09,9E+09]], v200, z50, toolSprayGun;
MoveL [[446.981,681.258,609.644],[0.5,-0.5,0.5,0.5],[1,0,-1,1],[9E+09,9E+09,9E+09,9E+09,9E+09,9E+09]], v200, z50, toolSprayGun;
MoveL [[446.85,680.84,607.124],[0.5,-0.5,0.5,0.5],[1,0,-1,1],[9E+09,9E+09,9E+09,9E+09,9E+09,9E+09]], v200, z50, toolSprayGun;
MoveL [[447.021,681.114,604.601],[0.5,-0.5,0.5,0.5],[1,0,-1,1],[9E+09,9E+09,9E+09,9E+09,9E+09,9E+09]], v200, z50, toolSprayGun;
MoveL [[447.566,681.165,602.985],[0.5,-0.5,0.5,0.5],[1,0,-1,1],[9E+09,9E+09,9E+09,9E+09,9E+09,9E+09]], v200, z50, toolSprayGun;
MoveL [[448.176,681.073,601.433],[0.5,-0.5,0.5,0.5],[1,0,-1,1],[9E+09,9E+09,9E+09,9E+09,9E+09,9E+09]], v200, z50, toolSprayGun;
MoveL [[448.943,680.943,599.947],[0.5,-0.5,0.5,0.5],[1,0,-1,1],[9E+09,9E+09,9E+09,9E+09,9E+09,9E+09]], v200, z50, toolSprayGun;
MoveL [[449.053,680.918,598.679],[0.5,-0.5,0.5,0.5],[1,0,-1,1],[9E+09,9E+09,9E+09,9E+09,9E+09,9E+09]], v200, z50, toolSprayGun;
MoveL [[449.614,680.615,598.819],[0.5,-0.5,0.5,0.5],[1,0,-1,1],[9E+09,9E+09,9E+09,9E+09,9E+09,9E+09]], v200, z50, toolSprayGun;
MoveL [[449.393,680.785,597.911],[0.5,-0.5,0.5,0.5],[1,0,-1,1],[9E+09,9E+09,9E+09,9E+09,9E+09,9E+09]], v200, z50, toolSprayGun;
MoveL [[449.445,681.521,598.344],[0.5,-0.5,0.5,0.5],[1,0,-1,1],[9E+09,9E+09,9E+09,9E+09,9E+09,9E+09]], v200, z50, toolSprayGun;
MoveL [[449.543,681.473,597.715],[0.5,-0.5,0.5,0.5],[1,0,-1,1],[9E+09,9E+09,9E+09,9E+09,9E+09,9E+09]], v200, z50, toolSprayGun;
MoveL [[448.991,682.188,598.587],[0.5,-0.5,0.5,0.5],[1,0,-1,1],[9E+09,9E+09,9E+09,9E+09,9E+09,9E+09]], v200, z50, toolSprayGun;
MoveL [[448.989,682.562,598.571],[0.5,-0.5,0.5,0.5],[1,0,-1,1],[9E+09,9E+09,9E+09,9E+09,9E+09,9E+09]], v200, z50, toolSprayGun;
MoveL [[448.595,683.105,599.211],[0.5,-0.5,0.5,0.5],[1,0,-1,1],[9E+09,9E+09,9E+09,9E+09,9E+09,9E+09]], v200, z50, toolSprayGun;
MoveL [[448.221,684.157,599.114],[0.5,-0.5,0.5,0.5],[1,0,-1,1],[9E+09,9E+09,9E+09,9E+09,9E+09,9E+09]], v200, z50, toolSprayGun;
MoveL [[447.378,686.503,598.866],[0.5,-0.5,0.5,0.5],[1,0,-1,1],[9E+09,9E+09,9E+09,9E+09,9E+09,9E+09]], v200, z50, toolSprayGun;
MoveL [[446.802,687.257,598.627],[0.5,-0.5,0.5,0.5],[1,0,-1,1],[9E+09,9E+09,9E+09,9E+09,9E+09,9E+09]], v200, z50, toolSprayGun;
MoveL [[446.06,689.261,598.276],[0.5,-0.5,0.5,0.5],[1,0,-1,1],[9E+09,9E+09,9E+09,9E+09,9E+09,9E+09]], v200, z50, toolSprayGun;
MoveL [[446.28,692.222,599.063],[0.5,-0.5,0.5,0.5],[1,0,-1,1],[9E+09,9E+09,9E+09,9E+09,9E+09,9E+09]], v200, z50, toolSprayGun;
MoveL [[444.425,695.237,598.402],[0.5,-0.5,0.5,0.5],[1,0,-1,1],[9E+09,9E+09,9E+09,9E+09,9E+09,9E+09]], v200, z50, toolSprayGun;
MoveL [[444.21,697.636,598.05],[0.5,-0.5,0.5,0.5],[1,0,-1,1],[9E+09,9E+09,9E+09,9E+09,9E+09,9E+09]], v200, z50, toolSprayGun;
MoveL [[443.87,700.09,597.611],[0.5,-0.5,0.5,0.5],[1,0,-1,1],[9E+09,9E+09,9E+09,9E+09,9E+09,9E+09]], v200, z50, toolSprayGun;
MoveL [[443.276,704.382,598.585],[0.5,-0.5,0.5,0.5],[1,0,-1,1],[9E+09,9E+09,9E+09,9E+09,9E+09,9E+09]], v200, z50, toolSprayGun;
MoveL [[443.237,708.981,599.544],[0.5,-0.5,0.5,0.5],[1,0,-1,1],[9E+09,9E+09,9E+09,9E+09,9E+09,9E+09]], v200, z50, toolSprayGun;
MoveL [[444.14,711.066,600.167],[0.5,-0.5,0.5,0.5],[1,0,-1,1],[9E+09,9E+09,9E+09,9E+09,9E+09,9E+09]], v200, z50, toolSprayGun;
MoveL [[444.362,714.753,600.294],[0.5,-0.5,0.5,0.5],[1,0,-1,1],[9E+09,9E+09,9E+09,9E+09,9E+09,9E+09]], v200, z50, toolSprayGun;
MoveL [[444.681,718.153,600.485],[0.5,-0.5,0.5,0.5],[1,0,-1,1],[9E+09,9E+09,9E+09,9E+09,9E+09,9E+09]], v200, z50, toolSprayGun;
MoveL [[446.857,723.075,600.917],[0.5,-0.5,0.5,0.5],[1,0,-1,1],[9E+09,9E+09,9E+09,9E+09,9E+09,9E+09]], v200, z50, toolSprayGun;
MoveL [[447.914,727.466,600.694],[0.5,-0.5,0.5,0.5],[1,0,-1,1],[9E+09,9E+09,9E+09,9E+09,9E+09,9E+09]], v200, z50, toolSprayGun;
MoveL [[449.011,733.693,601.739],[0.5,-0.5,0.5,0.5],[1,0,-1,1],[9E+09,9E+09,9E+09,9E+09,9E+09,9E+09]], v200, z50, toolSprayGun;
MoveL [[449.637,737.35,602.447],[0.5,-0.5,0.5,0.5],[1,0,-1,1],[9E+09,9E+09,9E+09,9E+09,9E+09,9E+09]], v200, z50, toolSprayGun;
MoveL [[451.05,742.09,602.569],[0.5,-0.5,0.5,0.5],[1,0,-1,1],[9E+09,9E+09,9E+09,9E+09,9E+09,9E+09]], v200, z50, toolSprayGun;
MoveL [[451.988,747.274,603.162],[0.5,-0.5,0.5,0.5],[1,0,-1,1],[9E+09,9E+09,9E+09,9E+09,9E+09,9E+09]], v200, z50, toolSprayGun;
MoveL [[452.521,752.771,604.113],[0.5,-0.5,0.5,0.5],[1,0,-1,1],[9E+09,9E+09,9E+09,9E+09,9E+09,9E+09]], v200, z50, toolSprayGun;
MoveL [[453.341,757.441,605.109],[0.5,-0.5,0.5,0.5],[1,0,-1,1],[9E+09,9E+09,9E+09,9E+09,9E+09,9E+09]], v200, z50, toolSprayGun;
MoveL [[454.268,763.769,606.157],[0.5,-0.5,0.5,0.5],[1,0,-1,1],[9E+09,9E+09,9E+09,9E+09,9E+09,9E+09]], v200, z50, toolSprayGun;
MoveL [[454.426,768.029,606.719],[0.5,-0.5,0.5,0.5],[1,0,-1,1],[9E+09,9E+09,9E+09,9E+09,9E+09,9E+09]], v200, z50, toolSprayGun;
MoveL [[454.651,770.395,607.136],[0.5,-0.5,0.5,0.5],[1,0,-1,1],[9E+09,9E+09,9E+09,9E+09,9E+09,9E+09]], v200, z50, toolSprayGun;
MoveL [[455.139,776.615,607.478],[0.5,-0.5,0.5,0.5],[1,0,-1,1],[9E+09,9E+09,9E+09,9E+09,9E+09,9E+09]], v200, z50, toolSprayGun;
MoveL [[455.896,779.894,607.619],[0.5,-0.5,0.5,0.5],[1,0,-1,1],[9E+09,9E+09,9E+09,9E+09,9E+09,9E+09]], v200, z50, toolSprayGun;
MoveL [[456.979,786.108,606.801],[0.5,-0.5,0.5,0.5],[1,0,-1,1],[9E+09,9E+09,9E+09,9E+09,9E+09,9E+09]], v200, z50, toolSprayGun;
MoveL [[457.541,791.234,606.185],[0.5,-0.5,0.5,0.5],[1,0,-1,1],[9E+09,9E+09,9E+09,9E+09,9E+09,9E+09]], v200, z50, toolSprayGun;
MoveL [[457.672,795.388,605.825],[0.5,-0.5,0.5,0.5],[1,0,-1,1],[9E+09,9E+09,9E+09,9E+09,9E+09,9E+09]], v200, z50, toolSprayGun;
MoveL [[457.592,799.501,604.786],[0.5,-0.5,0.5,0.5],[1,0,-1,1],[9E+09,9E+09,9E+09,9E+09,9E+09,9E+09]], v200, z50, toolSprayGun;
MoveL [[457.188,806.134,604.627],[0.5,-0.5,0.5,0.5],[1,0,-1,1],[9E+09,9E+09,9E+09,9E+09,9E+09,9E+09]], v200, z50, toolSprayGun;
MoveL [[457.334,810.64,604.062],[0.5,-0.5,0.5,0.5],[1,0,-1,1],[9E+09,9E+09,9E+09,9E+09,9E+09,9E+09]], v200, z50, toolSprayGun;
MoveL [[457.275,815.877,603.525],[0.5,-0.5,0.5,0.5],[1,0,-1,1],[9E+09,9E+09,9E+09,9E+09,9E+09,9E+09]], v200, z50, toolSprayGun;
MoveL [[458.019,821.643,603.713],[0.5,-0.5,0.5,0.5],[1,0,-1,1],[9E+09,9E+09,9E+09,9E+09,9E+09,9E+09]], v200, z50, toolSprayGun;
MoveL [[459.202,829.287,604.622],[0.5,-0.5,0.5,0.5],[1,0,-1,1],[9E+09,9E+09,9E+09,9E+09,9E+09,9E+09]], v200, z50, toolSprayGun;
MoveL [[458.936,832.944,605.048],[0.5,-0.5,0.5,0.5],[1,0,-1,1],[9E+09,9E+09,9E+09,9E+09,9E+09,9E+09]], v200, z50, toolSprayGun;
MoveL [[458.57,839.327,604],[0.5,-0.5,0.5,0.5],[1,0,-1,1],[9E+09,9E+09,9E+09,9E+09,9E+09,9E+09]], v200, z50, toolSprayGun;
MoveL [[458.01,844.254,603.869],[0.5,-0.5,0.5,0.5],[1,0,-1,1],[9E+09,9E+09,9E+09,9E+09,9E+09,9E+09]], v200, z50, toolSprayGun;
MoveL [[457.603,848.677,603.081],[0.5,-0.5,0.5,0.5],[1,0,-1,1],[9E+09,9E+09,9E+09,9E+09,9E+09,9E+09]], v200, z50, toolSprayGun;
MoveL [[456.089,853.841,603.05],[0.5,-0.5,0.5,0.5],[1,0,-1,1],[9E+09,9E+09,9E+09,9E+09,9E+09,9E+09]], v200, z50, toolSprayGun;
MoveL [[455.1,859.478,602.583],[0.5,-0.5,0.5,0.5],[1,0,-1,1],[9E+09,9E+09,9E+09,9E+09,9E+09,9E+09]], v200, z50, toolSprayGun;
MoveL [[454.363,863.025,602.386],[0.5,-0.5,0.5,0.5],[1,0,-1,1],[9E+09,9E+09,9E+09,9E+09,9E+09,9E+09]], v200, z50, toolSprayGun;
MoveL [[453.188,868.189,602.447],[0.5,-0.5,0.5,0.5],[1,0,-1,1],[9E+09,9E+09,9E+09,9E+09,9E+09,9E+09]], v200, z50, toolSprayGun;
MoveL [[453.439,872.438,603.058],[0.5,-0.5,0.5,0.5],[1,0,-1,1],[9E+09,9E+09,9E+09,9E+09,9E+09,9E+09]], v200, z50, toolSprayGun;
MoveL [[453.112,877.17,602.952],[0.5,-0.5,0.5,0.5],[1,0,-1,1],[9E+09,9E+09,9E+09,9E+09,9E+09,9E+09]], v200, z50, toolSprayGun;
MoveL [[453.424,881.91,603.58],[0.5,-0.5,0.5,0.5],[1,0,-1,1],[9E+09,9E+09,9E+09,9E+09,9E+09,9E+09]], v200, z50, toolSprayGun;
MoveL [[452.868,888.108,603.669],[0.5,-0.5,0.5,0.5],[1,0,-1,1],[9E+09,9E+09,9E+09,9E+09,9E+09,9E+09]], v200, z50, toolSprayGun;
MoveL [[453.785,891.786,604.258],[0.5,-0.5,0.5,0.5],[1,0,-1,1],[9E+09,9E+09,9E+09,9E+09,9E+09,9E+09]], v200, z50, toolSprayGun;
MoveL [[454.004,897.792,604.568],[0.5,-0.5,0.5,0.5],[1,0,-1,1],[9E+09,9E+09,9E+09,9E+09,9E+09,9E+09]], v200, z50, toolSprayGun;
MoveL [[455.054,903.135,605.868],[0.5,-0.5,0.5,0.5],[1,0,-1,1],[9E+09,9E+09,9E+09,9E+09,9E+09,9E+09]], v200, z50, toolSprayGun;
MoveL [[457.443,923.823,606.627],[0.5,-0.5,0.5,0.5],[1,0,-1,1],[9E+09,9E+09,9E+09,9E+09,9E+09,9E+09]], v200, z50, toolSprayGun;
MoveL [[457.066,928.302,607.185],[0.5,-0.5,0.5,0.5],[1,0,-1,1],[9E+09,9E+09,9E+09,9E+09,9E+09,9E+09]], v200, z50, toolSprayGun;
MoveL [[456.202,930.338,606.848],[0.5,-0.5,0.5,0.5],[1,0,-1,1],[9E+09,9E+09,9E+09,9E+09,9E+09,9E+09]], v200, z50, toolSprayGun;
MoveL [[454.291,928.469,607.149],[0.5,-0.5,0.5,0.5],[1,0,-1,1],[9E+09,9E+09,9E+09,9E+09,9E+09,9E+09]], v200, z50, toolSprayGun;
MoveL [[451.2,926.279,607.42],[0.5,-0.5,0.5,0.5],[1,0,-1,1],[9E+09,9E+09,9E+09,9E+09,9E+09,9E+09]], v200, z50, toolSprayGun;
MoveL [[447.724,924.77,607.335],[0.5,-0.5,0.5,0.5],[1,0,-1,1],[9E+09,9E+09,9E+09,9E+09,9E+09,9E+09]], v200, z50, toolSprayGun;
MoveL [[443.479,922.902,607.294],[0.5,-0.5,0.5,0.5],[1,0,-1,1],[9E+09,9E+09,9E+09,9E+09,9E+09,9E+09]], v200, z50, toolSprayGun;
MoveL [[441.149,921.761,607.491],[0.5,-0.5,0.5,0.5],[1,0,-1,1],[9E+09,9E+09,9E+09,9E+09,9E+09,9E+09]], v200, z50, toolSprayGun;
MoveL [[427.206,918.18,608.566],[0.5,-0.5,0.5,0.5],[1,0,-1,1],[9E+09,9E+09,9E+09,9E+09,9E+09,9E+09]], v200, z50, toolSprayGun;
MoveL [[423.846,918.618,608.492],[0.5,-0.5,0.5,0.5],[1,0,-1,1],[9E+09,9E+09,9E+09,9E+09,9E+09,9E+09]], v200, z50, toolSprayGun;
MoveL [[417.348,917.703,608.307],[0.5,-0.5,0.5,0.5],[1,0,-1,1],[9E+09,9E+09,9E+09,9E+09,9E+09,9E+09]], v200, z50, toolSprayGun;
MoveL [[414.074,917.378,608.319],[0.5,-0.5,0.5,0.5],[1,0,-1,1],[9E+09,9E+09,9E+09,9E+09,9E+09,9E+09]], v200, z50, toolSprayGun;
MoveL [[399.064,916.57,609.096],[0.5,-0.5,0.5,0.5],[1,0,-1,1],[9E+09,9E+09,9E+09,9E+09,9E+09,9E+09]], v200, z50, toolSprayGun;
MoveL [[395.336,916.453,609.37],[0.5,-0.5,0.5,0.5],[1,0,-1,1],[9E+09,9E+09,9E+09,9E+09,9E+09,9E+09]], v200, z50, toolSprayGun;
MoveL [[386.063,916.794,609.966],[0.5,-0.5,0.5,0.5],[1,0,-1,1],[9E+09,9E+09,9E+09,9E+09,9E+09,9E+09]], v200, z50, toolSprayGun;
MoveL [[380.056,916.621,610.12],[0.5,-0.5,0.5,0.5],[1,0,-1,1],[9E+09,9E+09,9E+09,9E+09,9E+09,9E+09]], v200, z50, toolSprayGun;
MoveL [[368.544,916.847,609.972],[0.5,-0.5,0.5,0.5],[1,0,-1,1],[9E+09,9E+09,9E+09,9E+09,9E+09,9E+09]], v200, z50, toolSprayGun;
MoveL [[360.755,918.082,609.851],[0.5,-0.5,0.5,0.5],[1,0,-1,1],[9E+09,9E+09,9E+09,9E+09,9E+09,9E+09]], v200, z50, toolSprayGun;
MoveL [[349.727,918.626,609.364],[0.5,-0.5,0.5,0.5],[1,0,-1,1],[9E+09,9E+09,9E+09,9E+09,9E+09,9E+09]], v200, z50, toolSprayGun;
MoveL [[341.764,919.35,609.138],[0.5,-0.5,0.5,0.5],[1,0,-1,1],[9E+09,9E+09,9E+09,9E+09,9E+09,9E+09]], v200, z50, toolSprayGun;
MoveL [[334.923,919.613,610.368],[0.5,-0.5,0.5,0.5],[1,0,-1,1],[9E+09,9E+09,9E+09,9E+09,9E+09,9E+09]], v200, z50, toolSprayGun;
MoveL [[326.607,918.697,610.248],[0.5,-0.5,0.5,0.5],[1,0,-1,1],[9E+09,9E+09,9E+09,9E+09,9E+09,9E+09]], v200, z50, toolSprayGun;
MoveL [[305.712,920.446,609.471],[0.5,-0.5,0.5,0.5],[1,0,-1,1],[9E+09,9E+09,9E+09,9E+09,9E+09,9E+09]], v200, z50, toolSprayGun;
MoveL [[301.228,920.342,609.428],[0.5,-0.5,0.5,0.5],[1,0,-1,1],[9E+09,9E+09,9E+09,9E+09,9E+09,9E+09]], v200, z50, toolSprayGun;
MoveL [[297.701,919.697,609.439],[0.5,-0.5,0.5,0.5],[1,0,-1,1],[9E+09,9E+09,9E+09,9E+09,9E+09,9E+09]], v200, z50, toolSprayGun;
MoveL [[289.63,918.989,609.146],[0.5,-0.5,0.5,0.5],[1,0,-1,1],[9E+09,9E+09,9E+09,9E+09,9E+09,9E+09]], v200, z50, toolSprayGun;
MoveL [[283.526,918.973,609.495],[0.5,-0.5,0.5,0.5],[1,0,-1,1],[9E+09,9E+09,9E+09,9E+09,9E+09,9E+09]], v200, z50, toolSprayGun;
MoveL [[279.804,919.677,609.409],[0.5,-0.5,0.5,0.5],[1,0,-1,1],[9E+09,9E+09,9E+09,9E+09,9E+09,9E+09]], v200, z50, toolSprayGun;
MoveL [[273.025,919.961,609.968],[0.5,-0.5,0.5,0.5],[1,0,-1,1],[9E+09,9E+09,9E+09,9E+09,9E+09,9E+09]], v200, z50, toolSprayGun;
MoveL [[265.95,920.086,611.266],[0.5,-0.5,0.5,0.5],[1,0,-1,1],[9E+09,9E+09,9E+09,9E+09,9E+09,9E+09]], v200, z50, toolSprayGun;
MoveL [[261.576,921.441,611.667],[0.5,-0.5,0.5,0.5],[1,0,-1,1],[9E+09,9E+09,9E+09,9E+09,9E+09,9E+09]], v200, z50, toolSprayGun;
MoveL [[253.871,921.086,611.167],[0.5,-0.5,0.5,0.5],[1,0,-1,1],[9E+09,9E+09,9E+09,9E+09,9E+09,9E+09]], v200, z50, toolSprayGun;
MoveL [[248.413,921.675,611.194],[0.5,-0.5,0.5,0.5],[1,0,-1,1],[9E+09,9E+09,9E+09,9E+09,9E+09,9E+09]], v200, z50, toolSprayGun;
MoveL [[242.697,921.642,610.616],[0.5,-0.5,0.5,0.5],[1,0,-1,1],[9E+09,9E+09,9E+09,9E+09,9E+09,9E+09]], v200, z50, toolSprayGun;
MoveL [[237.852,921.815,610.419],[0.5,-0.5,0.5,0.5],[1,0,-1,1],[9E+09,9E+09,9E+09,9E+09,9E+09,9E+09]], v200, z50, toolSprayGun;
MoveL [[230.886,922.063,609.771],[0.5,-0.5,0.5,0.5],[1,0,-1,1],[9E+09,9E+09,9E+09,9E+09,9E+09,9E+09]], v200, z50, toolSprayGun;
MoveL [[225.936,921.428,609.028],[0.5,-0.5,0.5,0.5],[1,0,-1,1],[9E+09,9E+09,9E+09,9E+09,9E+09,9E+09]], v200, z50, toolSprayGun;
MoveL [[220.903,920.806,607.431],[0.5,-0.5,0.5,0.5],[1,0,-1,1],[9E+09,9E+09,9E+09,9E+09,9E+09,9E+09]], v200, z50, toolSprayGun;
MoveL [[217.299,920.447,606.937],[0.5,-0.5,0.5,0.5],[1,0,-1,1],[9E+09,9E+09,9E+09,9E+09,9E+09,9E+09]], v200, z50, toolSprayGun;
MoveL [[210.554,919.427,606.276],[0.5,-0.5,0.5,0.5],[1,0,-1,1],[9E+09,9E+09,9E+09,9E+09,9E+09,9E+09]], v200, z50, toolSprayGun;
MoveL [[207.143,918.919,605.661],[0.5,-0.5,0.5,0.5],[1,0,-1,1],[9E+09,9E+09,9E+09,9E+09,9E+09,9E+09]], v200, z50, toolSprayGun;
MoveL [[202.856,918.319,605.553],[0.5,-0.5,0.5,0.5],[1,0,-1,1],[9E+09,9E+09,9E+09,9E+09,9E+09,9E+09]], v200, z50, toolSprayGun;
MoveL [[199.838,918.044,605.263],[0.5,-0.5,0.5,0.5],[1,0,-1,1],[9E+09,9E+09,9E+09,9E+09,9E+09,9E+09]], v200, z50, toolSprayGun;
MoveL [[198.332,917.699,604.778],[0.5,-0.5,0.5,0.5],[1,0,-1,1],[9E+09,9E+09,9E+09,9E+09,9E+09,9E+09]], v200, z50, toolSprayGun;
MoveL [[196.296,916.636,604.819],[0.5,-0.5,0.5,0.5],[1,0,-1,1],[9E+09,9E+09,9E+09,9E+09,9E+09,9E+09]], v200, z50, toolSprayGun;
MoveL [[195.276,915.934,605.171],[0.5,-0.5,0.5,0.5],[1,0,-1,1],[9E+09,9E+09,9E+09,9E+09,9E+09,9E+09]], v200, z50, toolSprayGun;
MoveL [[193.848,914.127,605.236],[0.5,-0.5,0.5,0.5],[1,0,-1,1],[9E+09,9E+09,9E+09,9E+09,9E+09,9E+09]], v200, z50, toolSprayGun;
MoveL [[194.172,911.431,605.655],[0.5,-0.5,0.5,0.5],[1,0,-1,1],[9E+09,9E+09,9E+09,9E+09,9E+09,9E+09]], v200, z50, toolSprayGun;
MoveL [[193.918,910.238,605.826],[0.5,-0.5,0.5,0.5],[1,0,-1,1],[9E+09,9E+09,9E+09,9E+09,9E+09,9E+09]], v200, z50, toolSprayGun;
MoveL [[194.413,908.246,606.447],[0.5,-0.5,0.5,0.5],[1,0,-1,1],[9E+09,9E+09,9E+09,9E+09,9E+09,9E+09]], v200, z50, toolSprayGun;
MoveL [[194.003,906.547,607.086],[0.5,-0.5,0.5,0.5],[1,0,-1,1],[9E+09,9E+09,9E+09,9E+09,9E+09,9E+09]], v200, z50, toolSprayGun;
MoveL [[195.325,903.976,607.814],[0.5,-0.5,0.5,0.5],[1,0,-1,1],[9E+09,9E+09,9E+09,9E+09,9E+09,9E+09]], v200, z50, toolSprayGun;
MoveL [[195.486,902.407,607.963],[0.5,-0.5,0.5,0.5],[1,0,-1,1],[9E+09,9E+09,9E+09,9E+09,9E+09,9E+09]], v200, z50, toolSprayGun;
MoveL [[196.83,898.96,609.383],[0.5,-0.5,0.5,0.5],[1,0,-1,1],[9E+09,9E+09,9E+09,9E+09,9E+09,9E+09]], v200, z50, toolSprayGun;
MoveL [[198.305,894.316,611.033],[0.5,-0.5,0.5,0.5],[1,0,-1,1],[9E+09,9E+09,9E+09,9E+09,9E+09,9E+09]], v200, z50, toolSprayGun;
MoveL [[199.264,890.648,612.459],[0.5,-0.5,0.5,0.5],[1,0,-1,1],[9E+09,9E+09,9E+09,9E+09,9E+09,9E+09]], v200, z50, toolSprayGun;
MoveL [[199.813,886.602,613.662],[0.5,-0.5,0.5,0.5],[1,0,-1,1],[9E+09,9E+09,9E+09,9E+09,9E+09,9E+09]], v200, z50, toolSprayGun;
MoveL [[200.433,885.286,613.964],[0.5,-0.5,0.5,0.5],[1,0,-1,1],[9E+09,9E+09,9E+09,9E+09,9E+09,9E+09]], v200, z50, toolSprayGun;
MoveL [[200.986,883.955,614.535],[0.5,-0.5,0.5,0.5],[1,0,-1,1],[9E+09,9E+09,9E+09,9E+09,9E+09,9E+09]], v200, z50, toolSprayGun;
MoveL [[201.793,878.938,615.858],[0.5,-0.5,0.5,0.5],[1,0,-1,1],[9E+09,9E+09,9E+09,9E+09,9E+09,9E+09]], v200, z50, toolSprayGun;
MoveL [[202.836,874.735,616.057],[0.5,-0.5,0.5,0.5],[1,0,-1,1],[9E+09,9E+09,9E+09,9E+09,9E+09,9E+09]], v200, z50, toolSprayGun;
MoveL [[204.344,870.761,615.627],[0.5,-0.5,0.5,0.5],[1,0,-1,1],[9E+09,9E+09,9E+09,9E+09,9E+09,9E+09]], v200, z50, toolSprayGun;
MoveL [[205.215,867.169,616.001],[0.5,-0.5,0.5,0.5],[1,0,-1,1],[9E+09,9E+09,9E+09,9E+09,9E+09,9E+09]], v200, z50, toolSprayGun;
MoveL [[206.48,862.994,617.341],[0.5,-0.5,0.5,0.5],[1,0,-1,1],[9E+09,9E+09,9E+09,9E+09,9E+09,9E+09]], v200, z50, toolSprayGun;
MoveL [[207.807,858.805,618.08],[0.5,-0.5,0.5,0.5],[1,0,-1,1],[9E+09,9E+09,9E+09,9E+09,9E+09,9E+09]], v200, z50, toolSprayGun;
MoveL [[209.764,852.628,618.991],[0.5,-0.5,0.5,0.5],[1,0,-1,1],[9E+09,9E+09,9E+09,9E+09,9E+09,9E+09]], v200, z50, toolSprayGun;
MoveL [[210.843,846.663,619.719],[0.5,-0.5,0.5,0.5],[1,0,-1,1],[9E+09,9E+09,9E+09,9E+09,9E+09,9E+09]], v200, z50, toolSprayGun;
MoveL [[212.175,843.325,619.558],[0.5,-0.5,0.5,0.5],[1,0,-1,1],[9E+09,9E+09,9E+09,9E+09,9E+09,9E+09]], v200, z50, toolSprayGun;
MoveL [[213.295,836.723,619.477],[0.5,-0.5,0.5,0.5],[1,0,-1,1],[9E+09,9E+09,9E+09,9E+09,9E+09,9E+09]], v200, z50, toolSprayGun;
MoveL [[212.965,830.815,619.73],[0.5,-0.5,0.5,0.5],[1,0,-1,1],[9E+09,9E+09,9E+09,9E+09,9E+09,9E+09]], v200, z50, toolSprayGun;
MoveL [[213.202,824.691,619.676],[0.5,-0.5,0.5,0.5],[1,0,-1,1],[9E+09,9E+09,9E+09,9E+09,9E+09,9E+09]], v200, z50, toolSprayGun;
MoveL [[213.877,818.872,617.752],[0.5,-0.5,0.5,0.5],[1,0,-1,1],[9E+09,9E+09,9E+09,9E+09,9E+09,9E+09]], v200, z50, toolSprayGun;
MoveL [[214.871,813.006,619.862],[0.5,-0.5,0.5,0.5],[1,0,-1,1],[9E+09,9E+09,9E+09,9E+09,9E+09,9E+09]], v200, z50, toolSprayGun;
MoveL [[213.649,809.557,619.133],[0.5,-0.5,0.5,0.5],[1,0,-1,1],[9E+09,9E+09,9E+09,9E+09,9E+09,9E+09]], v200, z50, toolSprayGun;
MoveL [[214.083,805.932,619.768],[0.5,-0.5,0.5,0.5],[1,0,-1,1],[9E+09,9E+09,9E+09,9E+09,9E+09,9E+09]], v200, z50, toolSprayGun;
MoveL [[212.411,769.053,611.671],[0.5,-0.5,0.5,0.5],[1,0,-1,1],[9E+09,9E+09,9E+09,9E+09,9E+09,9E+09]], v200, z50, toolSprayGun;
MoveL [[210.788,763.812,610.736],[0.5,-0.5,0.5,0.5],[1,0,-1,1],[9E+09,9E+09,9E+09,9E+09,9E+09,9E+09]], v200, z50, toolSprayGun;
MoveL [[211.201,761.842,610.755],[0.5,-0.5,0.5,0.5],[1,0,-1,1],[9E+09,9E+09,9E+09,9E+09,9E+09,9E+09]], v200, z50, toolSprayGun;
MoveL [[211.814,757.616,611.058],[0.5,-0.5,0.5,0.5],[1,0,-1,1],[9E+09,9E+09,9E+09,9E+09,9E+09,9E+09]], v200, z50, toolSprayGun;
MoveL [[212.322,752.866,612.14],[0.5,-0.5,0.5,0.5],[1,0,-1,1],[9E+09,9E+09,9E+09,9E+09,9E+09,9E+09]], v200, z50, toolSprayGun;
MoveL [[212.414,748.402,612.081],[0.5,-0.5,0.5,0.5],[1,0,-1,1],[9E+09,9E+09,9E+09,9E+09,9E+09,9E+09]], v200, z50, toolSprayGun;
MoveL [[211.44,740.649,612.425],[0.5,-0.5,0.5,0.5],[1,0,-1,1],[9E+09,9E+09,9E+09,9E+09,9E+09,9E+09]], v200, z50, toolSprayGun;
MoveL [[211.729,736.679,612.579],[0.5,-0.5,0.5,0.5],[1,0,-1,1],[9E+09,9E+09,9E+09,9E+09,9E+09,9E+09]], v200, z50, toolSprayGun;
MoveL [[211.221,730.707,613.354],[0.5,-0.5,0.5,0.5],[1,0,-1,1],[9E+09,9E+09,9E+09,9E+09,9E+09,9E+09]], v200, z50, toolSprayGun;
MoveL [[210.868,727.898,613.816],[0.5,-0.5,0.5,0.5],[1,0,-1,1],[9E+09,9E+09,9E+09,9E+09,9E+09,9E+09]], v200, z50, toolSprayGun;
MoveL [[210.333,721.359,614.165],[0.5,-0.5,0.5,0.5],[1,0,-1,1],[9E+09,9E+09,9E+09,9E+09,9E+09,9E+09]], v200, z50, toolSprayGun;
MoveL [[210.25,718.424,614.228],[0.5,-0.5,0.5,0.5],[1,0,-1,1],[9E+09,9E+09,9E+09,9E+09,9E+09,9E+09]], v200, z50, toolSprayGun;
MoveL [[209.573,714.13,614.716],[0.5,-0.5,0.5,0.5],[1,0,-1,1],[9E+09,9E+09,9E+09,9E+09,9E+09,9E+09]], v200, z50, toolSprayGun;
MoveL [[208.879,711.332,615.143],[0.5,-0.5,0.5,0.5],[1,0,-1,1],[9E+09,9E+09,9E+09,9E+09,9E+09,9E+09]], v200, z50, toolSprayGun;
MoveL [[208.558,708.99,615.116],[0.5,-0.5,0.5,0.5],[1,0,-1,1],[9E+09,9E+09,9E+09,9E+09,9E+09,9E+09]], v200, z50, toolSprayGun;
MoveL [[208.575,706.36,615.354],[0.5,-0.5,0.5,0.5],[1,0,-1,1],[9E+09,9E+09,9E+09,9E+09,9E+09,9E+09]], v200, z50, toolSprayGun;
MoveL [[209.395,703.852,615.128],[0.5,-0.5,0.5,0.5],[1,0,-1,1],[9E+09,9E+09,9E+09,9E+09,9E+09,9E+09]], v200, z50, toolSprayGun;
MoveL [[209.275,700.888,615.019],[0.5,-0.5,0.5,0.5],[1,0,-1,1],[9E+09,9E+09,9E+09,9E+09,9E+09,9E+09]], v200, z50, toolSprayGun;
MoveL [[208.968,699.289,614.603],[0.5,-0.5,0.5,0.5],[1,0,-1,1],[9E+09,9E+09,9E+09,9E+09,9E+09,9E+09]], v200, z50, toolSprayGun;
MoveL [[208.612,696.595,614.304],[0.5,-0.5,0.5,0.5],[1,0,-1,1],[9E+09,9E+09,9E+09,9E+09,9E+09,9E+09]], v200, z50, toolSprayGun;
MoveL [[207.577,693.474,612.911],[0.5,-0.5,0.5,0.5],[1,0,-1,1],[9E+09,9E+09,9E+09,9E+09,9E+09,9E+09]], v200, z50, toolSprayGun;
MoveL [[207.462,690.812,612.038],[0.5,-0.5,0.5,0.5],[1,0,-1,1],[9E+09,9E+09,9E+09,9E+09,9E+09,9E+09]], v200, z50, toolSprayGun;
MoveL [[207.78,688.819,610.918],[0.5,-0.5,0.5,0.5],[1,0,-1,1],[9E+09,9E+09,9E+09,9E+09,9E+09,9E+09]], v200, z50, toolSprayGun;
MoveL [[207.198,684.726,609.444],[0.5,-0.5,0.5,0.5],[1,0,-1,1],[9E+09,9E+09,9E+09,9E+09,9E+09,9E+09]], v200, z50, toolSprayGun;
MoveL [[207.112,684.514,609.176],[0.5,-0.5,0.5,0.5],[1,0,-1,1],[9E+09,9E+09,9E+09,9E+09,9E+09,9E+09]], v200, z50, toolSprayGun;
MoveL [[207.057,682.523,608.466],[0.5,-0.5,0.5,0.5],[1,0,-1,1],[9E+09,9E+09,9E+09,9E+09,9E+09,9E+09]], v200, z50, toolSprayGun;
MoveL [[207.46,681.169,608.141],[0.5,-0.5,0.5,0.5],[1,0,-1,1],[9E+09,9E+09,9E+09,9E+09,9E+09,9E+09]], v200, z50, toolSprayGun;
MoveL [[207.569,679.658,608.28],[0.5,-0.5,0.5,0.5],[1,0,-1,1],[9E+09,9E+09,9E+09,9E+09,9E+09,9E+09]], v200, z50, toolSprayGun;
MoveL [[207.709,678.934,607.83],[0.5,-0.5,0.5,0.5],[1,0,-1,1],[9E+09,9E+09,9E+09,9E+09,9E+09,9E+09]], v200, z50, toolSprayGun;
MoveL [[208.205,678,607.624],[0.5,-0.5,0.5,0.5],[1,0,-1,1],[9E+09,9E+09,9E+09,9E+09,9E+09,9E+09]], v200, z50, toolSprayGun;
MoveL [[208.29,677.879,607.731],[0.5,-0.5,0.5,0.5],[1,0,-1,1],[9E+09,9E+09,9E+09,9E+09,9E+09,9E+09]], v200, z50, toolSprayGun;
MoveL [[209.177,676.694,607.814],[0.5,-0.5,0.5,0.5],[1,0,-1,1],[9E+09,9E+09,9E+09,9E+09,9E+09,9E+09]], v200, z50, toolSprayGun;
MoveL [[209.223,676.131,607.833],[0.5,-0.5,0.5,0.5],[1,0,-1,1],[9E+09,9E+09,9E+09,9E+09,9E+09,9E+09]], v200, z50, toolSprayGun;
MoveL [[209.396,675.972,607.946],[0.5,-0.5,0.5,0.5],[1,0,-1,1],[9E+09,9E+09,9E+09,9E+09,9E+09,9E+09]], v200, z50, toolSprayGun;
MoveL [[210.626,676.217,608.004],[0.5,-0.5,0.5,0.5],[1,0,-1,1],[9E+09,9E+09,9E+09,9E+09,9E+09,9E+09]], v200, z50, toolSprayGun;
MoveL [[210.929,676.102,608.705],[0.5,-0.5,0.5,0.5],[1,0,-1,1],[9E+09,9E+09,9E+09,9E+09,9E+09,9E+09]], v200, z50, toolSprayGun;
MoveL [[211.029,675.785,608.764],[0.5,-0.5,0.5,0.5],[1,0,-1,1],[9E+09,9E+09,9E+09,9E+09,9E+09,9E+09]], v200, z50, toolSprayGun;
MoveL [[211.062,675.766,609.934],[0.5,-0.5,0.5,0.5],[1,0,-1,1],[9E+09,9E+09,9E+09,9E+09,9E+09,9E+09]], v200, z50, toolSprayGun;
MoveL [[211.428,675.485,610.967],[0.5,-0.5,0.5,0.5],[1,0,-1,1],[9E+09,9E+09,9E+09,9E+09,9E+09,9E+09]], v200, z50, toolSprayGun;
MoveL [[211.81,675.237,611.873],[0.5,-0.5,0.5,0.5],[1,0,-1,1],[9E+09,9E+09,9E+09,9E+09,9E+09,9E+09]], v200, z50, toolSprayGun;
MoveL [[211.994,676.138,616.182],[0.5,-0.5,0.5,0.5],[1,0,-1,1],[9E+09,9E+09,9E+09,9E+09,9E+09,9E+09]], v200, z50, toolSprayGun;
MoveL [[212.025,676.163,618.469],[0.5,-0.5,0.5,0.5],[1,0,-1,1],[9E+09,9E+09,9E+09,9E+09,9E+09,9E+09]], v200, z50, toolSprayGun;
MoveL [[212.171,675.914,619.161],[0.5,-0.5,0.5,0.5],[1,0,-1,1],[9E+09,9E+09,9E+09,9E+09,9E+09,9E+09]], v200, z50, toolSprayGun;
MoveL [[211.858,677.302,624.921],[0.5,-0.5,0.5,0.5],[1,0,-1,1],[9E+09,9E+09,9E+09,9E+09,9E+09,9E+09]], v200, z50, toolSprayGun;
MoveL [[211.697,678.199,627.717],[0.5,-0.5,0.5,0.5],[1,0,-1,1],[9E+09,9E+09,9E+09,9E+09,9E+09,9E+09]], v200, z50, toolSprayGun;
MoveL [[212.38,678.731,634.025],[0.5,-0.5,0.5,0.5],[1,0,-1,1],[9E+09,9E+09,9E+09,9E+09,9E+09,9E+09]], v200, z50, toolSprayGun;
MoveL [[213.18,679.897,635.801],[0.5,-0.5,0.5,0.5],[1,0,-1,1],[9E+09,9E+09,9E+09,9E+09,9E+09,9E+09]], v200, z50, toolSprayGun;
MoveL [[213.381,682.06,643.794],[0.5,-0.5,0.5,0.5],[1,0,-1,1],[9E+09,9E+09,9E+09,9E+09,9E+09,9E+09]], v200, z50, toolSprayGun;
MoveL [[214.504,683.706,649.408],[0.5,-0.5,0.5,0.5],[1,0,-1,1],[9E+09,9E+09,9E+09,9E+09,9E+09,9E+09]], v200, z50, toolSprayGun;
MoveL [[215.374,685.484,657.636],[0.5,-0.5,0.5,0.5],[1,0,-1,1],[9E+09,9E+09,9E+09,9E+09,9E+09,9E+09]], v200, z50, toolSprayGun;
MoveL [[216.029,685.829,662.031],[0.5,-0.5,0.5,0.5],[1,0,-1,1],[9E+09,9E+09,9E+09,9E+09,9E+09,9E+09]], v200, z50, toolSprayGun;
MoveL [[217.071,687.91,669.75],[0.5,-0.5,0.5,0.5],[1,0,-1,1],[9E+09,9E+09,9E+09,9E+09,9E+09,9E+09]], v200, z50, toolSprayGun;
MoveL [[217.35,687.804,673.322],[0.5,-0.5,0.5,0.5],[1,0,-1,1],[9E+09,9E+09,9E+09,9E+09,9E+09,9E+09]], v200, z50, toolSprayGun;
MoveL [[218.024,689.831,680.006],[0.5,-0.5,0.5,0.5],[1,0,-1,1],[9E+09,9E+09,9E+09,9E+09,9E+09,9E+09]], v200, z50, toolSprayGun;
MoveL [[218.197,689.98,681.451],[0.5,-0.5,0.5,0.5],[1,0,-1,1],[9E+09,9E+09,9E+09,9E+09,9E+09,9E+09]], v200, z50, toolSprayGun;
MoveL [[219,692.358,688.834],[0.5,-0.5,0.5,0.5],[1,0,-1,1],[9E+09,9E+09,9E+09,9E+09,9E+09,9E+09]], v200, z50, toolSprayGun;
MoveL [[219.375,693.176,691.851],[0.5,-0.5,0.5,0.5],[1,0,-1,1],[9E+09,9E+09,9E+09,9E+09,9E+09,9E+09]], v200, z50, toolSprayGun;
MoveL [[220.738,694.414,699.32],[0.5,-0.5,0.5,0.5],[1,0,-1,1],[9E+09,9E+09,9E+09,9E+09,9E+09,9E+09]], v200, z50, toolSprayGun;
MoveL [[221.427,695.665,704.078],[0.5,-0.5,0.5,0.5],[1,0,-1,1],[9E+09,9E+09,9E+09,9E+09,9E+09,9E+09]], v200, z50, toolSprayGun;
MoveL [[222.071,697.067,711.219],[0.5,-0.5,0.5,0.5],[1,0,-1,1],[9E+09,9E+09,9E+09,9E+09,9E+09,9E+09]], v200, z50, toolSprayGun;
MoveL [[222.543,697.967,713.847],[0.5,-0.5,0.5,0.5],[1,0,-1,1],[9E+09,9E+09,9E+09,9E+09,9E+09,9E+09]], v200, z50, toolSprayGun;
MoveL [[223.266,699.287,718.275],[0.5,-0.5,0.5,0.5],[1,0,-1,1],[9E+09,9E+09,9E+09,9E+09,9E+09,9E+09]], v200, z50, toolSprayGun;
MoveL [[224.335,700.95,723.765],[0.5,-0.5,0.5,0.5],[1,0,-1,1],[9E+09,9E+09,9E+09,9E+09,9E+09,9E+09]], v200, z50, toolSprayGun;
MoveL [[225.069,702.173,729.188],[0.5,-0.5,0.5,0.5],[1,0,-1,1],[9E+09,9E+09,9E+09,9E+09,9E+09,9E+09]], v200, z50, toolSprayGun;
MoveL [[226.62,705.475,736.88],[0.5,-0.5,0.5,0.5],[1,0,-1,1],[9E+09,9E+09,9E+09,9E+09,9E+09,9E+09]], v200, z50, toolSprayGun;
MoveL [[227.409,705.958,742.188],[0.5,-0.5,0.5,0.5],[1,0,-1,1],[9E+09,9E+09,9E+09,9E+09,9E+09,9E+09]], v200, z50, toolSprayGun;
MoveL [[227.545,706.261,744.092],[0.5,-0.5,0.5,0.5],[1,0,-1,1],[9E+09,9E+09,9E+09,9E+09,9E+09,9E+09]], v200, z50, toolSprayGun;
MoveL [[227.876,707.358,749.618],[0.5,-0.5,0.5,0.5],[1,0,-1,1],[9E+09,9E+09,9E+09,9E+09,9E+09,9E+09]], v200, z50, toolSprayGun;
MoveL [[227.447,708.515,754.596],[0.5,-0.5,0.5,0.5],[1,0,-1,1],[9E+09,9E+09,9E+09,9E+09,9E+09,9E+09]], v200, z50, toolSprayGun;
MoveL [[227.269,709.423,759.305],[0.5,-0.5,0.5,0.5],[1,0,-1,1],[9E+09,9E+09,9E+09,9E+09,9E+09,9E+09]], v200, z50, toolSprayGun;
MoveL [[228.04,710.561,763.778],[0.5,-0.5,0.5,0.5],[1,0,-1,1],[9E+09,9E+09,9E+09,9E+09,9E+09,9E+09]], v200, z50, toolSprayGun;
MoveL [[228.353,711.457,767.437],[0.5,-0.5,0.5,0.5],[1,0,-1,1],[9E+09,9E+09,9E+09,9E+09,9E+09,9E+09]], v200, z50, toolSprayGun;
MoveL [[228.396,712.703,770.835],[0.5,-0.5,0.5,0.5],[1,0,-1,1],[9E+09,9E+09,9E+09,9E+09,9E+09,9E+09]], v200, z50, toolSprayGun;
MoveL [[228.307,713.483,773.792],[0.5,-0.5,0.5,0.5],[1,0,-1,1],[9E+09,9E+09,9E+09,9E+09,9E+09,9E+09]], v200, z50, toolSprayGun;
MoveL [[227.659,714.383,775.015],[0.5,-0.5,0.5,0.5],[1,0,-1,1],[9E+09,9E+09,9E+09,9E+09,9E+09,9E+09]], v200, z50, toolSprayGun;
MoveL [[227.504,714.749,777.142],[0.5,-0.5,0.5,0.5],[1,0,-1,1],[9E+09,9E+09,9E+09,9E+09,9E+09,9E+09]], v200, z50, toolSprayGun;
MoveL [[227.508,713.971,777.375],[0.5,-0.5,0.5,0.5],[1,0,-1,1],[9E+09,9E+09,9E+09,9E+09,9E+09,9E+09]], v200, z50, toolSprayGun;
MoveL [[227.584,713.65,778.677],[0.5,-0.5,0.5,0.5],[1,0,-1,1],[9E+09,9E+09,9E+09,9E+09,9E+09,9E+09]], v200, z50, toolSprayGun;
MoveL [[227.472,713.259,777.063],[0.5,-0.5,0.5,0.5],[1,0,-1,1],[9E+09,9E+09,9E+09,9E+09,9E+09,9E+09]], v200, z50, toolSprayGun;
MoveL [[228.22,713.04,777.44],[0.5,-0.5,0.5,0.5],[1,0,-1,1],[9E+09,9E+09,9E+09,9E+09,9E+09,9E+09]], v200, z50, toolSprayGun;
MoveL [[229.353,712.648,776.176],[0.5,-0.5,0.5,0.5],[1,0,-1,1],[9E+09,9E+09,9E+09,9E+09,9E+09,9E+09]], v200, z50, toolSprayGun;
MoveL [[229.875,712.068,776.273],[0.5,-0.5,0.5,0.5],[1,0,-1,1],[9E+09,9E+09,9E+09,9E+09,9E+09,9E+09]], v200, z50, toolSprayGun;
MoveL [[231.201,711.665,775.633],[0.5,-0.5,0.5,0.5],[1,0,-1,1],[9E+09,9E+09,9E+09,9E+09,9E+09,9E+09]], v200, z50, toolSprayGun;
MoveL [[232.686,711.666,775.669],[0.5,-0.5,0.5,0.5],[1,0,-1,1],[9E+09,9E+09,9E+09,9E+09,9E+09,9E+09]], v200, z50, toolSprayGun;
MoveL [[234.182,711.872,775.818],[0.5,-0.5,0.5,0.5],[1,0,-1,1],[9E+09,9E+09,9E+09,9E+09,9E+09,9E+09]], v200, z50, toolSprayGun;
MoveL [[237.648,711.792,775.944],[0.5,-0.5,0.5,0.5],[1,0,-1,1],[9E+09,9E+09,9E+09,9E+09,9E+09,9E+09]], v200, z50, toolSprayGun;
MoveL [[239.75,712.192,776.037],[0.5,-0.5,0.5,0.5],[1,0,-1,1],[9E+09,9E+09,9E+09,9E+09,9E+09,9E+09]], v200, z50, toolSprayGun;
MoveL [[245.366,712.831,776.789],[0.5,-0.5,0.5,0.5],[1,0,-1,1],[9E+09,9E+09,9E+09,9E+09,9E+09,9E+09]], v200, z50, toolSprayGun;
MoveL [[252.205,712.593,777.49],[0.5,-0.5,0.5,0.5],[1,0,-1,1],[9E+09,9E+09,9E+09,9E+09,9E+09,9E+09]], v200, z50, toolSprayGun;
MoveL [[255.773,712.897,777.55],[0.5,-0.5,0.5,0.5],[1,0,-1,1],[9E+09,9E+09,9E+09,9E+09,9E+09,9E+09]], v200, z50, toolSprayGun;
MoveL [[263.123,713.392,778.137],[0.5,-0.5,0.5,0.5],[1,0,-1,1],[9E+09,9E+09,9E+09,9E+09,9E+09,9E+09]], v200, z50, toolSprayGun;
MoveL [[267.871,713.423,778.775],[0.5,-0.5,0.5,0.5],[1,0,-1,1],[9E+09,9E+09,9E+09,9E+09,9E+09,9E+09]], v200, z50, toolSprayGun;
MoveL [[274.944,713.607,778.728],[0.5,-0.5,0.5,0.5],[1,0,-1,1],[9E+09,9E+09,9E+09,9E+09,9E+09,9E+09]], v200, z50, toolSprayGun;
MoveL [[281.452,713.386,778.962],[0.5,-0.5,0.5,0.5],[1,0,-1,1],[9E+09,9E+09,9E+09,9E+09,9E+09,9E+09]], v200, z50, toolSprayGun;
MoveL [[286.442,713.002,779.018],[0.5,-0.5,0.5,0.5],[1,0,-1,1],[9E+09,9E+09,9E+09,9E+09,9E+09,9E+09]], v200, z50, toolSprayGun;
MoveL [[293.614,712.506,779.401],[0.5,-0.5,0.5,0.5],[1,0,-1,1],[9E+09,9E+09,9E+09,9E+09,9E+09,9E+09]], v200, z50, toolSprayGun;
MoveL [[301.091,711.33,779.134],[0.5,-0.5,0.5,0.5],[1,0,-1,1],[9E+09,9E+09,9E+09,9E+09,9E+09,9E+09]], v200, z50, toolSprayGun;
MoveL [[308.895,710.248,779.034],[0.5,-0.5,0.5,0.5],[1,0,-1,1],[9E+09,9E+09,9E+09,9E+09,9E+09,9E+09]], v200, z50, toolSprayGun;
MoveL [[314.939,709.823,778.563],[0.5,-0.5,0.5,0.5],[1,0,-1,1],[9E+09,9E+09,9E+09,9E+09,9E+09,9E+09]], v200, z50, toolSprayGun;
MoveL [[321.857,708.528,778.464],[0.5,-0.5,0.5,0.5],[1,0,-1,1],[9E+09,9E+09,9E+09,9E+09,9E+09,9E+09]], v200, z50, toolSprayGun;
MoveL [[330.7,707.905,776.078],[0.5,-0.5,0.5,0.5],[1,0,-1,1],[9E+09,9E+09,9E+09,9E+09,9E+09,9E+09]], v200, z50, toolSprayGun;
MoveL [[335.678,707.146,775.88],[0.5,-0.5,0.5,0.5],[1,0,-1,1],[9E+09,9E+09,9E+09,9E+09,9E+09,9E+09]], v200, z50, toolSprayGun;
MoveL [[342.341,706.939,775.351],[0.5,-0.5,0.5,0.5],[1,0,-1,1],[9E+09,9E+09,9E+09,9E+09,9E+09,9E+09]], v200, z50, toolSprayGun;
MoveL [[348.173,706.612,775.036],[0.5,-0.5,0.5,0.5],[1,0,-1,1],[9E+09,9E+09,9E+09,9E+09,9E+09,9E+09]], v200, z50, toolSprayGun;
MoveL [[355.988,706.43,775.938],[0.5,-0.5,0.5,0.5],[1,0,-1,1],[9E+09,9E+09,9E+09,9E+09,9E+09,9E+09]], v200, z50, toolSprayGun;
MoveL [[361.303,706.735,776.788],[0.5,-0.5,0.5,0.5],[1,0,-1,1],[9E+09,9E+09,9E+09,9E+09,9E+09,9E+09]], v200, z50, toolSprayGun;
MoveL [[371.102,706.878,777.957],[0.5,-0.5,0.5,0.5],[1,0,-1,1],[9E+09,9E+09,9E+09,9E+09,9E+09,9E+09]], v200, z50, toolSprayGun;
MoveL [[376.547,706.287,778.645],[0.5,-0.5,0.5,0.5],[1,0,-1,1],[9E+09,9E+09,9E+09,9E+09,9E+09,9E+09]], v200, z50, toolSprayGun;
MoveL [[382.498,705.088,780.135],[0.5,-0.5,0.5,0.5],[1,0,-1,1],[9E+09,9E+09,9E+09,9E+09,9E+09,9E+09]], v200, z50, toolSprayGun;
MoveL [[388.557,704.542,781.274],[0.5,-0.5,0.5,0.5],[1,0,-1,1],[9E+09,9E+09,9E+09,9E+09,9E+09,9E+09]], v200, z50, toolSprayGun;
MoveL [[393.464,704.42,780.504],[0.5,-0.5,0.5,0.5],[1,0,-1,1],[9E+09,9E+09,9E+09,9E+09,9E+09,9E+09]], v200, z50, toolSprayGun;
MoveL [[399.393,704.122,781.093],[0.5,-0.5,0.5,0.5],[1,0,-1,1],[9E+09,9E+09,9E+09,9E+09,9E+09,9E+09]], v200, z50, toolSprayGun;
MoveL [[404.871,703.62,781.536],[0.5,-0.5,0.5,0.5],[1,0,-1,1],[9E+09,9E+09,9E+09,9E+09,9E+09,9E+09]], v200, z50, toolSprayGun;
MoveL [[408.101,703.544,781.949],[0.5,-0.5,0.5,0.5],[1,0,-1,1],[9E+09,9E+09,9E+09,9E+09,9E+09,9E+09]], v200, z50, toolSprayGun;
MoveL [[413.234,704.574,781.765],[0.5,-0.5,0.5,0.5],[1,0,-1,1],[9E+09,9E+09,9E+09,9E+09,9E+09,9E+09]], v200, z50, toolSprayGun;
MoveL [[417.139,704.518,782.477],[0.5,-0.5,0.5,0.5],[1,0,-1,1],[9E+09,9E+09,9E+09,9E+09,9E+09,9E+09]], v200, z50, toolSprayGun;
MoveL [[420.831,704.94,783.228],[0.5,-0.5,0.5,0.5],[1,0,-1,1],[9E+09,9E+09,9E+09,9E+09,9E+09,9E+09]], v200, z50, toolSprayGun;
MoveL [[423.904,704.637,783.359],[0.5,-0.5,0.5,0.5],[1,0,-1,1],[9E+09,9E+09,9E+09,9E+09,9E+09,9E+09]], v200, z50, toolSprayGun;
MoveL [[428.828,704.44,783.538],[0.5,-0.5,0.5,0.5],[1,0,-1,1],[9E+09,9E+09,9E+09,9E+09,9E+09,9E+09]], v200, z50, toolSprayGun;
MoveL [[431.398,704.677,783.554],[0.5,-0.5,0.5,0.5],[1,0,-1,1],[9E+09,9E+09,9E+09,9E+09,9E+09,9E+09]], v200, z50, toolSprayGun;
MoveL [[433.656,703.553,782.66],[0.5,-0.5,0.5,0.5],[1,0,-1,1],[9E+09,9E+09,9E+09,9E+09,9E+09,9E+09]], v200, z50, toolSprayGun;
MoveL [[436.137,703.693,782.445],[0.5,-0.5,0.5,0.5],[1,0,-1,1],[9E+09,9E+09,9E+09,9E+09,9E+09,9E+09]], v200, z50, toolSprayGun;
MoveL [[437.469,704.004,781.409],[0.5,-0.5,0.5,0.5],[1,0,-1,1],[9E+09,9E+09,9E+09,9E+09,9E+09,9E+09]], v200, z50, toolSprayGun;
MoveL [[439.714,703.818,780.544],[0.5,-0.5,0.5,0.5],[1,0,-1,1],[9E+09,9E+09,9E+09,9E+09,9E+09,9E+09]], v200, z50, toolSprayGun;
MoveL [[440.066,703.559,779.484],[0.5,-0.5,0.5,0.5],[1,0,-1,1],[9E+09,9E+09,9E+09,9E+09,9E+09,9E+09]], v200, z50, toolSprayGun;
MoveL [[441.417,703.414,778.774],[0.5,-0.5,0.5,0.5],[1,0,-1,1],[9E+09,9E+09,9E+09,9E+09,9E+09,9E+09]], v200, z50, toolSprayGun;
MoveL [[440.954,703.656,777.199],[0.5,-0.5,0.5,0.5],[1,0,-1,1],[9E+09,9E+09,9E+09,9E+09,9E+09,9E+09]], v200, z50, toolSprayGun;
MoveL [[441.157,703.484,776.043],[0.5,-0.5,0.5,0.5],[1,0,-1,1],[9E+09,9E+09,9E+09,9E+09,9E+09,9E+09]], v200, z50, toolSprayGun;
MoveL [[441.306,703.249,775.413],[0.5,-0.5,0.5,0.5],[1,0,-1,1],[9E+09,9E+09,9E+09,9E+09,9E+09,9E+09]], v200, z50, toolSprayGun;
MoveL [[441.288,703.129,774.669],[0.5,-0.5,0.5,0.5],[1,0,-1,1],[9E+09,9E+09,9E+09,9E+09,9E+09,9E+09]], v200, z50, toolSprayGun;
MoveL [[441.085,702.684,774.335],[0.5,-0.5,0.5,0.5],[1,0,-1,1],[9E+09,9E+09,9E+09,9E+09,9E+09,9E+09]], v200, z50, toolSprayGun;
MoveL [[440.21,701.505,773.285],[0.5,-0.5,0.5,0.5],[1,0,-1,1],[9E+09,9E+09,9E+09,9E+09,9E+09,9E+09]], v200, z50, toolSprayGun;
MoveL [[439.702,701.507,773.482],[0.5,-0.5,0.5,0.5],[1,0,-1,1],[9E+09,9E+09,9E+09,9E+09,9E+09,9E+09]], v200, z50, toolSprayGun;
MoveL [[439.718,701.322,773.13],[0.5,-0.5,0.5,0.5],[1,0,-1,1],[9E+09,9E+09,9E+09,9E+09,9E+09,9E+09]], v200, z50, toolSprayGun;
MoveL [[439.901,701.258,772.989],[0.5,-0.5,0.5,0.5],[1,0,-1,1],[9E+09,9E+09,9E+09,9E+09,9E+09,9E+09]], v200, z50, toolSprayGun;
MoveL [[440.06,701.203,772.867],[0.5,-0.5,0.5,0.5],[1,0,-1,1],[9E+09,9E+09,9E+09,9E+09,9E+09,9E+09]], v200, z50, toolSprayGun;
MoveL [[437.519,700.728,772.216],[0.5,-0.5,0.5,0.5],[1,0,-1,1],[9E+09,9E+09,9E+09,9E+09,9E+09,9E+09]], v200, z50, toolSprayGun;
MoveL [[435.824,700.135,771.437],[0.5,-0.5,0.5,0.5],[1,0,-1,1],[9E+09,9E+09,9E+09,9E+09,9E+09,9E+09]], v200, z50, toolSprayGun;
MoveL [[434.463,700.302,771.288],[0.5,-0.5,0.5,0.5],[1,0,-1,1],[9E+09,9E+09,9E+09,9E+09,9E+09,9E+09]], v200, z50, toolSprayGun;
MoveL [[433.638,700.097,770.673],[0.5,-0.5,0.5,0.5],[1,0,-1,1],[9E+09,9E+09,9E+09,9E+09,9E+09,9E+09]], v200, z50, toolSprayGun;
MoveL [[432.798,700.075,770.567],[0.5,-0.5,0.5,0.5],[1,0,-1,1],[9E+09,9E+09,9E+09,9E+09,9E+09,9E+09]], v200, z50, toolSprayGun;
MoveL [[431.184,700.224,770.252],[0.5,-0.5,0.5,0.5],[1,0,-1,1],[9E+09,9E+09,9E+09,9E+09,9E+09,9E+09]], v200, z50, toolSprayGun;
MoveL [[430.771,700.638,770.03],[0.5,-0.5,0.5,0.5],[1,0,-1,1],[9E+09,9E+09,9E+09,9E+09,9E+09,9E+09]], v200, z50, toolSprayGun;
MoveL [[430.315,701.78,770.695],[0.5,-0.5,0.5,0.5],[1,0,-1,1],[9E+09,9E+09,9E+09,9E+09,9E+09,9E+09]], v200, z50, toolSprayGun;
MoveL [[429.696,702.251,771.387],[0.5,-0.5,0.5,0.5],[1,0,-1,1],[9E+09,9E+09,9E+09,9E+09,9E+09,9E+09]], v200, z50, toolSprayGun;
MoveL [[429.35,703.092,771.628],[0.5,-0.5,0.5,0.5],[1,0,-1,1],[9E+09,9E+09,9E+09,9E+09,9E+09,9E+09]], v200, z50, toolSprayGun;
MoveL [[429.29,703.869,771.387],[0.5,-0.5,0.5,0.5],[1,0,-1,1],[9E+09,9E+09,9E+09,9E+09,9E+09,9E+09]], v200, z50, toolSprayGun;
MoveL [[429.916,704.665,771.945],[0.5,-0.5,0.5,0.5],[1,0,-1,1],[9E+09,9E+09,9E+09,9E+09,9E+09,9E+09]], v200, z50, toolSprayGun;
MoveL [[430.063,705.188,772.152],[0.5,-0.5,0.5,0.5],[1,0,-1,1],[9E+09,9E+09,9E+09,9E+09,9E+09,9E+09]], v200, z50, toolSprayGun;
MoveL [[430.518,705.707,772.402],[0.5,-0.5,0.5,0.5],[1,0,-1,1],[9E+09,9E+09,9E+09,9E+09,9E+09,9E+09]], v200, z50, toolSprayGun;
MoveL [[430.815,705.934,772.598],[0.5,-0.5,0.5,0.5],[1,0,-1,1],[9E+09,9E+09,9E+09,9E+09,9E+09,9E+09]], v200, z50, toolSprayGun;
ENDPROC
ENDMODULE
