def myProg():
movel(p[0.353236,0.0412496,0.367442, 1.57, 0.00, 0.00], a=0.01, v=0.1, r=0.01)
movel(p[0.353514,0.0411317,0.366945, 1.57, 0.00, 0.00], a=0.01, v=0.1, r=0.01)
movel(p[0.353368,0.0404187,0.366627, 1.57, 0.00, 0.00], a=0.01, v=0.1, r=0.01)
movel(p[0.353473,0.0396759,0.366256, 1.57, 0.00, 0.00], a=0.01, v=0.1, r=0.01)
movel(p[0.35344,0.0395786,0.366164, 1.57, 0.00, 0.00], a=0.01, v=0.1, r=0.01)
movel(p[0.353727,0.0388215,0.366057, 1.57, 0.00, 0.00], a=0.01, v=0.1, r=0.01)
movel(p[0.353571,0.0380607,0.366344, 1.57, 0.00, 0.00], a=0.01, v=0.1, r=0.01)
movel(p[0.353114,0.036725,0.366697, 1.57, 0.00, 0.00], a=0.01, v=0.1, r=0.01)
movel(p[0.3527,0.0350779,0.36683, 1.57, 0.00, 0.00], a=0.01, v=0.1, r=0.01)
movel(p[0.352792,0.0337955,0.366342, 1.57, 0.00, 0.00], a=0.01, v=0.1, r=0.01)
movel(p[0.352737,0.033577,0.366184, 1.57, 0.00, 0.00], a=0.01, v=0.1, r=0.01)
movel(p[0.352314,0.0323768,0.366303, 1.57, 0.00, 0.00], a=0.01, v=0.1, r=0.01)
movel(p[0.351737,0.0304832,0.366075, 1.57, 0.00, 0.00], a=0.01, v=0.1, r=0.01)
movel(p[0.35166,0.0301485,0.365894, 1.57, 0.00, 0.00], a=0.01, v=0.1, r=0.01)
movel(p[0.351234,0.0284312,0.365912, 1.57, 0.00, 0.00], a=0.01, v=0.1, r=0.01)
movel(p[0.351275,0.0271491,0.366182, 1.57, 0.00, 0.00], a=0.01, v=0.1, r=0.01)
movel(p[0.351154,0.0257693,0.366111, 1.57, 0.00, 0.00], a=0.01, v=0.1, r=0.01)
movel(p[0.351048,0.0251791,0.365866, 1.57, 0.00, 0.00], a=0.01, v=0.1, r=0.01)
movel(p[0.351227,0.0236698,0.365428, 1.57, 0.00, 0.00], a=0.01, v=0.1, r=0.01)
movel(p[0.351786,0.022163,0.364639, 1.57, 0.00, 0.00], a=0.01, v=0.1, r=0.01)
movel(p[0.352237,0.0198709,0.363808, 1.57, 0.00, 0.00], a=0.01, v=0.1, r=0.01)
movel(p[0.352088,0.0191441,0.36354, 1.57, 0.00, 0.00], a=0.01, v=0.1, r=0.01)
movel(p[0.352035,0.01721,0.363891, 1.57, 0.00, 0.00], a=0.01, v=0.1, r=0.01)
movel(p[0.352371,0.0151175,0.363438, 1.57, 0.00, 0.00], a=0.01, v=0.1, r=0.01)
movel(p[0.352691,0.0132487,0.363525, 1.57, 0.00, 0.00], a=0.01, v=0.1, r=0.01)
movel(p[0.352559,0.0124468,0.363294, 1.57, 0.00, 0.00], a=0.01, v=0.1, r=0.01)
movel(p[0.352774,0.00987985,0.362778, 1.57, 0.00, 0.00], a=0.01, v=0.1, r=0.01)
movel(p[0.352775,0.00762923,0.362317, 1.57, 0.00, 0.00], a=0.01, v=0.1, r=0.01)
movel(p[0.352733,0.00558333,0.362289, 1.57, 0.00, 0.00], a=0.01, v=0.1, r=0.01)
movel(p[0.352503,0.00405353,0.361896, 1.57, 0.00, 0.00], a=0.01, v=0.1, r=0.01)
movel(p[0.352228,0.00143222,0.361305, 1.57, 0.00, 0.00], a=0.01, v=0.1, r=0.01)
movel(p[0.352131,0.000147525,0.361026, 1.57, 0.00, 0.00], a=0.01, v=0.1, r=0.01)
movel(p[0.352279,-0.00228044,0.360754, 1.57, 0.00, 0.00], a=0.01, v=0.1, r=0.01)
movel(p[0.3521,-0.00403451,0.360315, 1.57, 0.00, 0.00], a=0.01, v=0.1, r=0.01)
movel(p[0.35267,-0.00585967,0.360346, 1.57, 0.00, 0.00], a=0.01, v=0.1, r=0.01)
movel(p[0.352833,-0.00892148,0.360052, 1.57, 0.00, 0.00], a=0.01, v=0.1, r=0.01)
movel(p[0.353009,-0.0118841,0.35999, 1.57, 0.00, 0.00], a=0.01, v=0.1, r=0.01)
movel(p[0.352919,-0.0129046,0.359797, 1.57, 0.00, 0.00], a=0.01, v=0.1, r=0.01)
movel(p[0.352735,-0.0162591,0.359466, 1.57, 0.00, 0.00], a=0.01, v=0.1, r=0.01)
movel(p[0.352818,-0.0178348,0.359397, 1.57, 0.00, 0.00], a=0.01, v=0.1, r=0.01)
movel(p[0.352758,-0.0198139,0.359457, 1.57, 0.00, 0.00], a=0.01, v=0.1, r=0.01)
movel(p[0.352672,-0.0212208,0.359223, 1.57, 0.00, 0.00], a=0.01, v=0.1, r=0.01)
movel(p[0.352137,-0.0241827,0.358527, 1.57, 0.00, 0.00], a=0.01, v=0.1, r=0.01)
movel(p[0.351738,-0.0264642,0.358469, 1.57, 0.00, 0.00], a=0.01, v=0.1, r=0.01)
movel(p[0.351711,-0.0296423,0.358048, 1.57, 0.00, 0.00], a=0.01, v=0.1, r=0.01)
movel(p[0.351475,-0.0321112,0.35772, 1.57, 0.00, 0.00], a=0.01, v=0.1, r=0.01)
movel(p[0.351482,-0.0344029,0.357914, 1.57, 0.00, 0.00], a=0.01, v=0.1, r=0.01)
movel(p[0.351727,-0.0368535,0.358118, 1.57, 0.00, 0.00], a=0.01, v=0.1, r=0.01)
movel(p[0.352082,-0.0398861,0.357997, 1.57, 0.00, 0.00], a=0.01, v=0.1, r=0.01)
movel(p[0.352143,-0.0414455,0.357902, 1.57, 0.00, 0.00], a=0.01, v=0.1, r=0.01)
movel(p[0.351845,-0.0441173,0.357688, 1.57, 0.00, 0.00], a=0.01, v=0.1, r=0.01)
movel(p[0.351904,-0.0462348,0.357906, 1.57, 0.00, 0.00], a=0.01, v=0.1, r=0.01)
movel(p[0.351933,-0.0474081,0.358023, 1.57, 0.00, 0.00], a=0.01, v=0.1, r=0.01)
movel(p[0.35171,-0.0504007,0.357631, 1.57, 0.00, 0.00], a=0.01, v=0.1, r=0.01)
movel(p[0.351536,-0.0518296,0.357531, 1.57, 0.00, 0.00], a=0.01, v=0.1, r=0.01)
movel(p[0.351576,-0.0534524,0.357234, 1.57, 0.00, 0.00], a=0.01, v=0.1, r=0.01)
movel(p[0.351511,-0.0564619,0.356741, 1.57, 0.00, 0.00], a=0.01, v=0.1, r=0.01)
movel(p[0.35098,-0.0592296,0.356334, 1.57, 0.00, 0.00], a=0.01, v=0.1, r=0.01)
movel(p[0.350845,-0.0603752,0.356232, 1.57, 0.00, 0.00], a=0.01, v=0.1, r=0.01)
movel(p[0.350084,-0.0633945,0.356059, 1.57, 0.00, 0.00], a=0.01, v=0.1, r=0.01)
movel(p[0.349795,-0.0663811,0.355717, 1.57, 0.00, 0.00], a=0.01, v=0.1, r=0.01)
movel(p[0.349767,-0.0681339,0.355269, 1.57, 0.00, 0.00], a=0.01, v=0.1, r=0.01)
movel(p[0.349343,-0.0711993,0.355056, 1.57, 0.00, 0.00], a=0.01, v=0.1, r=0.01)
movel(p[0.349022,-0.0735206,0.354602, 1.57, 0.00, 0.00], a=0.01, v=0.1, r=0.01)
movel(p[0.348829,-0.074633,0.354167, 1.57, 0.00, 0.00], a=0.01, v=0.1, r=0.01)
movel(p[0.348552,-0.07734,0.35386, 1.57, 0.00, 0.00], a=0.01, v=0.1, r=0.01)
movel(p[0.348233,-0.0795315,0.353643, 1.57, 0.00, 0.00], a=0.01, v=0.1, r=0.01)
movel(p[0.348446,-0.081201,0.353165, 1.57, 0.00, 0.00], a=0.01, v=0.1, r=0.01)
movel(p[0.348099,-0.0838595,0.352202, 1.57, 0.00, 0.00], a=0.01, v=0.1, r=0.01)
movel(p[0.3479,-0.0864141,0.351435, 1.57, 0.00, 0.00], a=0.01, v=0.1, r=0.01)
movel(p[0.34771,-0.0876073,0.351269, 1.57, 0.00, 0.00], a=0.01, v=0.1, r=0.01)
movel(p[0.347212,-0.0900476,0.350365, 1.57, 0.00, 0.00], a=0.01, v=0.1, r=0.01)
movel(p[0.347101,-0.0919829,0.350293, 1.57, 0.00, 0.00], a=0.01, v=0.1, r=0.01)
movel(p[0.347012,-0.0933922,0.350037, 1.57, 0.00, 0.00], a=0.01, v=0.1, r=0.01)
movel(p[0.346613,-0.0954888,0.349688, 1.57, 0.00, 0.00], a=0.01, v=0.1, r=0.01)
movel(p[0.346367,-0.0976373,0.349793, 1.57, 0.00, 0.00], a=0.01, v=0.1, r=0.01)
movel(p[0.346033,-0.0988823,0.349566, 1.57, 0.00, 0.00], a=0.01, v=0.1, r=0.01)
movel(p[0.345751,-0.100955,0.349121, 1.57, 0.00, 0.00], a=0.01, v=0.1, r=0.01)
movel(p[0.345231,-0.103364,0.348097, 1.57, 0.00, 0.00], a=0.01, v=0.1, r=0.01)
movel(p[0.34487,-0.105882,0.347248, 1.57, 0.00, 0.00], a=0.01, v=0.1, r=0.01)
movel(p[0.344654,-0.106844,0.347049, 1.57, 0.00, 0.00], a=0.01, v=0.1, r=0.01)
movel(p[0.344355,-0.109145,0.346204, 1.57, 0.00, 0.00], a=0.01, v=0.1, r=0.01)
movel(p[0.344592,-0.110742,0.34614, 1.57, 0.00, 0.00], a=0.01, v=0.1, r=0.01)
movel(p[0.344061,-0.112994,0.345658, 1.57, 0.00, 0.00], a=0.01, v=0.1, r=0.01)
movel(p[0.343944,-0.114721,0.34533, 1.57, 0.00, 0.00], a=0.01, v=0.1, r=0.01)
movel(p[0.343442,-0.11768,0.34506, 1.57, 0.00, 0.00], a=0.01, v=0.1, r=0.01)
movel(p[0.343379,-0.119179,0.345338, 1.57, 0.00, 0.00], a=0.01, v=0.1, r=0.01)
movel(p[0.34287,-0.121264,0.344979, 1.57, 0.00, 0.00], a=0.01, v=0.1, r=0.01)
movel(p[0.343243,-0.122747,0.344865, 1.57, 0.00, 0.00], a=0.01, v=0.1, r=0.01)
movel(p[0.3427,-0.125664,0.34425, 1.57, 0.00, 0.00], a=0.01, v=0.1, r=0.01)
movel(p[0.342587,-0.128604,0.343736, 1.57, 0.00, 0.00], a=0.01, v=0.1, r=0.01)
movel(p[0.342293,-0.129782,0.343537, 1.57, 0.00, 0.00], a=0.01, v=0.1, r=0.01)
movel(p[0.342014,-0.133005,0.343607, 1.57, 0.00, 0.00], a=0.01, v=0.1, r=0.01)
movel(p[0.341592,-0.135811,0.344187, 1.57, 0.00, 0.00], a=0.01, v=0.1, r=0.01)
movel(p[0.341143,-0.138419,0.344578, 1.57, 0.00, 0.00], a=0.01, v=0.1, r=0.01)
movel(p[0.340753,-0.140131,0.344398, 1.57, 0.00, 0.00], a=0.01, v=0.1, r=0.01)
movel(p[0.34007,-0.142714,0.344303, 1.57, 0.00, 0.00], a=0.01, v=0.1, r=0.01)
movel(p[0.339755,-0.14436,0.344445, 1.57, 0.00, 0.00], a=0.01, v=0.1, r=0.01)
movel(p[0.339288,-0.147176,0.343878, 1.57, 0.00, 0.00], a=0.01, v=0.1, r=0.01)
movel(p[0.338742,-0.149517,0.343659, 1.57, 0.00, 0.00], a=0.01, v=0.1, r=0.01)
movel(p[0.338192,-0.152229,0.343142, 1.57, 0.00, 0.00], a=0.01, v=0.1, r=0.01)
movel(p[0.338351,-0.154026,0.343379, 1.57, 0.00, 0.00], a=0.01, v=0.1, r=0.01)
movel(p[0.338165,-0.157181,0.34373, 1.57, 0.00, 0.00], a=0.01, v=0.1, r=0.01)
movel(p[0.337844,-0.158472,0.343681, 1.57, 0.00, 0.00], a=0.01, v=0.1, r=0.01)
movel(p[0.33723,-0.160762,0.343714, 1.57, 0.00, 0.00], a=0.01, v=0.1, r=0.01)
movel(p[0.336934,-0.163209,0.343723, 1.57, 0.00, 0.00], a=0.01, v=0.1, r=0.01)
movel(p[0.336939,-0.164001,0.343136, 1.57, 0.00, 0.00], a=0.01, v=0.1, r=0.01)
movel(p[0.336407,-0.166157,0.343022, 1.57, 0.00, 0.00], a=0.01, v=0.1, r=0.01)
movel(p[0.336034,-0.169026,0.342295, 1.57, 0.00, 0.00], a=0.01, v=0.1, r=0.01)
movel(p[0.336233,-0.170558,0.342042, 1.57, 0.00, 0.00], a=0.01, v=0.1, r=0.01)
movel(p[0.335993,-0.172382,0.341358, 1.57, 0.00, 0.00], a=0.01, v=0.1, r=0.01)
movel(p[0.335612,-0.174649,0.341133, 1.57, 0.00, 0.00], a=0.01, v=0.1, r=0.01)
movel(p[0.335257,-0.176176,0.340959, 1.57, 0.00, 0.00], a=0.01, v=0.1, r=0.01)
movel(p[0.33439,-0.178261,0.340144, 1.57, 0.00, 0.00], a=0.01, v=0.1, r=0.01)
movel(p[0.334071,-0.180427,0.339709, 1.57, 0.00, 0.00], a=0.01, v=0.1, r=0.01)
movel(p[0.334285,-0.182294,0.33957, 1.57, 0.00, 0.00], a=0.01, v=0.1, r=0.01)
movel(p[0.333823,-0.184106,0.339324, 1.57, 0.00, 0.00], a=0.01, v=0.1, r=0.01)
movel(p[0.333658,-0.186662,0.338605, 1.57, 0.00, 0.00], a=0.01, v=0.1, r=0.01)
movel(p[0.333958,-0.188291,0.33796, 1.57, 0.00, 0.00], a=0.01, v=0.1, r=0.01)
movel(p[0.333844,-0.190946,0.337367, 1.57, 0.00, 0.00], a=0.01, v=0.1, r=0.01)
movel(p[0.333483,-0.192319,0.337154, 1.57, 0.00, 0.00], a=0.01, v=0.1, r=0.01)
movel(p[0.333764,-0.193339,0.336736, 1.57, 0.00, 0.00], a=0.01, v=0.1, r=0.01)
movel(p[0.333759,-0.195246,0.335926, 1.57, 0.00, 0.00], a=0.01, v=0.1, r=0.01)
movel(p[0.333427,-0.197102,0.335287, 1.57, 0.00, 0.00], a=0.01, v=0.1, r=0.01)
movel(p[0.333223,-0.197989,0.33509, 1.57, 0.00, 0.00], a=0.01, v=0.1, r=0.01)
movel(p[0.333227,-0.199418,0.334493, 1.57, 0.00, 0.00], a=0.01, v=0.1, r=0.01)
movel(p[0.333454,-0.201358,0.333948, 1.57, 0.00, 0.00], a=0.01, v=0.1, r=0.01)
movel(p[0.333851,-0.201506,0.334025, 1.57, 0.00, 0.00], a=0.01, v=0.1, r=0.01)
movel(p[0.33357,-0.203084,0.333663, 1.57, 0.00, 0.00], a=0.01, v=0.1, r=0.01)
movel(p[0.333746,-0.204194,0.333261, 1.57, 0.00, 0.00], a=0.01, v=0.1, r=0.01)
movel(p[0.333624,-0.204488,0.333111, 1.57, 0.00, 0.00], a=0.01, v=0.1, r=0.01)
movel(p[0.333847,-0.205002,0.332952, 1.57, 0.00, 0.00], a=0.01, v=0.1, r=0.01)
movel(p[0.333611,-0.206352,0.33263, 1.57, 0.00, 0.00], a=0.01, v=0.1, r=0.01)
movel(p[0.333583,-0.206074,0.332749, 1.57, 0.00, 0.00], a=0.01, v=0.1, r=0.01)
movel(p[0.333399,-0.206428,0.332692, 1.57, 0.00, 0.00], a=0.01, v=0.1, r=0.01)
movel(p[0.33334,-0.206331,0.332571, 1.57, 0.00, 0.00], a=0.01, v=0.1, r=0.01)
movel(p[0.333252,-0.206808,0.33245, 1.57, 0.00, 0.00], a=0.01, v=0.1, r=0.01)
movel(p[0.333451,-0.206623,0.332356, 1.57, 0.00, 0.00], a=0.01, v=0.1, r=0.01)
movel(p[0.332987,-0.206489,0.332166, 1.57, 0.00, 0.00], a=0.01, v=0.1, r=0.01)
movel(p[0.332767,-0.205835,0.332082, 1.57, 0.00, 0.00], a=0.01, v=0.1, r=0.01)
movel(p[0.332598,-0.206483,0.331894, 1.57, 0.00, 0.00], a=0.01, v=0.1, r=0.01)
movel(p[0.332674,-0.205892,0.331325, 1.57, 0.00, 0.00], a=0.01, v=0.1, r=0.01)
movel(p[0.332773,-0.205038,0.330636, 1.57, 0.00, 0.00], a=0.01, v=0.1, r=0.01)
movel(p[0.332253,-0.204251,0.329174, 1.57, 0.00, 0.00], a=0.01, v=0.1, r=0.01)
movel(p[0.332329,-0.203136,0.327593, 1.57, 0.00, 0.00], a=0.01, v=0.1, r=0.01)
movel(p[0.332129,-0.203452,0.327175, 1.57, 0.00, 0.00], a=0.01, v=0.1, r=0.01)
movel(p[0.332021,-0.202123,0.325648, 1.57, 0.00, 0.00], a=0.01, v=0.1, r=0.01)
movel(p[0.331619,-0.201017,0.323869, 1.57, 0.00, 0.00], a=0.01, v=0.1, r=0.01)
movel(p[0.330715,-0.199635,0.321976, 1.57, 0.00, 0.00], a=0.01, v=0.1, r=0.01)
movel(p[0.330557,-0.199638,0.321514, 1.57, 0.00, 0.00], a=0.01, v=0.1, r=0.01)
movel(p[0.329196,-0.198507,0.319435, 1.57, 0.00, 0.00], a=0.01, v=0.1, r=0.01)
movel(p[0.327411,-0.196474,0.318053, 1.57, 0.00, 0.00], a=0.01, v=0.1, r=0.01)
movel(p[0.326638,-0.196155,0.315983, 1.57, 0.00, 0.00], a=0.01, v=0.1, r=0.01)
movel(p[0.326309,-0.196121,0.315115, 1.57, 0.00, 0.00], a=0.01, v=0.1, r=0.01)
movel(p[0.325345,-0.195214,0.312897, 1.57, 0.00, 0.00], a=0.01, v=0.1, r=0.01)
movel(p[0.324622,-0.194794,0.310461, 1.57, 0.00, 0.00], a=0.01, v=0.1, r=0.01)
movel(p[0.324207,-0.194767,0.308641, 1.57, 0.00, 0.00], a=0.01, v=0.1, r=0.01)
movel(p[0.323941,-0.194708,0.308034, 1.57, 0.00, 0.00], a=0.01, v=0.1, r=0.01)
movel(p[0.323295,-0.1938,0.305732, 1.57, 0.00, 0.00], a=0.01, v=0.1, r=0.01)
movel(p[0.322555,-0.193782,0.303286, 1.57, 0.00, 0.00], a=0.01, v=0.1, r=0.01)
movel(p[0.32219,-0.193876,0.301719, 1.57, 0.00, 0.00], a=0.01, v=0.1, r=0.01)
movel(p[0.321787,-0.193849,0.300737, 1.57, 0.00, 0.00], a=0.01, v=0.1, r=0.01)
movel(p[0.321817,-0.194146,0.298243, 1.57, 0.00, 0.00], a=0.01, v=0.1, r=0.01)
movel(p[0.321876,-0.194177,0.295659, 1.57, 0.00, 0.00], a=0.01, v=0.1, r=0.01)
movel(p[0.32156,-0.194149,0.292167, 1.57, 0.00, 0.00], a=0.01, v=0.1, r=0.01)
movel(p[0.320879,-0.194241,0.290316, 1.57, 0.00, 0.00], a=0.01, v=0.1, r=0.01)
movel(p[0.320459,-0.193802,0.288228, 1.57, 0.00, 0.00], a=0.01, v=0.1, r=0.01)
movel(p[0.320114,-0.193387,0.285037, 1.57, 0.00, 0.00], a=0.01, v=0.1, r=0.01)
movel(p[0.319515,-0.193601,0.282081, 1.57, 0.00, 0.00], a=0.01, v=0.1, r=0.01)
movel(p[0.319141,-0.193687,0.280957, 1.57, 0.00, 0.00], a=0.01, v=0.1, r=0.01)
movel(p[0.318923,-0.193631,0.277011, 1.57, 0.00, 0.00], a=0.01, v=0.1, r=0.01)
movel(p[0.318932,-0.193617,0.273993, 1.57, 0.00, 0.00], a=0.01, v=0.1, r=0.01)
movel(p[0.318457,-0.193557,0.272031, 1.57, 0.00, 0.00], a=0.01, v=0.1, r=0.01)
movel(p[0.317656,-0.19359,0.26911, 1.57, 0.00, 0.00], a=0.01, v=0.1, r=0.01)
movel(p[0.317079,-0.193568,0.266178, 1.57, 0.00, 0.00], a=0.01, v=0.1, r=0.01)
movel(p[0.317008,-0.193443,0.264158, 1.57, 0.00, 0.00], a=0.01, v=0.1, r=0.01)
movel(p[0.316405,-0.193091,0.260969, 1.57, 0.00, 0.00], a=0.01, v=0.1, r=0.01)
movel(p[0.316269,-0.19296,0.258527, 1.57, 0.00, 0.00], a=0.01, v=0.1, r=0.01)
movel(p[0.31593,-0.193018,0.257438, 1.57, 0.00, 0.00], a=0.01, v=0.1, r=0.01)
movel(p[0.315507,-0.193241,0.254342, 1.57, 0.00, 0.00], a=0.01, v=0.1, r=0.01)
movel(p[0.315362,-0.193201,0.250895, 1.57, 0.00, 0.00], a=0.01, v=0.1, r=0.01)
movel(p[0.315423,-0.192996,0.248618, 1.57, 0.00, 0.00], a=0.01, v=0.1, r=0.01)
movel(p[0.314931,-0.193077,0.246952, 1.57, 0.00, 0.00], a=0.01, v=0.1, r=0.01)
movel(p[0.314031,-0.19303,0.243422, 1.57, 0.00, 0.00], a=0.01, v=0.1, r=0.01)
movel(p[0.313876,-0.192649,0.241185, 1.57, 0.00, 0.00], a=0.01, v=0.1, r=0.01)
movel(p[0.314067,-0.192319,0.237417, 1.57, 0.00, 0.00], a=0.01, v=0.1, r=0.01)
movel(p[0.313281,-0.19237,0.234977, 1.57, 0.00, 0.00], a=0.01, v=0.1, r=0.01)
movel(p[0.314422,-0.192745,0.232507, 1.57, 0.00, 0.00], a=0.01, v=0.1, r=0.01)
movel(p[0.315097,-0.192858,0.228327, 1.57, 0.00, 0.00], a=0.01, v=0.1, r=0.01)
movel(p[0.315205,-0.192745,0.225234, 1.57, 0.00, 0.00], a=0.01, v=0.1, r=0.01)
movel(p[0.314835,-0.192751,0.2239, 1.57, 0.00, 0.00], a=0.01, v=0.1, r=0.01)
movel(p[0.31455,-0.192491,0.220291, 1.57, 0.00, 0.00], a=0.01, v=0.1, r=0.01)
movel(p[0.314141,-0.191555,0.216415, 1.57, 0.00, 0.00], a=0.01, v=0.1, r=0.01)
movel(p[0.313977,-0.191076,0.21414, 1.57, 0.00, 0.00], a=0.01, v=0.1, r=0.01)
movel(p[0.313237,-0.191096,0.211289, 1.57, 0.00, 0.00], a=0.01, v=0.1, r=0.01)
movel(p[0.313263,-0.190554,0.208473, 1.57, 0.00, 0.00], a=0.01, v=0.1, r=0.01)
movel(p[0.313438,-0.189866,0.206439, 1.57, 0.00, 0.00], a=0.01, v=0.1, r=0.01)
movel(p[0.313317,-0.189227,0.202353, 1.57, 0.00, 0.00], a=0.01, v=0.1, r=0.01)
movel(p[0.312609,-0.189074,0.199539, 1.57, 0.00, 0.00], a=0.01, v=0.1, r=0.01)
movel(p[0.312955,-0.189068,0.196115, 1.57, 0.00, 0.00], a=0.01, v=0.1, r=0.01)
movel(p[0.313259,-0.188563,0.192089, 1.57, 0.00, 0.00], a=0.01, v=0.1, r=0.01)
movel(p[0.313247,-0.187685,0.188763, 1.57, 0.00, 0.00], a=0.01, v=0.1, r=0.01)
movel(p[0.312896,-0.187636,0.187352, 1.57, 0.00, 0.00], a=0.01, v=0.1, r=0.01)
movel(p[0.312808,-0.18706,0.184127, 1.57, 0.00, 0.00], a=0.01, v=0.1, r=0.01)
movel(p[0.312604,-0.186466,0.180389, 1.57, 0.00, 0.00], a=0.01, v=0.1, r=0.01)
movel(p[0.312575,-0.185662,0.178563, 1.57, 0.00, 0.00], a=0.01, v=0.1, r=0.01)
movel(p[0.312097,-0.184788,0.174309, 1.57, 0.00, 0.00], a=0.01, v=0.1, r=0.01)
movel(p[0.311568,-0.184573,0.172079, 1.57, 0.00, 0.00], a=0.01, v=0.1, r=0.01)
movel(p[0.311762,-0.183862,0.170788, 1.57, 0.00, 0.00], a=0.01, v=0.1, r=0.01)
movel(p[0.311961,-0.183236,0.167493, 1.57, 0.00, 0.00], a=0.01, v=0.1, r=0.01)
movel(p[0.31175,-0.182453,0.164804, 1.57, 0.00, 0.00], a=0.01, v=0.1, r=0.01)
movel(p[0.311428,-0.182263,0.163393, 1.57, 0.00, 0.00], a=0.01, v=0.1, r=0.01)
movel(p[0.311265,-0.181365,0.160469, 1.57, 0.00, 0.00], a=0.01, v=0.1, r=0.01)
movel(p[0.31146,-0.18012,0.156669, 1.57, 0.00, 0.00], a=0.01, v=0.1, r=0.01)
movel(p[0.311431,-0.179345,0.155429, 1.57, 0.00, 0.00], a=0.01, v=0.1, r=0.01)
movel(p[0.311216,-0.179117,0.154165, 1.57, 0.00, 0.00], a=0.01, v=0.1, r=0.01)
movel(p[0.311305,-0.17843,0.152668, 1.57, 0.00, 0.00], a=0.01, v=0.1, r=0.01)
movel(p[0.311358,-0.177859,0.15124, 1.57, 0.00, 0.00], a=0.01, v=0.1, r=0.01)
movel(p[0.311826,-0.177448,0.151009, 1.57, 0.00, 0.00], a=0.01, v=0.1, r=0.01)
movel(p[0.311677,-0.177213,0.149927, 1.57, 0.00, 0.00], a=0.01, v=0.1, r=0.01)
movel(p[0.311407,-0.176797,0.148643, 1.57, 0.00, 0.00], a=0.01, v=0.1, r=0.01)
movel(p[0.311266,-0.17641,0.14772, 1.57, 0.00, 0.00], a=0.01, v=0.1, r=0.01)
movel(p[0.311983,-0.175776,0.14687, 1.57, 0.00, 0.00], a=0.01, v=0.1, r=0.01)
movel(p[0.311887,-0.175546,0.146028, 1.57, 0.00, 0.00], a=0.01, v=0.1, r=0.01)
movel(p[0.312199,-0.17485,0.144633, 1.57, 0.00, 0.00], a=0.01, v=0.1, r=0.01)
movel(p[0.312685,-0.174492,0.144691, 1.57, 0.00, 0.00], a=0.01, v=0.1, r=0.01)
movel(p[0.312195,-0.173952,0.144706, 1.57, 0.00, 0.00], a=0.01, v=0.1, r=0.01)
movel(p[0.312056,-0.173515,0.143665, 1.57, 0.00, 0.00], a=0.01, v=0.1, r=0.01)
movel(p[0.311949,-0.173009,0.143329, 1.57, 0.00, 0.00], a=0.01, v=0.1, r=0.01)
movel(p[0.311949,-0.173256,0.143637, 1.57, 0.00, 0.00], a=0.01, v=0.1, r=0.01)
movel(p[0.311948,-0.173394,0.143788, 1.57, 0.00, 0.00], a=0.01, v=0.1, r=0.01)
movel(p[0.311738,-0.173048,0.143839, 1.57, 0.00, 0.00], a=0.01, v=0.1, r=0.01)
movel(p[0.311654,-0.172871,0.143564, 1.57, 0.00, 0.00], a=0.01, v=0.1, r=0.01)
movel(p[0.311802,-0.172553,0.143855, 1.57, 0.00, 0.00], a=0.01, v=0.1, r=0.01)
movel(p[0.312328,-0.172386,0.144373, 1.57, 0.00, 0.00], a=0.01, v=0.1, r=0.01)
movel(p[0.312261,-0.172206,0.14421, 1.57, 0.00, 0.00], a=0.01, v=0.1, r=0.01)
movel(p[0.312962,-0.171398,0.14492, 1.57, 0.00, 0.00], a=0.01, v=0.1, r=0.01)
movel(p[0.313341,-0.170761,0.145506, 1.57, 0.00, 0.00], a=0.01, v=0.1, r=0.01)
movel(p[0.313603,-0.169632,0.146216, 1.57, 0.00, 0.00], a=0.01, v=0.1, r=0.01)
movel(p[0.313582,-0.169163,0.146067, 1.57, 0.00, 0.00], a=0.01, v=0.1, r=0.01)
movel(p[0.314314,-0.167578,0.147008, 1.57, 0.00, 0.00], a=0.01, v=0.1, r=0.01)
movel(p[0.31518,-0.166305,0.14763, 1.57, 0.00, 0.00], a=0.01, v=0.1, r=0.01)
movel(p[0.315539,-0.164486,0.147946, 1.57, 0.00, 0.00], a=0.01, v=0.1, r=0.01)
movel(p[0.316004,-0.162272,0.148245, 1.57, 0.00, 0.00], a=0.01, v=0.1, r=0.01)
movel(p[0.316084,-0.161772,0.148303, 1.57, 0.00, 0.00], a=0.01, v=0.1, r=0.01)
movel(p[0.316929,-0.159316,0.149236, 1.57, 0.00, 0.00], a=0.01, v=0.1, r=0.01)
movel(p[0.317506,-0.156681,0.14944, 1.57, 0.00, 0.00], a=0.01, v=0.1, r=0.01)
movel(p[0.317224,-0.154749,0.149968, 1.57, 0.00, 0.00], a=0.01, v=0.1, r=0.01)
movel(p[0.317455,-0.153515,0.150232, 1.57, 0.00, 0.00], a=0.01, v=0.1, r=0.01)
movel(p[0.318186,-0.150005,0.151365, 1.57, 0.00, 0.00], a=0.01, v=0.1, r=0.01)
movel(p[0.317908,-0.146455,0.152533, 1.57, 0.00, 0.00], a=0.01, v=0.1, r=0.01)
movel(p[0.318635,-0.143616,0.153595, 1.57, 0.00, 0.00], a=0.01, v=0.1, r=0.01)
movel(p[0.319189,-0.141609,0.154152, 1.57, 0.00, 0.00], a=0.01, v=0.1, r=0.01)
movel(p[0.319554,-0.138584,0.154462, 1.57, 0.00, 0.00], a=0.01, v=0.1, r=0.01)
movel(p[0.320103,-0.135125,0.154975, 1.57, 0.00, 0.00], a=0.01, v=0.1, r=0.01)
movel(p[0.320776,-0.131644,0.155798, 1.57, 0.00, 0.00], a=0.01, v=0.1, r=0.01)
movel(p[0.321138,-0.130432,0.156112, 1.57, 0.00, 0.00], a=0.01, v=0.1, r=0.01)
movel(p[0.321849,-0.12711,0.157067, 1.57, 0.00, 0.00], a=0.01, v=0.1, r=0.01)
movel(p[0.321508,-0.122638,0.158329, 1.57, 0.00, 0.00], a=0.01, v=0.1, r=0.01)
movel(p[0.321065,-0.119777,0.15903, 1.57, 0.00, 0.00], a=0.01, v=0.1, r=0.01)
movel(p[0.321997,-0.116959,0.159697, 1.57, 0.00, 0.00], a=0.01, v=0.1, r=0.01)
movel(p[0.32101,-0.113081,0.160736, 1.57, 0.00, 0.00], a=0.01, v=0.1, r=0.01)
movel(p[0.32066,-0.109819,0.161281, 1.57, 0.00, 0.00], a=0.01, v=0.1, r=0.01)
movel(p[0.320622,-0.106468,0.162151, 1.57, 0.00, 0.00], a=0.01, v=0.1, r=0.01)
movel(p[0.321301,-0.104106,0.162667, 1.57, 0.00, 0.00], a=0.01, v=0.1, r=0.01)
movel(p[0.321597,-0.101054,0.163736, 1.57, 0.00, 0.00], a=0.01, v=0.1, r=0.01)
movel(p[0.321866,-0.097903,0.164518, 1.57, 0.00, 0.00], a=0.01, v=0.1, r=0.01)
movel(p[0.322751,-0.0940493,0.165065, 1.57, 0.00, 0.00], a=0.01, v=0.1, r=0.01)
movel(p[0.323196,-0.0925978,0.165415, 1.57, 0.00, 0.00], a=0.01, v=0.1, r=0.01)
movel(p[0.323582,-0.0889843,0.166163, 1.57, 0.00, 0.00], a=0.01, v=0.1, r=0.01)
movel(p[0.32469,-0.0850858,0.166972, 1.57, 0.00, 0.00], a=0.01, v=0.1, r=0.01)
movel(p[0.324729,-0.0818748,0.167896, 1.57, 0.00, 0.00], a=0.01, v=0.1, r=0.01)
movel(p[0.325372,-0.0796614,0.168517, 1.57, 0.00, 0.00], a=0.01, v=0.1, r=0.01)
movel(p[0.325666,-0.0753758,0.169751, 1.57, 0.00, 0.00], a=0.01, v=0.1, r=0.01)
movel(p[0.324995,-0.0731239,0.169639, 1.57, 0.00, 0.00], a=0.01, v=0.1, r=0.01)
movel(p[0.325265,-0.0682383,0.170494, 1.57, 0.00, 0.00], a=0.01, v=0.1, r=0.01)
movel(p[0.325238,-0.0646293,0.170961, 1.57, 0.00, 0.00], a=0.01, v=0.1, r=0.01)
movel(p[0.325677,-0.0624415,0.17161, 1.57, 0.00, 0.00], a=0.01, v=0.1, r=0.01)
movel(p[0.326282,-0.0588146,0.172354, 1.57, 0.00, 0.00], a=0.01, v=0.1, r=0.01)
movel(p[0.326909,-0.054526,0.17314, 1.57, 0.00, 0.00], a=0.01, v=0.1, r=0.01)
movel(p[0.327458,-0.0520827,0.173866, 1.57, 0.00, 0.00], a=0.01, v=0.1, r=0.01)
movel(p[0.32833,-0.0480357,0.174259, 1.57, 0.00, 0.00], a=0.01, v=0.1, r=0.01)
movel(p[0.329254,-0.0436324,0.17542, 1.57, 0.00, 0.00], a=0.01, v=0.1, r=0.01)
movel(p[0.329238,-0.0409834,0.17544, 1.57, 0.00, 0.00], a=0.01, v=0.1, r=0.01)
movel(p[0.329767,-0.038636,0.17615, 1.57, 0.00, 0.00], a=0.01, v=0.1, r=0.01)
movel(p[0.330424,-0.033779,0.176952, 1.57, 0.00, 0.00], a=0.01, v=0.1, r=0.01)
movel(p[0.330464,-0.0315964,0.176834, 1.57, 0.00, 0.00], a=0.01, v=0.1, r=0.01)
movel(p[0.330957,-0.0269162,0.17747, 1.57, 0.00, 0.00], a=0.01, v=0.1, r=0.01)
movel(p[0.330925,-0.0249563,0.177257, 1.57, 0.00, 0.00], a=0.01, v=0.1, r=0.01)
movel(p[0.331589,-0.0215434,0.178164, 1.57, 0.00, 0.00], a=0.01, v=0.1, r=0.01)
movel(p[0.331965,-0.0165155,0.178467, 1.57, 0.00, 0.00], a=0.01, v=0.1, r=0.01)
movel(p[0.332337,-0.0121294,0.179025, 1.57, 0.00, 0.00], a=0.01, v=0.1, r=0.01)
movel(p[0.332336,-0.00995799,0.179106, 1.57, 0.00, 0.00], a=0.01, v=0.1, r=0.01)
movel(p[0.33201,-0.00484651,0.180083, 1.57, 0.00, 0.00], a=0.01, v=0.1, r=0.01)
movel(p[0.332421,-0.00231403,0.180614, 1.57, 0.00, 0.00], a=0.01, v=0.1, r=0.01)
movel(p[0.332835,0.00174734,0.181266, 1.57, 0.00, 0.00], a=0.01, v=0.1, r=0.01)
movel(p[0.331808,0.0056654,0.181551, 1.57, 0.00, 0.00], a=0.01, v=0.1, r=0.01)
movel(p[0.332338,0.008817,0.182244, 1.57, 0.00, 0.00], a=0.01, v=0.1, r=0.01)
movel(p[0.331365,0.0114393,0.182182, 1.57, 0.00, 0.00], a=0.01, v=0.1, r=0.01)
movel(p[0.330729,0.0160316,0.183157, 1.57, 0.00, 0.00], a=0.01, v=0.1, r=0.01)
movel(p[0.330076,0.0200188,0.183914, 1.57, 0.00, 0.00], a=0.01, v=0.1, r=0.01)
movel(p[0.330296,0.0216067,0.18424, 1.57, 0.00, 0.00], a=0.01, v=0.1, r=0.01)
movel(p[0.32992,0.0261229,0.185555, 1.57, 0.00, 0.00], a=0.01, v=0.1, r=0.01)
movel(p[0.329929,0.0295031,0.186411, 1.57, 0.00, 0.00], a=0.01, v=0.1, r=0.01)
movel(p[0.329757,0.0326283,0.187246, 1.57, 0.00, 0.00], a=0.01, v=0.1, r=0.01)
movel(p[0.329985,0.0340722,0.187563, 1.57, 0.00, 0.00], a=0.01, v=0.1, r=0.01)
movel(p[0.329615,0.0377621,0.18875, 1.57, 0.00, 0.00], a=0.01, v=0.1, r=0.01)
movel(p[0.329343,0.0398457,0.189257, 1.57, 0.00, 0.00], a=0.01, v=0.1, r=0.01)
movel(p[0.328907,0.0425167,0.189686, 1.57, 0.00, 0.00], a=0.01, v=0.1, r=0.01)
movel(p[0.329274,0.0456173,0.190355, 1.57, 0.00, 0.00], a=0.01, v=0.1, r=0.01)
movel(p[0.328982,0.0467129,0.190127, 1.57, 0.00, 0.00], a=0.01, v=0.1, r=0.01)
movel(p[0.328583,0.0495804,0.191044, 1.57, 0.00, 0.00], a=0.01, v=0.1, r=0.01)
movel(p[0.327986,0.0525717,0.191871, 1.57, 0.00, 0.00], a=0.01, v=0.1, r=0.01)
movel(p[0.327084,0.0535913,0.192181, 1.57, 0.00, 0.00], a=0.01, v=0.1, r=0.01)
movel(p[0.327368,0.056262,0.192794, 1.57, 0.00, 0.00], a=0.01, v=0.1, r=0.01)
movel(p[0.327041,0.0586521,0.193312, 1.57, 0.00, 0.00], a=0.01, v=0.1, r=0.01)
movel(p[0.326758,0.0593356,0.19351, 1.57, 0.00, 0.00], a=0.01, v=0.1, r=0.01)
movel(p[0.326922,0.0609425,0.193885, 1.57, 0.00, 0.00], a=0.01, v=0.1, r=0.01)
movel(p[0.326661,0.0620437,0.193963, 1.57, 0.00, 0.00], a=0.01, v=0.1, r=0.01)
movel(p[0.32674,0.0620171,0.193823, 1.57, 0.00, 0.00], a=0.01, v=0.1, r=0.01)
movel(p[0.32695,0.0627578,0.19384, 1.57, 0.00, 0.00], a=0.01, v=0.1, r=0.01)
movel(p[0.327214,0.0634955,0.194101, 1.57, 0.00, 0.00], a=0.01, v=0.1, r=0.01)
movel(p[0.327311,0.0643241,0.194317, 1.57, 0.00, 0.00], a=0.01, v=0.1, r=0.01)
movel(p[0.32745,0.0646242,0.194489, 1.57, 0.00, 0.00], a=0.01, v=0.1, r=0.01)
movel(p[0.327257,0.0647551,0.194544, 1.57, 0.00, 0.00], a=0.01, v=0.1, r=0.01)
movel(p[0.32713,0.0642185,0.194525, 1.57, 0.00, 0.00], a=0.01, v=0.1, r=0.01)
movel(p[0.327239,0.0652281,0.194867, 1.57, 0.00, 0.00], a=0.01, v=0.1, r=0.01)
movel(p[0.327327,0.0648752,0.194995, 1.57, 0.00, 0.00], a=0.01, v=0.1, r=0.01)
movel(p[0.327597,0.0644302,0.195412, 1.57, 0.00, 0.00], a=0.01, v=0.1, r=0.01)
movel(p[0.32781,0.0642645,0.196144, 1.57, 0.00, 0.00], a=0.01, v=0.1, r=0.01)
movel(p[0.32795,0.0648364,0.196409, 1.57, 0.00, 0.00], a=0.01, v=0.1, r=0.01)
movel(p[0.32821,0.0640147,0.197147, 1.57, 0.00, 0.00], a=0.01, v=0.1, r=0.01)
movel(p[0.328794,0.0628915,0.198334, 1.57, 0.00, 0.00], a=0.01, v=0.1, r=0.01)
movel(p[0.329238,0.0618454,0.200003, 1.57, 0.00, 0.00], a=0.01, v=0.1, r=0.01)
movel(p[0.329337,0.0620653,0.200293, 1.57, 0.00, 0.00], a=0.01, v=0.1, r=0.01)
movel(p[0.329645,0.0610863,0.20242, 1.57, 0.00, 0.00], a=0.01, v=0.1, r=0.01)
movel(p[0.33037,0.0596691,0.204517, 1.57, 0.00, 0.00], a=0.01, v=0.1, r=0.01)
movel(p[0.330911,0.0580168,0.205743, 1.57, 0.00, 0.00], a=0.01, v=0.1, r=0.01)
movel(p[0.331055,0.0567754,0.208115, 1.57, 0.00, 0.00], a=0.01, v=0.1, r=0.01)
movel(p[0.331255,0.0567688,0.20901, 1.57, 0.00, 0.00], a=0.01, v=0.1, r=0.01)
movel(p[0.331589,0.0559748,0.211386, 1.57, 0.00, 0.00], a=0.01, v=0.1, r=0.01)
movel(p[0.332198,0.0551814,0.214283, 1.57, 0.00, 0.00], a=0.01, v=0.1, r=0.01)
movel(p[0.332499,0.0550591,0.215746, 1.57, 0.00, 0.00], a=0.01, v=0.1, r=0.01)
movel(p[0.332506,0.0537778,0.219056, 1.57, 0.00, 0.00], a=0.01, v=0.1, r=0.01)
movel(p[0.332401,0.0532624,0.223147, 1.57, 0.00, 0.00], a=0.01, v=0.1, r=0.01)
movel(p[0.332688,0.0521789,0.227426, 1.57, 0.00, 0.00], a=0.01, v=0.1, r=0.01)
movel(p[0.332849,0.0520272,0.22857, 1.57, 0.00, 0.00], a=0.01, v=0.1, r=0.01)
movel(p[0.333918,0.0506223,0.233185, 1.57, 0.00, 0.00], a=0.01, v=0.1, r=0.01)
movel(p[0.335084,0.0488498,0.23899, 1.57, 0.00, 0.00], a=0.01, v=0.1, r=0.01)
movel(p[0.335897,0.0467868,0.243723, 1.57, 0.00, 0.00], a=0.01, v=0.1, r=0.01)
movel(p[0.335721,0.0450939,0.248688, 1.57, 0.00, 0.00], a=0.01, v=0.1, r=0.01)
movel(p[0.336444,0.0447638,0.251761, 1.57, 0.00, 0.00], a=0.01, v=0.1, r=0.01)
movel(p[0.336642,0.0438957,0.255983, 1.57, 0.00, 0.00], a=0.01, v=0.1, r=0.01)
movel(p[0.337072,0.0430011,0.260794, 1.57, 0.00, 0.00], a=0.01, v=0.1, r=0.01)
movel(p[0.337407,0.0423045,0.265544, 1.57, 0.00, 0.00], a=0.01, v=0.1, r=0.01)
movel(p[0.337812,0.0421517,0.267397, 1.57, 0.00, 0.00], a=0.01, v=0.1, r=0.01)
movel(p[0.337802,0.0411938,0.272491, 1.57, 0.00, 0.00], a=0.01, v=0.1, r=0.01)
movel(p[0.337936,0.0399744,0.277391, 1.57, 0.00, 0.00], a=0.01, v=0.1, r=0.01)
movel(p[0.337592,0.0387914,0.281593, 1.57, 0.00, 0.00], a=0.01, v=0.1, r=0.01)
movel(p[0.338394,0.0383341,0.285523, 1.57, 0.00, 0.00], a=0.01, v=0.1, r=0.01)
movel(p[0.337975,0.0374521,0.291848, 1.57, 0.00, 0.00], a=0.01, v=0.1, r=0.01)
movel(p[0.337271,0.036178,0.29492, 1.57, 0.00, 0.00], a=0.01, v=0.1, r=0.01)
movel(p[0.336971,0.0350405,0.300127, 1.57, 0.00, 0.00], a=0.01, v=0.1, r=0.01)
movel(p[0.337503,0.0346186,0.304296, 1.57, 0.00, 0.00], a=0.01, v=0.1, r=0.01)
movel(p[0.337089,0.0340602,0.30728, 1.57, 0.00, 0.00], a=0.01, v=0.1, r=0.01)
movel(p[0.336752,0.033503,0.311699, 1.57, 0.00, 0.00], a=0.01, v=0.1, r=0.01)
movel(p[0.336374,0.0331066,0.315422, 1.57, 0.00, 0.00], a=0.01, v=0.1, r=0.01)
movel(p[0.336622,0.0328288,0.318307, 1.57, 0.00, 0.00], a=0.01, v=0.1, r=0.01)
movel(p[0.336025,0.0326057,0.321879, 1.57, 0.00, 0.00], a=0.01, v=0.1, r=0.01)
movel(p[0.33638,0.0324297,0.3257, 1.57, 0.00, 0.00], a=0.01, v=0.1, r=0.01)
movel(p[0.335981,0.0315646,0.327723, 1.57, 0.00, 0.00], a=0.01, v=0.1, r=0.01)
movel(p[0.336209,0.0313847,0.330999, 1.57, 0.00, 0.00], a=0.01, v=0.1, r=0.01)
movel(p[0.335624,0.030941,0.334529, 1.57, 0.00, 0.00], a=0.01, v=0.1, r=0.01)
movel(p[0.334774,0.0308892,0.33671, 1.57, 0.00, 0.00], a=0.01, v=0.1, r=0.01)
movel(p[0.334616,0.0301065,0.341142, 1.57, 0.00, 0.00], a=0.01, v=0.1, r=0.01)
movel(p[0.334484,0.0297992,0.343522, 1.57, 0.00, 0.00], a=0.01, v=0.1, r=0.01)
movel(p[0.334573,0.0296765,0.344993, 1.57, 0.00, 0.00], a=0.01, v=0.1, r=0.01)
movel(p[0.334051,0.0293441,0.348149, 1.57, 0.00, 0.00], a=0.01, v=0.1, r=0.01)
movel(p[0.334073,0.0285083,0.3507, 1.57, 0.00, 0.00], a=0.01, v=0.1, r=0.01)
movel(p[0.334195,0.0283422,0.352191, 1.57, 0.00, 0.00], a=0.01, v=0.1, r=0.01)
movel(p[0.334198,0.027553,0.354334, 1.57, 0.00, 0.00], a=0.01, v=0.1, r=0.01)
movel(p[0.334114,0.0274264,0.355625, 1.57, 0.00, 0.00], a=0.01, v=0.1, r=0.01)
movel(p[0.334226,0.0270485,0.356107, 1.57, 0.00, 0.00], a=0.01, v=0.1, r=0.01)
movel(p[0.33438,0.0266892,0.357563, 1.57, 0.00, 0.00], a=0.01, v=0.1, r=0.01)
movel(p[0.334448,0.0264531,0.359819, 1.57, 0.00, 0.00], a=0.01, v=0.1, r=0.01)
movel(p[0.334734,0.0266631,0.360122, 1.57, 0.00, 0.00], a=0.01, v=0.1, r=0.01)
movel(p[0.335104,0.0261956,0.362267, 1.57, 0.00, 0.00], a=0.01, v=0.1, r=0.01)
movel(p[0.335626,0.0257414,0.363236, 1.57, 0.00, 0.00], a=0.01, v=0.1, r=0.01)
movel(p[0.335661,0.0256439,0.36409, 1.57, 0.00, 0.00], a=0.01, v=0.1, r=0.01)
movel(p[0.3358,0.0252385,0.364993, 1.57, 0.00, 0.00], a=0.01, v=0.1, r=0.01)
movel(p[0.335916,0.0252601,0.365918, 1.57, 0.00, 0.00], a=0.01, v=0.1, r=0.01)
movel(p[0.335884,0.0252811,0.366028, 1.57, 0.00, 0.00], a=0.01, v=0.1, r=0.01)
movel(p[0.336108,0.0251407,0.36743, 1.57, 0.00, 0.00], a=0.01, v=0.1, r=0.01)
movel(p[0.33621,0.0250366,0.368383, 1.57, 0.00, 0.00], a=0.01, v=0.1, r=0.01)
movel(p[0.33645,0.0249922,0.368297, 1.57, 0.00, 0.00], a=0.01, v=0.1, r=0.01)
movel(p[0.336393,0.0251351,0.367779, 1.57, 0.00, 0.00], a=0.01, v=0.1, r=0.01)
movel(p[0.336596,0.0255879,0.367495, 1.57, 0.00, 0.00], a=0.01, v=0.1, r=0.01)
movel(p[0.336642,0.0255523,0.367928, 1.57, 0.00, 0.00], a=0.01, v=0.1, r=0.01)
movel(p[0.336756,0.0259975,0.367664, 1.57, 0.00, 0.00], a=0.01, v=0.1, r=0.01)
movel(p[0.33672,0.0261685,0.367314, 1.57, 0.00, 0.00], a=0.01, v=0.1, r=0.01)
movel(p[0.336749,0.0261534,0.367636, 1.57, 0.00, 0.00], a=0.01, v=0.1, r=0.01)
movel(p[0.336601,0.0265121,0.366797, 1.57, 0.00, 0.00], a=0.01, v=0.1, r=0.01)
movel(p[0.336459,0.0268733,0.365874, 1.57, 0.00, 0.00], a=0.01, v=0.1, r=0.01)
movel(p[0.336771,0.0274144,0.365408, 1.57, 0.00, 0.00], a=0.01, v=0.1, r=0.01)
movel(p[0.336807,0.0274385,0.365785, 1.57, 0.00, 0.00], a=0.01, v=0.1, r=0.01)
movel(p[0.336942,0.0278209,0.365217, 1.57, 0.00, 0.00], a=0.01, v=0.1, r=0.01)
movel(p[0.337347,0.0279953,0.364617, 1.57, 0.00, 0.00], a=0.01, v=0.1, r=0.01)
movel(p[0.337693,0.0282403,0.363997, 1.57, 0.00, 0.00], a=0.01, v=0.1, r=0.01)
movel(p[0.337717,0.0282822,0.364199, 1.57, 0.00, 0.00], a=0.01, v=0.1, r=0.01)
movel(p[0.338123,0.0284075,0.36358, 1.57, 0.00, 0.00], a=0.01, v=0.1, r=0.01)
movel(p[0.338357,0.0285775,0.363407, 1.57, 0.00, 0.00], a=0.01, v=0.1, r=0.01)
movel(p[0.338639,0.0289874,0.362854, 1.57, 0.00, 0.00], a=0.01, v=0.1, r=0.01)
movel(p[0.338811,0.029143,0.362113, 1.57, 0.00, 0.00], a=0.01, v=0.1, r=0.01)
movel(p[0.338861,0.0291837,0.362144, 1.57, 0.00, 0.00], a=0.01, v=0.1, r=0.01)
movel(p[0.339328,0.0293328,0.361686, 1.57, 0.00, 0.00], a=0.01, v=0.1, r=0.01)
movel(p[0.339726,0.0294193,0.360956, 1.57, 0.00, 0.00], a=0.01, v=0.1, r=0.01)
movel(p[0.339853,0.0294727,0.360929, 1.57, 0.00, 0.00], a=0.01, v=0.1, r=0.01)
movel(p[0.339899,0.029871,0.360264, 1.57, 0.00, 0.00], a=0.01, v=0.1, r=0.01)
movel(p[0.340117,0.0301502,0.359524, 1.57, 0.00, 0.00], a=0.01, v=0.1, r=0.01)
movel(p[0.340399,0.030199,0.358833, 1.57, 0.00, 0.00], a=0.01, v=0.1, r=0.01)
movel(p[0.340552,0.0302526,0.358722, 1.57, 0.00, 0.00], a=0.01, v=0.1, r=0.01)
movel(p[0.340736,0.0302834,0.35831, 1.57, 0.00, 0.00], a=0.01, v=0.1, r=0.01)
movel(p[0.340854,0.0302183,0.357848, 1.57, 0.00, 0.00], a=0.01, v=0.1, r=0.01)
movel(p[0.340879,0.0301994,0.357349, 1.57, 0.00, 0.00], a=0.01, v=0.1, r=0.01)
movel(p[0.340712,0.030478,0.357087, 1.57, 0.00, 0.00], a=0.01, v=0.1, r=0.01)
movel(p[0.340871,0.0304829,0.356933, 1.57, 0.00, 0.00], a=0.01, v=0.1, r=0.01)
movel(p[0.340669,0.0304555,0.356506, 1.57, 0.00, 0.00], a=0.01, v=0.1, r=0.01)
movel(p[0.340282,0.0303799,0.356268, 1.57, 0.00, 0.00], a=0.01, v=0.1, r=0.01)
movel(p[0.340193,0.0303182,0.355881, 1.57, 0.00, 0.00], a=0.01, v=0.1, r=0.01)
movel(p[0.340272,0.0303064,0.355787, 1.57, 0.00, 0.00], a=0.01, v=0.1, r=0.01)
movel(p[0.340175,0.0302535,0.355704, 1.57, 0.00, 0.00], a=0.01, v=0.1, r=0.01)
movel(p[0.340113,0.0302312,0.355613, 1.57, 0.00, 0.00], a=0.01, v=0.1, r=0.01)
movel(p[0.340101,0.0301125,0.355563, 1.57, 0.00, 0.00], a=0.01, v=0.1, r=0.01)
movel(p[0.340131,0.0301079,0.355529, 1.57, 0.00, 0.00], a=0.01, v=0.1, r=0.01)
movel(p[0.340158,0.0300221,0.355529, 1.57, 0.00, 0.00], a=0.01, v=0.1, r=0.01)
movel(p[0.340107,0.0297613,0.35532, 1.57, 0.00, 0.00], a=0.01, v=0.1, r=0.01)
movel(p[0.340055,0.029512,0.35529, 1.57, 0.00, 0.00], a=0.01, v=0.1, r=0.01)
movel(p[0.340134,0.0294725,0.355176, 1.57, 0.00, 0.00], a=0.01, v=0.1, r=0.01)
movel(p[0.339914,0.0294283,0.355116, 1.57, 0.00, 0.00], a=0.01, v=0.1, r=0.01)
movel(p[0.339602,0.0292854,0.355212, 1.57, 0.00, 0.00], a=0.01, v=0.1, r=0.01)
movel(p[0.339459,0.0294246,0.354975, 1.57, 0.00, 0.00], a=0.01, v=0.1, r=0.01)
movel(p[0.339504,0.0293814,0.354893, 1.57, 0.00, 0.00], a=0.01, v=0.1, r=0.01)
movel(p[0.339357,0.0292373,0.354694, 1.57, 0.00, 0.00], a=0.01, v=0.1, r=0.01)
movel(p[0.339271,0.0292147,0.354623, 1.57, 0.00, 0.00], a=0.01, v=0.1, r=0.01)
movel(p[0.339274,0.0291373,0.354582, 1.57, 0.00, 0.00], a=0.01, v=0.1, r=0.01)
movel(p[0.339301,0.0290838,0.354496, 1.57, 0.00, 0.00], a=0.01, v=0.1, r=0.01)
movel(p[0.3392,0.0291675,0.354496, 1.57, 0.00, 0.00], a=0.01, v=0.1, r=0.01)
movel(p[0.338974,0.0291165,0.354333, 1.57, 0.00, 0.00], a=0.01, v=0.1, r=0.01)
movel(p[0.339038,0.0288734,0.354232, 1.57, 0.00, 0.00], a=0.01, v=0.1, r=0.01)
movel(p[0.339056,0.0287067,0.354031, 1.57, 0.00, 0.00], a=0.01, v=0.1, r=0.01)
movel(p[0.339051,0.0285918,0.353888, 1.57, 0.00, 0.00], a=0.01, v=0.1, r=0.01)
movel(p[0.339087,0.028632,0.353955, 1.57, 0.00, 0.00], a=0.01, v=0.1, r=0.01)
movel(p[0.339069,0.0286212,0.353998, 1.57, 0.00, 0.00], a=0.01, v=0.1, r=0.01)
movel(p[0.339063,0.0285551,0.353915, 1.57, 0.00, 0.00], a=0.01, v=0.1, r=0.01)
movel(p[0.338958,0.0284894,0.353789, 1.57, 0.00, 0.00], a=0.01, v=0.1, r=0.01)
movel(p[0.33913,0.0284678,0.353352, 1.57, 0.00, 0.00], a=0.01, v=0.1, r=0.01)
movel(p[0.339207,0.0285679,0.353209, 1.57, 0.00, 0.00], a=0.01, v=0.1, r=0.01)
movel(p[0.339353,0.0287202,0.353132, 1.57, 0.00, 0.00], a=0.01, v=0.1, r=0.01)
movel(p[0.339339,0.0286593,0.353043, 1.57, 0.00, 0.00], a=0.01, v=0.1, r=0.01)
movel(p[0.339424,0.0287503,0.35291, 1.57, 0.00, 0.00], a=0.01, v=0.1, r=0.01)
movel(p[0.339514,0.0288361,0.352736, 1.57, 0.00, 0.00], a=0.01, v=0.1, r=0.01)
movel(p[0.339338,0.0290025,0.352366, 1.57, 0.00, 0.00], a=0.01, v=0.1, r=0.01)
movel(p[0.339309,0.0289359,0.352218, 1.57, 0.00, 0.00], a=0.01, v=0.1, r=0.01)
movel(p[0.339131,0.029384,0.35188, 1.57, 0.00, 0.00], a=0.01, v=0.1, r=0.01)
movel(p[0.338441,0.0298013,0.35145, 1.57, 0.00, 0.00], a=0.01, v=0.1, r=0.01)
movel(p[0.338258,0.030104,0.350664, 1.57, 0.00, 0.00], a=0.01, v=0.1, r=0.01)
movel(p[0.338248,0.0300825,0.350558, 1.57, 0.00, 0.00], a=0.01, v=0.1, r=0.01)
movel(p[0.338236,0.0305505,0.350225, 1.57, 0.00, 0.00], a=0.01, v=0.1, r=0.01)
movel(p[0.338618,0.0306453,0.349754, 1.57, 0.00, 0.00], a=0.01, v=0.1, r=0.01)
movel(p[0.338744,0.0308794,0.349414, 1.57, 0.00, 0.00], a=0.01, v=0.1, r=0.01)
movel(p[0.338731,0.0308818,0.349154, 1.57, 0.00, 0.00], a=0.01, v=0.1, r=0.01)
movel(p[0.338966,0.0309453,0.348973, 1.57, 0.00, 0.00], a=0.01, v=0.1, r=0.01)
movel(p[0.338976,0.031074,0.348831, 1.57, 0.00, 0.00], a=0.01, v=0.1, r=0.01)
movel(p[0.338851,0.0312665,0.348587, 1.57, 0.00, 0.00], a=0.01, v=0.1, r=0.01)
movel(p[0.338842,0.0312689,0.348464, 1.57, 0.00, 0.00], a=0.01, v=0.1, r=0.01)
movel(p[0.338615,0.0314341,0.348127, 1.57, 0.00, 0.00], a=0.01, v=0.1, r=0.01)
movel(p[0.338095,0.031664,0.347858, 1.57, 0.00, 0.00], a=0.01, v=0.1, r=0.01)
movel(p[0.337827,0.0320149,0.347122, 1.57, 0.00, 0.00], a=0.01, v=0.1, r=0.01)
movel(p[0.337818,0.0320188,0.347057, 1.57, 0.00, 0.00], a=0.01, v=0.1, r=0.01)
movel(p[0.337577,0.0321458,0.346704, 1.57, 0.00, 0.00], a=0.01, v=0.1, r=0.01)
movel(p[0.337446,0.0322332,0.346512, 1.57, 0.00, 0.00], a=0.01, v=0.1, r=0.01)
movel(p[0.337569,0.032215,0.346511, 1.57, 0.00, 0.00], a=0.01, v=0.1, r=0.01)
movel(p[0.337556,0.0322194,0.346404, 1.57, 0.00, 0.00], a=0.01, v=0.1, r=0.01)
movel(p[0.337614,0.0322395,0.346287, 1.57, 0.00, 0.00], a=0.01, v=0.1, r=0.01)
movel(p[0.338047,0.0321274,0.346115, 1.57, 0.00, 0.00], a=0.01, v=0.1, r=0.01)
movel(p[0.338362,0.0319199,0.345858, 1.57, 0.00, 0.00], a=0.01, v=0.1, r=0.01)
movel(p[0.338352,0.0319174,0.345724, 1.57, 0.00, 0.00], a=0.01, v=0.1, r=0.01)
movel(p[0.338988,0.0316244,0.345396, 1.57, 0.00, 0.00], a=0.01, v=0.1, r=0.01)
movel(p[0.339333,0.0315377,0.34515, 1.57, 0.00, 0.00], a=0.01, v=0.1, r=0.01)
movel(p[0.340005,0.031593,0.344971, 1.57, 0.00, 0.00], a=0.01, v=0.1, r=0.01)
movel(p[0.34063,0.0313988,0.345101, 1.57, 0.00, 0.00], a=0.01, v=0.1, r=0.01)
movel(p[0.340624,0.0313969,0.345043, 1.57, 0.00, 0.00], a=0.01, v=0.1, r=0.01)
movel(p[0.34067,0.0313959,0.345195, 1.57, 0.00, 0.00], a=0.01, v=0.1, r=0.01)
movel(p[0.340717,0.0313295,0.3452, 1.57, 0.00, 0.00], a=0.01, v=0.1, r=0.01)
movel(p[0.340777,0.0312261,0.345022, 1.57, 0.00, 0.00], a=0.01, v=0.1, r=0.01)
movel(p[0.34077,0.0312226,0.344911, 1.57, 0.00, 0.00], a=0.01, v=0.1, r=0.01)
movel(p[0.340844,0.0311438,0.3446, 1.57, 0.00, 0.00], a=0.01, v=0.1, r=0.01)
movel(p[0.340828,0.0311177,0.344416, 1.57, 0.00, 0.00], a=0.01, v=0.1, r=0.01)
movel(p[0.340891,0.0310968,0.344528, 1.57, 0.00, 0.00], a=0.01, v=0.1, r=0.01)
movel(p[0.340893,0.0310968,0.344462, 1.57, 0.00, 0.00], a=0.01, v=0.1, r=0.01)
movel(p[0.341344,0.0309094,0.344004, 1.57, 0.00, 0.00], a=0.01, v=0.1, r=0.01)
movel(p[0.341729,0.0307998,0.343887, 1.57, 0.00, 0.00], a=0.01, v=0.1, r=0.01)
movel(p[0.341633,0.0306606,0.344104, 1.57, 0.00, 0.00], a=0.01, v=0.1, r=0.01)
movel(p[0.341637,0.0306581,0.343999, 1.57, 0.00, 0.00], a=0.01, v=0.1, r=0.01)
movel(p[0.34158,0.030534,0.344058, 1.57, 0.00, 0.00], a=0.01, v=0.1, r=0.01)
movel(p[0.34146,0.030442,0.344031, 1.57, 0.00, 0.00], a=0.01, v=0.1, r=0.01)
movel(p[0.34127,0.0303278,0.343966, 1.57, 0.00, 0.00], a=0.01, v=0.1, r=0.01)
movel(p[0.341109,0.0302061,0.344079, 1.57, 0.00, 0.00], a=0.01, v=0.1, r=0.01)
movel(p[0.341112,0.0302043,0.344039, 1.57, 0.00, 0.00], a=0.01, v=0.1, r=0.01)
movel(p[0.341126,0.0300376,0.34408, 1.57, 0.00, 0.00], a=0.01, v=0.1, r=0.01)
movel(p[0.341065,0.0297801,0.344449, 1.57, 0.00, 0.00], a=0.01, v=0.1, r=0.01)
movel(p[0.341068,0.0297662,0.344383, 1.57, 0.00, 0.00], a=0.01, v=0.1, r=0.01)
end
