def myProg():
movel(p[-0.248177,0.00558926,0.31558, 1.57, 0.00, 0.00], a=0.01, v=0.1, r=0.01)
movel(p[-0.249014,0.00185648,0.31596, 1.57, 0.00, 0.00], a=0.01, v=0.1, r=0.01)
movel(p[-0.249249,5.21873e-05,0.315854, 1.57, 0.00, 0.00], a=0.01, v=0.1, r=0.01)
movel(p[-0.249976,-0.0037775,0.315956, 1.57, 0.00, 0.00], a=0.01, v=0.1, r=0.01)
movel(p[-0.250443,-0.00747833,0.315952, 1.57, 0.00, 0.00], a=0.01, v=0.1, r=0.01)
movel(p[-0.251008,-0.0108068,0.315711, 1.57, 0.00, 0.00], a=0.01, v=0.1, r=0.01)
movel(p[-0.251342,-0.0137399,0.315899, 1.57, 0.00, 0.00], a=0.01, v=0.1, r=0.01)
movel(p[-0.251697,-0.0160491,0.31578, 1.57, 0.00, 0.00], a=0.01, v=0.1, r=0.01)
movel(p[-0.25138,-0.018336,0.315139, 1.57, 0.00, 0.00], a=0.01, v=0.1, r=0.01)
movel(p[-0.251484,-0.0225685,0.313873, 1.57, 0.00, 0.00], a=0.01, v=0.1, r=0.01)
movel(p[-0.251496,-0.026204,0.312937, 1.57, 0.00, 0.00], a=0.01, v=0.1, r=0.01)
movel(p[-0.251796,-0.0279693,0.312705, 1.57, 0.00, 0.00], a=0.01, v=0.1, r=0.01)
movel(p[-0.251567,-0.0321713,0.312235, 1.57, 0.00, 0.00], a=0.01, v=0.1, r=0.01)
movel(p[-0.251248,-0.035945,0.312657, 1.57, 0.00, 0.00], a=0.01, v=0.1, r=0.01)
movel(p[-0.251485,-0.0397224,0.312225, 1.57, 0.00, 0.00], a=0.01, v=0.1, r=0.01)
movel(p[-0.251704,-0.0416524,0.311994, 1.57, 0.00, 0.00], a=0.01, v=0.1, r=0.01)
movel(p[-0.251624,-0.0452807,0.310858, 1.57, 0.00, 0.00], a=0.01, v=0.1, r=0.01)
movel(p[-0.251414,-0.0476616,0.310958, 1.57, 0.00, 0.00], a=0.01, v=0.1, r=0.01)
movel(p[-0.250988,-0.0511189,0.310231, 1.57, 0.00, 0.00], a=0.01, v=0.1, r=0.01)
movel(p[-0.251498,-0.0544234,0.309751, 1.57, 0.00, 0.00], a=0.01, v=0.1, r=0.01)
movel(p[-0.251278,-0.0568615,0.309811, 1.57, 0.00, 0.00], a=0.01, v=0.1, r=0.01)
movel(p[-0.251134,-0.0607631,0.309668, 1.57, 0.00, 0.00], a=0.01, v=0.1, r=0.01)
movel(p[-0.250979,-0.0650228,0.309305, 1.57, 0.00, 0.00], a=0.01, v=0.1, r=0.01)
movel(p[-0.251209,-0.0666934,0.309067, 1.57, 0.00, 0.00], a=0.01, v=0.1, r=0.01)
movel(p[-0.251103,-0.0725104,0.309028, 1.57, 0.00, 0.00], a=0.01, v=0.1, r=0.01)
movel(p[-0.251557,-0.0758967,0.308673, 1.57, 0.00, 0.00], a=0.01, v=0.1, r=0.01)
movel(p[-0.251763,-0.0782326,0.308543, 1.57, 0.00, 0.00], a=0.01, v=0.1, r=0.01)
movel(p[-0.252198,-0.0818261,0.308097, 1.57, 0.00, 0.00], a=0.01, v=0.1, r=0.01)
movel(p[-0.252621,-0.087581,0.30823, 1.57, 0.00, 0.00], a=0.01, v=0.1, r=0.01)
movel(p[-0.251732,-0.0892767,0.308367, 1.57, 0.00, 0.00], a=0.01, v=0.1, r=0.01)
movel(p[-0.251658,-0.0936988,0.308368, 1.57, 0.00, 0.00], a=0.01, v=0.1, r=0.01)
movel(p[-0.252321,-0.0996735,0.307995, 1.57, 0.00, 0.00], a=0.01, v=0.1, r=0.01)
movel(p[-0.252512,-0.10152,0.307852, 1.57, 0.00, 0.00], a=0.01, v=0.1, r=0.01)
movel(p[-0.252829,-0.104172,0.306884, 1.57, 0.00, 0.00], a=0.01, v=0.1, r=0.01)
movel(p[-0.253154,-0.10848,0.306319, 1.57, 0.00, 0.00], a=0.01, v=0.1, r=0.01)
movel(p[-0.253668,-0.111489,0.306657, 1.57, 0.00, 0.00], a=0.01, v=0.1, r=0.01)
movel(p[-0.253542,-0.11604,0.306335, 1.57, 0.00, 0.00], a=0.01, v=0.1, r=0.01)
movel(p[-0.253947,-0.119222,0.306421, 1.57, 0.00, 0.00], a=0.01, v=0.1, r=0.01)
movel(p[-0.254438,-0.121113,0.306111, 1.57, 0.00, 0.00], a=0.01, v=0.1, r=0.01)
movel(p[-0.254997,-0.124588,0.305638, 1.57, 0.00, 0.00], a=0.01, v=0.1, r=0.01)
movel(p[-0.255274,-0.128255,0.305231, 1.57, 0.00, 0.00], a=0.01, v=0.1, r=0.01)
movel(p[-0.255358,-0.129796,0.304264, 1.57, 0.00, 0.00], a=0.01, v=0.1, r=0.01)
movel(p[-0.255727,-0.133246,0.303046, 1.57, 0.00, 0.00], a=0.01, v=0.1, r=0.01)
movel(p[-0.256462,-0.136882,0.30238, 1.57, 0.00, 0.00], a=0.01, v=0.1, r=0.01)
movel(p[-0.25605,-0.138326,0.301938, 1.57, 0.00, 0.00], a=0.01, v=0.1, r=0.01)
movel(p[-0.255494,-0.140104,0.300665, 1.57, 0.00, 0.00], a=0.01, v=0.1, r=0.01)
movel(p[-0.25593,-0.143444,0.299501, 1.57, 0.00, 0.00], a=0.01, v=0.1, r=0.01)
movel(p[-0.255183,-0.143745,0.29883, 1.57, 0.00, 0.00], a=0.01, v=0.1, r=0.01)
movel(p[-0.255574,-0.145153,0.298504, 1.57, 0.00, 0.00], a=0.01, v=0.1, r=0.01)
movel(p[-0.254399,-0.146871,0.297553, 1.57, 0.00, 0.00], a=0.01, v=0.1, r=0.01)
movel(p[-0.254067,-0.146703,0.29724, 1.57, 0.00, 0.00], a=0.01, v=0.1, r=0.01)
movel(p[-0.254064,-0.147602,0.296518, 1.57, 0.00, 0.00], a=0.01, v=0.1, r=0.01)
movel(p[-0.254548,-0.149664,0.296005, 1.57, 0.00, 0.00], a=0.01, v=0.1, r=0.01)
movel(p[-0.254535,-0.14879,0.29568, 1.57, 0.00, 0.00], a=0.01, v=0.1, r=0.01)
movel(p[-0.254606,-0.149315,0.2947, 1.57, 0.00, 0.00], a=0.01, v=0.1, r=0.01)
movel(p[-0.255056,-0.148881,0.29405, 1.57, 0.00, 0.00], a=0.01, v=0.1, r=0.01)
movel(p[-0.255241,-0.1496,0.29379, 1.57, 0.00, 0.00], a=0.01, v=0.1, r=0.01)
movel(p[-0.255651,-0.149016,0.292909, 1.57, 0.00, 0.00], a=0.01, v=0.1, r=0.01)
movel(p[-0.255902,-0.148493,0.29194, 1.57, 0.00, 0.00], a=0.01, v=0.1, r=0.01)
movel(p[-0.255858,-0.147735,0.291203, 1.57, 0.00, 0.00], a=0.01, v=0.1, r=0.01)
movel(p[-0.25613,-0.148587,0.290684, 1.57, 0.00, 0.00], a=0.01, v=0.1, r=0.01)
movel(p[-0.256321,-0.147858,0.289819, 1.57, 0.00, 0.00], a=0.01, v=0.1, r=0.01)
movel(p[-0.25633,-0.146937,0.288942, 1.57, 0.00, 0.00], a=0.01, v=0.1, r=0.01)
movel(p[-0.256335,-0.146075,0.287849, 1.57, 0.00, 0.00], a=0.01, v=0.1, r=0.01)
movel(p[-0.256524,-0.146446,0.287457, 1.57, 0.00, 0.00], a=0.01, v=0.1, r=0.01)
movel(p[-0.256254,-0.145321,0.286297, 1.57, 0.00, 0.00], a=0.01, v=0.1, r=0.01)
movel(p[-0.25621,-0.144542,0.285349, 1.57, 0.00, 0.00], a=0.01, v=0.1, r=0.01)
movel(p[-0.256286,-0.143817,0.284241, 1.57, 0.00, 0.00], a=0.01, v=0.1, r=0.01)
movel(p[-0.256397,-0.143955,0.283955, 1.57, 0.00, 0.00], a=0.01, v=0.1, r=0.01)
movel(p[-0.256452,-0.143392,0.282545, 1.57, 0.00, 0.00], a=0.01, v=0.1, r=0.01)
movel(p[-0.256192,-0.142841,0.281145, 1.57, 0.00, 0.00], a=0.01, v=0.1, r=0.01)
movel(p[-0.255594,-0.142129,0.280106, 1.57, 0.00, 0.00], a=0.01, v=0.1, r=0.01)
movel(p[-0.255224,-0.141421,0.278048, 1.57, 0.00, 0.00], a=0.01, v=0.1, r=0.01)
movel(p[-0.255377,-0.141531,0.277437, 1.57, 0.00, 0.00], a=0.01, v=0.1, r=0.01)
movel(p[-0.254916,-0.140725,0.276294, 1.57, 0.00, 0.00], a=0.01, v=0.1, r=0.01)
movel(p[-0.254712,-0.140022,0.273594, 1.57, 0.00, 0.00], a=0.01, v=0.1, r=0.01)
movel(p[-0.254449,-0.139335,0.270934, 1.57, 0.00, 0.00], a=0.01, v=0.1, r=0.01)
movel(p[-0.254702,-0.139259,0.269485, 1.57, 0.00, 0.00], a=0.01, v=0.1, r=0.01)
movel(p[-0.254164,-0.139248,0.267285, 1.57, 0.00, 0.00], a=0.01, v=0.1, r=0.01)
movel(p[-0.253832,-0.139103,0.264333, 1.57, 0.00, 0.00], a=0.01, v=0.1, r=0.01)
movel(p[-0.253928,-0.139116,0.263519, 1.57, 0.00, 0.00], a=0.01, v=0.1, r=0.01)
movel(p[-0.25385,-0.13843,0.259963, 1.57, 0.00, 0.00], a=0.01, v=0.1, r=0.01)
movel(p[-0.254133,-0.138128,0.2562, 1.57, 0.00, 0.00], a=0.01, v=0.1, r=0.01)
movel(p[-0.253838,-0.13722,0.253453, 1.57, 0.00, 0.00], a=0.01, v=0.1, r=0.01)
movel(p[-0.253143,-0.136596,0.249663, 1.57, 0.00, 0.00], a=0.01, v=0.1, r=0.01)
movel(p[-0.253489,-0.136631,0.247151, 1.57, 0.00, 0.00], a=0.01, v=0.1, r=0.01)
movel(p[-0.253999,-0.136247,0.242239, 1.57, 0.00, 0.00], a=0.01, v=0.1, r=0.01)
movel(p[-0.254256,-0.135913,0.239304, 1.57, 0.00, 0.00], a=0.01, v=0.1, r=0.01)
movel(p[-0.254069,-0.135739,0.236927, 1.57, 0.00, 0.00], a=0.01, v=0.1, r=0.01)
movel(p[-0.254307,-0.13578,0.235458, 1.57, 0.00, 0.00], a=0.01, v=0.1, r=0.01)
movel(p[-0.254132,-0.135728,0.232128, 1.57, 0.00, 0.00], a=0.01, v=0.1, r=0.01)
movel(p[-0.254234,-0.135565,0.229038, 1.57, 0.00, 0.00], a=0.01, v=0.1, r=0.01)
movel(p[-0.253784,-0.135414,0.227259, 1.57, 0.00, 0.00], a=0.01, v=0.1, r=0.01)
movel(p[-0.254071,-0.135518,0.224526, 1.57, 0.00, 0.00], a=0.01, v=0.1, r=0.01)
movel(p[-0.253868,-0.135418,0.221192, 1.57, 0.00, 0.00], a=0.01, v=0.1, r=0.01)
movel(p[-0.253438,-0.135512,0.219387, 1.57, 0.00, 0.00], a=0.01, v=0.1, r=0.01)
movel(p[-0.252595,-0.13584,0.216593, 1.57, 0.00, 0.00], a=0.01, v=0.1, r=0.01)
movel(p[-0.251889,-0.136122,0.21274, 1.57, 0.00, 0.00], a=0.01, v=0.1, r=0.01)
movel(p[-0.251947,-0.136143,0.211921, 1.57, 0.00, 0.00], a=0.01, v=0.1, r=0.01)
movel(p[-0.250654,-0.136622,0.208348, 1.57, 0.00, 0.00], a=0.01, v=0.1, r=0.01)
movel(p[-0.249945,-0.136563,0.204364, 1.57, 0.00, 0.00], a=0.01, v=0.1, r=0.01)
movel(p[-0.249922,-0.136759,0.201222, 1.57, 0.00, 0.00], a=0.01, v=0.1, r=0.01)
movel(p[-0.249573,-0.136927,0.199248, 1.57, 0.00, 0.00], a=0.01, v=0.1, r=0.01)
movel(p[-0.249036,-0.137288,0.19625, 1.57, 0.00, 0.00], a=0.01, v=0.1, r=0.01)
movel(p[-0.248562,-0.137363,0.193674, 1.57, 0.00, 0.00], a=0.01, v=0.1, r=0.01)
movel(p[-0.2478,-0.136901,0.192391, 1.57, 0.00, 0.00], a=0.01, v=0.1, r=0.01)
movel(p[-0.247628,-0.137064,0.189327, 1.57, 0.00, 0.00], a=0.01, v=0.1, r=0.01)
movel(p[-0.247538,-0.136503,0.186165, 1.57, 0.00, 0.00], a=0.01, v=0.1, r=0.01)
movel(p[-0.247381,-0.136268,0.183305, 1.57, 0.00, 0.00], a=0.01, v=0.1, r=0.01)
movel(p[-0.247321,-0.135321,0.181588, 1.57, 0.00, 0.00], a=0.01, v=0.1, r=0.01)
movel(p[-0.247248,-0.135287,0.179998, 1.57, 0.00, 0.00], a=0.01, v=0.1, r=0.01)
movel(p[-0.247718,-0.133937,0.176302, 1.57, 0.00, 0.00], a=0.01, v=0.1, r=0.01)
movel(p[-0.247856,-0.133285,0.174563, 1.57, 0.00, 0.00], a=0.01, v=0.1, r=0.01)
movel(p[-0.247831,-0.133157,0.173084, 1.57, 0.00, 0.00], a=0.01, v=0.1, r=0.01)
movel(p[-0.24855,-0.132064,0.170322, 1.57, 0.00, 0.00], a=0.01, v=0.1, r=0.01)
movel(p[-0.248861,-0.131359,0.167145, 1.57, 0.00, 0.00], a=0.01, v=0.1, r=0.01)
movel(p[-0.249063,-0.13048,0.164668, 1.57, 0.00, 0.00], a=0.01, v=0.1, r=0.01)
movel(p[-0.249174,-0.13028,0.163255, 1.57, 0.00, 0.00], a=0.01, v=0.1, r=0.01)
movel(p[-0.250001,-0.129414,0.160456, 1.57, 0.00, 0.00], a=0.01, v=0.1, r=0.01)
movel(p[-0.250576,-0.128706,0.159099, 1.57, 0.00, 0.00], a=0.01, v=0.1, r=0.01)
movel(p[-0.25063,-0.127969,0.156434, 1.57, 0.00, 0.00], a=0.01, v=0.1, r=0.01)
movel(p[-0.251265,-0.126853,0.153417, 1.57, 0.00, 0.00], a=0.01, v=0.1, r=0.01)
movel(p[-0.251449,-0.126051,0.151692, 1.57, 0.00, 0.00], a=0.01, v=0.1, r=0.01)
movel(p[-0.252134,-0.125085,0.147851, 1.57, 0.00, 0.00], a=0.01, v=0.1, r=0.01)
movel(p[-0.252518,-0.124756,0.145575, 1.57, 0.00, 0.00], a=0.01, v=0.1, r=0.01)
movel(p[-0.253137,-0.124164,0.144687, 1.57, 0.00, 0.00], a=0.01, v=0.1, r=0.01)
movel(p[-0.253461,-0.123893,0.142948, 1.57, 0.00, 0.00], a=0.01, v=0.1, r=0.01)
movel(p[-0.254317,-0.122966,0.141265, 1.57, 0.00, 0.00], a=0.01, v=0.1, r=0.01)
movel(p[-0.254763,-0.121989,0.140504, 1.57, 0.00, 0.00], a=0.01, v=0.1, r=0.01)
movel(p[-0.255522,-0.121276,0.137965, 1.57, 0.00, 0.00], a=0.01, v=0.1, r=0.01)
movel(p[-0.255984,-0.12081,0.135805, 1.57, 0.00, 0.00], a=0.01, v=0.1, r=0.01)
movel(p[-0.256292,-0.120591,0.134873, 1.57, 0.00, 0.00], a=0.01, v=0.1, r=0.01)
movel(p[-0.25674,-0.120066,0.132608, 1.57, 0.00, 0.00], a=0.01, v=0.1, r=0.01)
movel(p[-0.257167,-0.119785,0.130073, 1.57, 0.00, 0.00], a=0.01, v=0.1, r=0.01)
movel(p[-0.257414,-0.119588,0.129009, 1.57, 0.00, 0.00], a=0.01, v=0.1, r=0.01)
movel(p[-0.258022,-0.119333,0.126107, 1.57, 0.00, 0.00], a=0.01, v=0.1, r=0.01)
movel(p[-0.258405,-0.118982,0.123695, 1.57, 0.00, 0.00], a=0.01, v=0.1, r=0.01)
movel(p[-0.258468,-0.119465,0.122294, 1.57, 0.00, 0.00], a=0.01, v=0.1, r=0.01)
movel(p[-0.258929,-0.119136,0.120089, 1.57, 0.00, 0.00], a=0.01, v=0.1, r=0.01)
movel(p[-0.258752,-0.119666,0.117415, 1.57, 0.00, 0.00], a=0.01, v=0.1, r=0.01)
movel(p[-0.259013,-0.120309,0.115499, 1.57, 0.00, 0.00], a=0.01, v=0.1, r=0.01)
movel(p[-0.259119,-0.121197,0.112324, 1.57, 0.00, 0.00], a=0.01, v=0.1, r=0.01)
movel(p[-0.259648,-0.121143,0.109839, 1.57, 0.00, 0.00], a=0.01, v=0.1, r=0.01)
movel(p[-0.260095,-0.12141,0.108291, 1.57, 0.00, 0.00], a=0.01, v=0.1, r=0.01)
movel(p[-0.260038,-0.121956,0.10483, 1.57, 0.00, 0.00], a=0.01, v=0.1, r=0.01)
movel(p[-0.259703,-0.122524,0.103126, 1.57, 0.00, 0.00], a=0.01, v=0.1, r=0.01)
movel(p[-0.259967,-0.12256,0.101969, 1.57, 0.00, 0.00], a=0.01, v=0.1, r=0.01)
movel(p[-0.260165,-0.123007,0.0990324, 1.57, 0.00, 0.00], a=0.01, v=0.1, r=0.01)
movel(p[-0.259959,-0.123072,0.0972312, 1.57, 0.00, 0.00], a=0.01, v=0.1, r=0.01)
movel(p[-0.259438,-0.12319,0.0959982, 1.57, 0.00, 0.00], a=0.01, v=0.1, r=0.01)
movel(p[-0.259808,-0.123243,0.0940805, 1.57, 0.00, 0.00], a=0.01, v=0.1, r=0.01)
movel(p[-0.259872,-0.124016,0.0913814, 1.57, 0.00, 0.00], a=0.01, v=0.1, r=0.01)
movel(p[-0.259963,-0.12404,0.0909483, 1.57, 0.00, 0.00], a=0.01, v=0.1, r=0.01)
movel(p[-0.259631,-0.124244,0.0892575, 1.57, 0.00, 0.00], a=0.01, v=0.1, r=0.01)
movel(p[-0.258942,-0.124434,0.0880957, 1.57, 0.00, 0.00], a=0.01, v=0.1, r=0.01)
movel(p[-0.259348,-0.124493,0.0862931, 1.57, 0.00, 0.00], a=0.01, v=0.1, r=0.01)
movel(p[-0.257978,-0.125135,0.0856466, 1.57, 0.00, 0.00], a=0.01, v=0.1, r=0.01)
movel(p[-0.257945,-0.125422,0.0846046, 1.57, 0.00, 0.00], a=0.01, v=0.1, r=0.01)
movel(p[-0.257637,-0.125264,0.0843428, 1.57, 0.00, 0.00], a=0.01, v=0.1, r=0.01)
movel(p[-0.258079,-0.125401,0.0826996, 1.57, 0.00, 0.00], a=0.01, v=0.1, r=0.01)
movel(p[-0.258294,-0.125245,0.0814321, 1.57, 0.00, 0.00], a=0.01, v=0.1, r=0.01)
movel(p[-0.25839,-0.125092,0.0813239, 1.57, 0.00, 0.00], a=0.01, v=0.1, r=0.01)
movel(p[-0.258443,-0.124908,0.0806358, 1.57, 0.00, 0.00], a=0.01, v=0.1, r=0.01)
movel(p[-0.258752,-0.124982,0.0796229, 1.57, 0.00, 0.00], a=0.01, v=0.1, r=0.01)
movel(p[-0.258315,-0.124518,0.0801334, 1.57, 0.00, 0.00], a=0.01, v=0.1, r=0.01)
movel(p[-0.25764,-0.123929,0.0803714, 1.57, 0.00, 0.00], a=0.01, v=0.1, r=0.01)
movel(p[-0.257847,-0.123259,0.0804719, 1.57, 0.00, 0.00], a=0.01, v=0.1, r=0.01)
movel(p[-0.257955,-0.123233,0.0799779, 1.57, 0.00, 0.00], a=0.01, v=0.1, r=0.01)
movel(p[-0.258022,-0.122616,0.0799656, 1.57, 0.00, 0.00], a=0.01, v=0.1, r=0.01)
movel(p[-0.257789,-0.121523,0.0802821, 1.57, 0.00, 0.00], a=0.01, v=0.1, r=0.01)
movel(p[-0.257301,-0.12086,0.0811711, 1.57, 0.00, 0.00], a=0.01, v=0.1, r=0.01)
movel(p[-0.257398,-0.120642,0.0805476, 1.57, 0.00, 0.00], a=0.01, v=0.1, r=0.01)
movel(p[-0.256977,-0.119416,0.0815049, 1.57, 0.00, 0.00], a=0.01, v=0.1, r=0.01)
movel(p[-0.256687,-0.118367,0.0821905, 1.57, 0.00, 0.00], a=0.01, v=0.1, r=0.01)
movel(p[-0.256166,-0.117294,0.0829449, 1.57, 0.00, 0.00], a=0.01, v=0.1, r=0.01)
movel(p[-0.256118,-0.116936,0.0827058, 1.57, 0.00, 0.00], a=0.01, v=0.1, r=0.01)
movel(p[-0.256179,-0.116033,0.0835928, 1.57, 0.00, 0.00], a=0.01, v=0.1, r=0.01)
movel(p[-0.256507,-0.115186,0.0843571, 1.57, 0.00, 0.00], a=0.01, v=0.1, r=0.01)
movel(p[-0.256468,-0.113766,0.0856369, 1.57, 0.00, 0.00], a=0.01, v=0.1, r=0.01)
movel(p[-0.25642,-0.11346,0.0856512, 1.57, 0.00, 0.00], a=0.01, v=0.1, r=0.01)
movel(p[-0.256354,-0.111546,0.0868278, 1.57, 0.00, 0.00], a=0.01, v=0.1, r=0.01)
movel(p[-0.25675,-0.110075,0.0880257, 1.57, 0.00, 0.00], a=0.01, v=0.1, r=0.01)
movel(p[-0.257077,-0.108606,0.0889682, 1.57, 0.00, 0.00], a=0.01, v=0.1, r=0.01)
movel(p[-0.257546,-0.106562,0.0902599, 1.57, 0.00, 0.00], a=0.01, v=0.1, r=0.01)
movel(p[-0.257284,-0.105688,0.0906875, 1.57, 0.00, 0.00], a=0.01, v=0.1, r=0.01)
movel(p[-0.257339,-0.10376,0.092141, 1.57, 0.00, 0.00], a=0.01, v=0.1, r=0.01)
movel(p[-0.25748,-0.101392,0.0942312, 1.57, 0.00, 0.00], a=0.01, v=0.1, r=0.01)
movel(p[-0.258381,-0.098189,0.0956538, 1.57, 0.00, 0.00], a=0.01, v=0.1, r=0.01)
movel(p[-0.258269,-0.0974325,0.0961143, 1.57, 0.00, 0.00], a=0.01, v=0.1, r=0.01)
movel(p[-0.258559,-0.0946732,0.0973657, 1.57, 0.00, 0.00], a=0.01, v=0.1, r=0.01)
movel(p[-0.2591,-0.0917499,0.099184, 1.57, 0.00, 0.00], a=0.01, v=0.1, r=0.01)
movel(p[-0.259677,-0.0893023,0.101091, 1.57, 0.00, 0.00], a=0.01, v=0.1, r=0.01)
movel(p[-0.259437,-0.0879305,0.101934, 1.57, 0.00, 0.00], a=0.01, v=0.1, r=0.01)
movel(p[-0.260045,-0.0849193,0.104051, 1.57, 0.00, 0.00], a=0.01, v=0.1, r=0.01)
movel(p[-0.260101,-0.082381,0.104271, 1.57, 0.00, 0.00], a=0.01, v=0.1, r=0.01)
movel(p[-0.259868,-0.0783478,0.105695, 1.57, 0.00, 0.00], a=0.01, v=0.1, r=0.01)
movel(p[-0.259614,-0.0767938,0.106622, 1.57, 0.00, 0.00], a=0.01, v=0.1, r=0.01)
movel(p[-0.259532,-0.0742098,0.10746, 1.57, 0.00, 0.00], a=0.01, v=0.1, r=0.01)
movel(p[-0.260144,-0.0703623,0.108813, 1.57, 0.00, 0.00], a=0.01, v=0.1, r=0.01)
movel(p[-0.260599,-0.0667829,0.109965, 1.57, 0.00, 0.00], a=0.01, v=0.1, r=0.01)
movel(p[-0.260378,-0.0656446,0.110583, 1.57, 0.00, 0.00], a=0.01, v=0.1, r=0.01)
movel(p[-0.26073,-0.0613202,0.111434, 1.57, 0.00, 0.00], a=0.01, v=0.1, r=0.01)
movel(p[-0.260974,-0.0569895,0.111785, 1.57, 0.00, 0.00], a=0.01, v=0.1, r=0.01)
movel(p[-0.261468,-0.0540586,0.111782, 1.57, 0.00, 0.00], a=0.01, v=0.1, r=0.01)
movel(p[-0.260977,-0.0510886,0.112996, 1.57, 0.00, 0.00], a=0.01, v=0.1, r=0.01)
movel(p[-0.260506,-0.0465092,0.113721, 1.57, 0.00, 0.00], a=0.01, v=0.1, r=0.01)
movel(p[-0.261259,-0.0441237,0.113857, 1.57, 0.00, 0.00], a=0.01, v=0.1, r=0.01)
movel(p[-0.260718,-0.0399441,0.114517, 1.57, 0.00, 0.00], a=0.01, v=0.1, r=0.01)
movel(p[-0.261009,-0.0363797,0.114302, 1.57, 0.00, 0.00], a=0.01, v=0.1, r=0.01)
movel(p[-0.260797,-0.0348663,0.114802, 1.57, 0.00, 0.00], a=0.01, v=0.1, r=0.01)
movel(p[-0.261186,-0.029743,0.114279, 1.57, 0.00, 0.00], a=0.01, v=0.1, r=0.01)
movel(p[-0.261114,-0.0246843,0.113978, 1.57, 0.00, 0.00], a=0.01, v=0.1, r=0.01)
movel(p[-0.260867,-0.0230044,0.114422, 1.57, 0.00, 0.00], a=0.01, v=0.1, r=0.01)
movel(p[-0.260063,-0.0172695,0.114658, 1.57, 0.00, 0.00], a=0.01, v=0.1, r=0.01)
movel(p[-0.259357,-0.0132325,0.114843, 1.57, 0.00, 0.00], a=0.01, v=0.1, r=0.01)
movel(p[-0.259153,-0.0102439,0.1147, 1.57, 0.00, 0.00], a=0.01, v=0.1, r=0.01)
movel(p[-0.258732,-0.00572214,0.11426, 1.57, 0.00, 0.00], a=0.01, v=0.1, r=0.01)
movel(p[-0.257931,-0.00201295,0.11498, 1.57, 0.00, 0.00], a=0.01, v=0.1, r=0.01)
movel(p[-0.257975,0.000106511,0.114405, 1.57, 0.00, 0.00], a=0.01, v=0.1, r=0.01)
movel(p[-0.258033,0.00518138,0.114824, 1.57, 0.00, 0.00], a=0.01, v=0.1, r=0.01)
movel(p[-0.257314,0.01073,0.115121, 1.57, 0.00, 0.00], a=0.01, v=0.1, r=0.01)
movel(p[-0.256526,0.0137006,0.115559, 1.57, 0.00, 0.00], a=0.01, v=0.1, r=0.01)
movel(p[-0.256874,0.0156489,0.115, 1.57, 0.00, 0.00], a=0.01, v=0.1, r=0.01)
movel(p[-0.256137,0.0198652,0.11488, 1.57, 0.00, 0.00], a=0.01, v=0.1, r=0.01)
movel(p[-0.255965,0.024275,0.115021, 1.57, 0.00, 0.00], a=0.01, v=0.1, r=0.01)
movel(p[-0.255608,0.0261191,0.1153, 1.57, 0.00, 0.00], a=0.01, v=0.1, r=0.01)
movel(p[-0.255819,0.0305673,0.115478, 1.57, 0.00, 0.00], a=0.01, v=0.1, r=0.01)
movel(p[-0.277151,0.167311,0.183509, 1.57, 0.00, 0.00], a=0.01, v=0.1, r=0.01)
movel(p[-0.277289,0.166592,0.18865, 1.57, 0.00, 0.00], a=0.01, v=0.1, r=0.01)
movel(p[-0.277273,0.166503,0.190113, 1.57, 0.00, 0.00], a=0.01, v=0.1, r=0.01)
movel(p[-0.27757,0.165244,0.195572, 1.57, 0.00, 0.00], a=0.01, v=0.1, r=0.01)
movel(p[-0.277349,0.164764,0.199519, 1.57, 0.00, 0.00], a=0.01, v=0.1, r=0.01)
movel(p[-0.277374,0.163877,0.203548, 1.57, 0.00, 0.00], a=0.01, v=0.1, r=0.01)
movel(p[-0.277347,0.163653,0.206092, 1.57, 0.00, 0.00], a=0.01, v=0.1, r=0.01)
movel(p[-0.277483,0.162907,0.209627, 1.57, 0.00, 0.00], a=0.01, v=0.1, r=0.01)
movel(p[-0.276811,0.161971,0.212148, 1.57, 0.00, 0.00], a=0.01, v=0.1, r=0.01)
movel(p[-0.276295,0.161347,0.21765, 1.57, 0.00, 0.00], a=0.01, v=0.1, r=0.01)
movel(p[-0.276216,0.161086,0.220041, 1.57, 0.00, 0.00], a=0.01, v=0.1, r=0.01)
movel(p[-0.275298,0.159663,0.224627, 1.57, 0.00, 0.00], a=0.01, v=0.1, r=0.01)
movel(p[-0.274855,0.158968,0.22861, 1.57, 0.00, 0.00], a=0.01, v=0.1, r=0.01)
movel(p[-0.274059,0.158212,0.232351, 1.57, 0.00, 0.00], a=0.01, v=0.1, r=0.01)
movel(p[-0.273892,0.157978,0.234152, 1.57, 0.00, 0.00], a=0.01, v=0.1, r=0.01)
movel(p[-0.273834,0.15644,0.238916, 1.57, 0.00, 0.00], a=0.01, v=0.1, r=0.01)
movel(p[-0.273058,0.155033,0.243473, 1.57, 0.00, 0.00], a=0.01, v=0.1, r=0.01)
movel(p[-0.272895,0.154493,0.245657, 1.57, 0.00, 0.00], a=0.01, v=0.1, r=0.01)
movel(p[-0.272314,0.152912,0.251088, 1.57, 0.00, 0.00], a=0.01, v=0.1, r=0.01)
movel(p[-0.271836,0.152049,0.255534, 1.57, 0.00, 0.00], a=0.01, v=0.1, r=0.01)
movel(p[-0.271775,0.15189,0.256481, 1.57, 0.00, 0.00], a=0.01, v=0.1, r=0.01)
movel(p[-0.271218,0.151016,0.260546, 1.57, 0.00, 0.00], a=0.01, v=0.1, r=0.01)
movel(p[-0.270905,0.149751,0.264124, 1.57, 0.00, 0.00], a=0.01, v=0.1, r=0.01)
movel(p[-0.270768,0.149474,0.265794, 1.57, 0.00, 0.00], a=0.01, v=0.1, r=0.01)
movel(p[-0.270844,0.14773,0.27099, 1.57, 0.00, 0.00], a=0.01, v=0.1, r=0.01)
movel(p[-0.271039,0.147071,0.273916, 1.57, 0.00, 0.00], a=0.01, v=0.1, r=0.01)
movel(p[-0.270803,0.146393,0.275739, 1.57, 0.00, 0.00], a=0.01, v=0.1, r=0.01)
movel(p[-0.270699,0.145773,0.279113, 1.57, 0.00, 0.00], a=0.01, v=0.1, r=0.01)
movel(p[-0.271015,0.144579,0.282689, 1.57, 0.00, 0.00], a=0.01, v=0.1, r=0.01)
movel(p[-0.271917,0.143473,0.284773, 1.57, 0.00, 0.00], a=0.01, v=0.1, r=0.01)
movel(p[-0.272317,0.142105,0.289135, 1.57, 0.00, 0.00], a=0.01, v=0.1, r=0.01)
movel(p[-0.27227,0.141716,0.291291, 1.57, 0.00, 0.00], a=0.01, v=0.1, r=0.01)
movel(p[-0.272441,0.140684,0.293628, 1.57, 0.00, 0.00], a=0.01, v=0.1, r=0.01)
movel(p[-0.272739,0.140356,0.295123, 1.57, 0.00, 0.00], a=0.01, v=0.1, r=0.01)
movel(p[-0.272972,0.139165,0.297557, 1.57, 0.00, 0.00], a=0.01, v=0.1, r=0.01)
movel(p[-0.272994,0.138936,0.298813, 1.57, 0.00, 0.00], a=0.01, v=0.1, r=0.01)
movel(p[-0.273246,0.138084,0.30087, 1.57, 0.00, 0.00], a=0.01, v=0.1, r=0.01)
movel(p[-0.273272,0.13698,0.303013, 1.57, 0.00, 0.00], a=0.01, v=0.1, r=0.01)
movel(p[-0.273069,0.136193,0.304031, 1.57, 0.00, 0.00], a=0.01, v=0.1, r=0.01)
movel(p[-0.273181,0.135622,0.306309, 1.57, 0.00, 0.00], a=0.01, v=0.1, r=0.01)
movel(p[-0.273056,0.134811,0.30807, 1.57, 0.00, 0.00], a=0.01, v=0.1, r=0.01)
movel(p[-0.272657,0.133961,0.308964, 1.57, 0.00, 0.00], a=0.01, v=0.1, r=0.01)
movel(p[-0.272298,0.132587,0.311339, 1.57, 0.00, 0.00], a=0.01, v=0.1, r=0.01)
movel(p[-0.272068,0.132036,0.312264, 1.57, 0.00, 0.00], a=0.01, v=0.1, r=0.01)
movel(p[-0.272057,0.131755,0.313121, 1.57, 0.00, 0.00], a=0.01, v=0.1, r=0.01)
movel(p[-0.271762,0.131,0.314179, 1.57, 0.00, 0.00], a=0.01, v=0.1, r=0.01)
movel(p[-0.271678,0.130416,0.315904, 1.57, 0.00, 0.00], a=0.01, v=0.1, r=0.01)
movel(p[-0.271452,0.130309,0.315795, 1.57, 0.00, 0.00], a=0.01, v=0.1, r=0.01)
movel(p[-0.270912,0.129663,0.316868, 1.57, 0.00, 0.00], a=0.01, v=0.1, r=0.01)
movel(p[-0.270464,0.129383,0.317322, 1.57, 0.00, 0.00], a=0.01, v=0.1, r=0.01)
movel(p[-0.270273,0.129337,0.317151, 1.57, 0.00, 0.00], a=0.01, v=0.1, r=0.01)
movel(p[-0.270048,0.128889,0.318425, 1.57, 0.00, 0.00], a=0.01, v=0.1, r=0.01)
movel(p[-0.269706,0.128543,0.318336, 1.57, 0.00, 0.00], a=0.01, v=0.1, r=0.01)
movel(p[-0.26963,0.128362,0.318805, 1.57, 0.00, 0.00], a=0.01, v=0.1, r=0.01)
movel(p[-0.269498,0.128296,0.318656, 1.57, 0.00, 0.00], a=0.01, v=0.1, r=0.01)
movel(p[-0.26936,0.127968,0.319497, 1.57, 0.00, 0.00], a=0.01, v=0.1, r=0.01)
movel(p[-0.268842,0.127578,0.318848, 1.57, 0.00, 0.00], a=0.01, v=0.1, r=0.01)
movel(p[-0.268374,0.127258,0.319121, 1.57, 0.00, 0.00], a=0.01, v=0.1, r=0.01)
movel(p[-0.268452,0.126975,0.319617, 1.57, 0.00, 0.00], a=0.01, v=0.1, r=0.01)
movel(p[-0.268468,0.126941,0.319595, 1.57, 0.00, 0.00], a=0.01, v=0.1, r=0.01)
movel(p[-0.268364,0.126705,0.320071, 1.57, 0.00, 0.00], a=0.01, v=0.1, r=0.01)
movel(p[-0.267774,0.126501,0.320216, 1.57, 0.00, 0.00], a=0.01, v=0.1, r=0.01)
movel(p[-0.267305,0.126491,0.320063, 1.57, 0.00, 0.00], a=0.01, v=0.1, r=0.01)
movel(p[-0.266843,0.126257,0.319909, 1.57, 0.00, 0.00], a=0.01, v=0.1, r=0.01)
movel(p[-0.266699,0.126098,0.320225, 1.57, 0.00, 0.00], a=0.01, v=0.1, r=0.01)
movel(p[-0.266928,0.126225,0.319572, 1.57, 0.00, 0.00], a=0.01, v=0.1, r=0.01)
movel(p[-0.266644,0.125956,0.319083, 1.57, 0.00, 0.00], a=0.01, v=0.1, r=0.01)
movel(p[-0.266297,0.126084,0.318663, 1.57, 0.00, 0.00], a=0.01, v=0.1, r=0.01)
movel(p[-0.266216,0.126008,0.318788, 1.57, 0.00, 0.00], a=0.01, v=0.1, r=0.01)
movel(p[-0.266011,0.12614,0.31823, 1.57, 0.00, 0.00], a=0.01, v=0.1, r=0.01)
movel(p[-0.265589,0.126009,0.317828, 1.57, 0.00, 0.00], a=0.01, v=0.1, r=0.01)
movel(p[-0.265209,0.12602,0.317238, 1.57, 0.00, 0.00], a=0.01, v=0.1, r=0.01)
movel(p[-0.265004,0.125887,0.317399, 1.57, 0.00, 0.00], a=0.01, v=0.1, r=0.01)
movel(p[-0.264914,0.125722,0.316412, 1.57, 0.00, 0.00], a=0.01, v=0.1, r=0.01)
movel(p[-0.264854,0.125543,0.315793, 1.57, 0.00, 0.00], a=0.01, v=0.1, r=0.01)
movel(p[-0.26477,0.125134,0.315295, 1.57, 0.00, 0.00], a=0.01, v=0.1, r=0.01)
movel(p[-0.264584,0.124997,0.31534, 1.57, 0.00, 0.00], a=0.01, v=0.1, r=0.01)
movel(p[-0.264627,0.124927,0.31487, 1.57, 0.00, 0.00], a=0.01, v=0.1, r=0.01)
movel(p[-0.264598,0.124797,0.314394, 1.57, 0.00, 0.00], a=0.01, v=0.1, r=0.01)
movel(p[-0.264714,0.124604,0.313926, 1.57, 0.00, 0.00], a=0.01, v=0.1, r=0.01)
movel(p[-0.264633,0.124534,0.313913, 1.57, 0.00, 0.00], a=0.01, v=0.1, r=0.01)
movel(p[-0.265186,0.124206,0.313554, 1.57, 0.00, 0.00], a=0.01, v=0.1, r=0.01)
movel(p[-0.265369,0.123997,0.3133, 1.57, 0.00, 0.00], a=0.01, v=0.1, r=0.01)
movel(p[-0.265707,0.123598,0.312999, 1.57, 0.00, 0.00], a=0.01, v=0.1, r=0.01)
movel(p[-0.265624,0.123505,0.312968, 1.57, 0.00, 0.00], a=0.01, v=0.1, r=0.01)
movel(p[-0.266247,0.123384,0.312773, 1.57, 0.00, 0.00], a=0.01, v=0.1, r=0.01)
movel(p[-0.266689,0.12327,0.312497, 1.57, 0.00, 0.00], a=0.01, v=0.1, r=0.01)
movel(p[-0.267221,0.123025,0.312176, 1.57, 0.00, 0.00], a=0.01, v=0.1, r=0.01)
movel(p[-0.267132,0.12283,0.312083, 1.57, 0.00, 0.00], a=0.01, v=0.1, r=0.01)
movel(p[-0.267425,0.122712,0.311819, 1.57, 0.00, 0.00], a=0.01, v=0.1, r=0.01)
movel(p[-0.267907,0.12221,0.311788, 1.57, 0.00, 0.00], a=0.01, v=0.1, r=0.01)
movel(p[-0.268109,0.12188,0.311635, 1.57, 0.00, 0.00], a=0.01, v=0.1, r=0.01)
movel(p[-0.268681,0.121374,0.3114, 1.57, 0.00, 0.00], a=0.01, v=0.1, r=0.01)
movel(p[-0.268669,0.121236,0.31134, 1.57, 0.00, 0.00], a=0.01, v=0.1, r=0.01)
movel(p[-0.268991,0.120702,0.311099, 1.57, 0.00, 0.00], a=0.01, v=0.1, r=0.01)
movel(p[-0.268956,0.120711,0.310798, 1.57, 0.00, 0.00], a=0.01, v=0.1, r=0.01)
movel(p[-0.268948,0.120457,0.31067, 1.57, 0.00, 0.00], a=0.01, v=0.1, r=0.01)
movel(p[-0.269532,0.12035,0.310317, 1.57, 0.00, 0.00], a=0.01, v=0.1, r=0.01)
movel(p[-0.270088,0.120076,0.310094, 1.57, 0.00, 0.00], a=0.01, v=0.1, r=0.01)
movel(p[-0.269922,0.119829,0.30957, 1.57, 0.00, 0.00], a=0.01, v=0.1, r=0.01)
end
