def myProg():
movel(p[-0.831678,0.439283,0.161089, 1.57, 0.00, 0.00], a=0.01, v=0.1, r=0.01)
movel(p[-0.831467,0.438672,0.163529, 1.57, 0.00, 0.00], a=0.01, v=0.1, r=0.01)
movel(p[-0.831203,0.437909,0.166578, 1.57, 0.00, 0.00], a=0.01, v=0.1, r=0.01)
movel(p[-0.830992,0.437298,0.169018, 1.57, 0.00, 0.00], a=0.01, v=0.1, r=0.01)
movel(p[-0.830397,0.435662,0.173126, 1.57, 0.00, 0.00], a=0.01, v=0.1, r=0.01)
movel(p[-0.830013,0.434637,0.174795, 1.57, 0.00, 0.00], a=0.01, v=0.1, r=0.01)
movel(p[-0.830013,0.434637,0.174795, 1.57, 0.00, 0.00], a=0.01, v=0.1, r=0.01)
movel(p[-0.829629,0.433612,0.176463, 1.57, 0.00, 0.00], a=0.01, v=0.1, r=0.01)
movel(p[-0.829471,0.433154,0.178293, 1.57, 0.00, 0.00], a=0.01, v=0.1, r=0.01)
movel(p[-0.829312,0.432695,0.180123, 1.57, 0.00, 0.00], a=0.01, v=0.1, r=0.01)
movel(p[-0.829154,0.432237,0.181952, 1.57, 0.00, 0.00], a=0.01, v=0.1, r=0.01)
movel(p[-0.828995,0.431779,0.183782, 1.57, 0.00, 0.00], a=0.01, v=0.1, r=0.01)
movel(p[-0.828784,0.431168,0.186222, 1.57, 0.00, 0.00], a=0.01, v=0.1, r=0.01)
movel(p[-0.828784,0.431168,0.186222, 1.57, 0.00, 0.00], a=0.01, v=0.1, r=0.01)
movel(p[-0.828467,0.430252,0.189882, 1.57, 0.00, 0.00], a=0.01, v=0.1, r=0.01)
movel(p[-0.828151,0.429335,0.193541, 1.57, 0.00, 0.00], a=0.01, v=0.1, r=0.01)
movel(p[-0.827781,0.428266,0.197811, 1.57, 0.00, 0.00], a=0.01, v=0.1, r=0.01)
movel(p[-0.827517,0.427502,0.200861, 1.57, 0.00, 0.00], a=0.01, v=0.1, r=0.01)
movel(p[-0.8272,0.426586,0.20452, 1.57, 0.00, 0.00], a=0.01, v=0.1, r=0.01)
movel(p[-0.827267,0.426695,0.206511, 1.57, 0.00, 0.00], a=0.01, v=0.1, r=0.01)
movel(p[-0.827267,0.426695,0.206511, 1.57, 0.00, 0.00], a=0.01, v=0.1, r=0.01)
movel(p[-0.827334,0.426803,0.208503, 1.57, 0.00, 0.00], a=0.01, v=0.1, r=0.01)
movel(p[-0.827521,0.427173,0.211875, 1.57, 0.00, 0.00], a=0.01, v=0.1, r=0.01)
movel(p[-0.827881,0.427957,0.216019, 1.57, 0.00, 0.00], a=0.01, v=0.1, r=0.01)
movel(p[-0.82812,0.42848,0.218782, 1.57, 0.00, 0.00], a=0.01, v=0.1, r=0.01)
movel(p[-0.828758,0.429983,0.222477, 1.57, 0.00, 0.00], a=0.01, v=0.1, r=0.01)
movel(p[-0.829171,0.43092,0.226012, 1.57, 0.00, 0.00], a=0.01, v=0.1, r=0.01)
movel(p[-0.82953,0.431704,0.230155, 1.57, 0.00, 0.00], a=0.01, v=0.1, r=0.01)
movel(p[-0.82989,0.432488,0.234299, 1.57, 0.00, 0.00], a=0.01, v=0.1, r=0.01)
movel(p[-0.830197,0.433119,0.239053, 1.57, 0.00, 0.00], a=0.01, v=0.1, r=0.01)
movel(p[-0.830384,0.433489,0.242426, 1.57, 0.00, 0.00], a=0.01, v=0.1, r=0.01)
movel(p[-0.830518,0.433706,0.246408, 1.57, 0.00, 0.00], a=0.01, v=0.1, r=0.01)
movel(p[-0.830479,0.433509,0.24962, 1.57, 0.00, 0.00], a=0.01, v=0.1, r=0.01)
movel(p[-0.830546,0.433617,0.251611, 1.57, 0.00, 0.00], a=0.01, v=0.1, r=0.01)
movel(p[-0.830388,0.433159,0.253441, 1.57, 0.00, 0.00], a=0.01, v=0.1, r=0.01)
movel(p[-0.830455,0.433268,0.255432, 1.57, 0.00, 0.00], a=0.01, v=0.1, r=0.01)
movel(p[-0.830522,0.433376,0.257423, 1.57, 0.00, 0.00], a=0.01, v=0.1, r=0.01)
movel(p[-0.830363,0.432918,0.259253, 1.57, 0.00, 0.00], a=0.01, v=0.1, r=0.01)
movel(p[-0.830378,0.432874,0.261854, 1.57, 0.00, 0.00], a=0.01, v=0.1, r=0.01)
movel(p[-0.830166,0.432263,0.264294, 1.57, 0.00, 0.00], a=0.01, v=0.1, r=0.01)
movel(p[-0.830008,0.431805,0.266124, 1.57, 0.00, 0.00], a=0.01, v=0.1, r=0.01)
movel(p[-0.830008,0.431805,0.266124, 1.57, 0.00, 0.00], a=0.01, v=0.1, r=0.01)
movel(p[-0.82985,0.431347,0.267954, 1.57, 0.00, 0.00], a=0.01, v=0.1, r=0.01)
movel(p[-0.82948,0.430278,0.272223, 1.57, 0.00, 0.00], a=0.01, v=0.1, r=0.01)
movel(p[-0.829269,0.429667,0.274663, 1.57, 0.00, 0.00], a=0.01, v=0.1, r=0.01)
movel(p[-0.829005,0.428903,0.277713, 1.57, 0.00, 0.00], a=0.01, v=0.1, r=0.01)
movel(p[-0.829005,0.428903,0.277713, 1.57, 0.00, 0.00], a=0.01, v=0.1, r=0.01)
movel(p[-0.828582,0.427681,0.282592, 1.57, 0.00, 0.00], a=0.01, v=0.1, r=0.01)
movel(p[-0.828582,0.427681,0.282592, 1.57, 0.00, 0.00], a=0.01, v=0.1, r=0.01)
movel(p[-0.82804,0.426198,0.28609, 1.57, 0.00, 0.00], a=0.01, v=0.1, r=0.01)
movel(p[-0.828198,0.426656,0.28426, 1.57, 0.00, 0.00], a=0.01, v=0.1, r=0.01)
movel(p[-0.827934,0.425892,0.28731, 1.57, 0.00, 0.00], a=0.01, v=0.1, r=0.01)
movel(p[-0.827829,0.425587,0.28853, 1.57, 0.00, 0.00], a=0.01, v=0.1, r=0.01)
movel(p[-0.827896,0.425695,0.290521, 1.57, 0.00, 0.00], a=0.01, v=0.1, r=0.01)
movel(p[-0.827737,0.425237,0.292351, 1.57, 0.00, 0.00], a=0.01, v=0.1, r=0.01)
movel(p[-0.827857,0.425499,0.293732, 1.57, 0.00, 0.00], a=0.01, v=0.1, r=0.01)
movel(p[-0.827977,0.42576,0.295114, 1.57, 0.00, 0.00], a=0.01, v=0.1, r=0.01)
movel(p[-0.827924,0.425607,0.295724, 1.57, 0.00, 0.00], a=0.01, v=0.1, r=0.01)
movel(p[-0.828217,0.426283,0.297876, 1.57, 0.00, 0.00], a=0.01, v=0.1, r=0.01)
movel(p[-0.828389,0.426696,0.298648, 1.57, 0.00, 0.00], a=0.01, v=0.1, r=0.01)
movel(p[-0.82896,0.428091,0.300352, 1.57, 0.00, 0.00], a=0.01, v=0.1, r=0.01)
movel(p[-0.829584,0.429639,0.301446, 1.57, 0.00, 0.00], a=0.01, v=0.1, r=0.01)
movel(p[-0.830207,0.431187,0.302541, 1.57, 0.00, 0.00], a=0.01, v=0.1, r=0.01)
movel(p[-0.830831,0.432734,0.303635, 1.57, 0.00, 0.00], a=0.01, v=0.1, r=0.01)
movel(p[-0.832131,0.435982,0.305213, 1.57, 0.00, 0.00], a=0.01, v=0.1, r=0.01)
movel(p[-0.83298,0.438097,0.306469, 1.57, 0.00, 0.00], a=0.01, v=0.1, r=0.01)
movel(p[-0.834333,0.441497,0.307438, 1.57, 0.00, 0.00], a=0.01, v=0.1, r=0.01)
movel(p[-0.835408,0.444178,0.308855, 1.57, 0.00, 0.00], a=0.01, v=0.1, r=0.01)
movel(p[-0.837158,0.44856,0.310757, 1.57, 0.00, 0.00], a=0.01, v=0.1, r=0.01)
movel(p[-0.838684,0.452375,0.312497, 1.57, 0.00, 0.00], a=0.01, v=0.1, r=0.01)
movel(p[-0.838684,0.452375,0.312497, 1.57, 0.00, 0.00], a=0.01, v=0.1, r=0.01)
movel(p[-0.840833,0.457737,0.315331, 1.57, 0.00, 0.00], a=0.01, v=0.1, r=0.01)
movel(p[-0.840833,0.457737,0.315331, 1.57, 0.00, 0.00], a=0.01, v=0.1, r=0.01)
movel(p[-0.841457,0.459285,0.316425, 1.57, 0.00, 0.00], a=0.01, v=0.1, r=0.01)
movel(p[-0.841855,0.460265,0.317358, 1.57, 0.00, 0.00], a=0.01, v=0.1, r=0.01)
movel(p[-0.842531,0.461966,0.317842, 1.57, 0.00, 0.00], a=0.01, v=0.1, r=0.01)
movel(p[-0.842478,0.461813,0.318452, 1.57, 0.00, 0.00], a=0.01, v=0.1, r=0.01)
movel(p[-0.842651,0.462227,0.319224, 1.57, 0.00, 0.00], a=0.01, v=0.1, r=0.01)
movel(p[-0.842651,0.462227,0.319224, 1.57, 0.00, 0.00], a=0.01, v=0.1, r=0.01)
movel(p[-0.842598,0.462074,0.319834, 1.57, 0.00, 0.00], a=0.01, v=0.1, r=0.01)
movel(p[-0.842598,0.462074,0.319834, 1.57, 0.00, 0.00], a=0.01, v=0.1, r=0.01)
movel(p[-0.842545,0.461921,0.320444, 1.57, 0.00, 0.00], a=0.01, v=0.1, r=0.01)
movel(p[-0.842492,0.461769,0.321054, 1.57, 0.00, 0.00], a=0.01, v=0.1, r=0.01)
movel(p[-0.84244,0.461616,0.321664, 1.57, 0.00, 0.00], a=0.01, v=0.1, r=0.01)
movel(p[-0.842281,0.461158,0.323493, 1.57, 0.00, 0.00], a=0.01, v=0.1, r=0.01)
movel(p[-0.842123,0.4607,0.325323, 1.57, 0.00, 0.00], a=0.01, v=0.1, r=0.01)
movel(p[-0.842123,0.4607,0.325323, 1.57, 0.00, 0.00], a=0.01, v=0.1, r=0.01)
movel(p[-0.84113,0.458083,0.328498, 1.57, 0.00, 0.00], a=0.01, v=0.1, r=0.01)
movel(p[-0.840468,0.456338,0.330615, 1.57, 0.00, 0.00], a=0.01, v=0.1, r=0.01)
movel(p[-0.840468,0.456338,0.330615, 1.57, 0.00, 0.00], a=0.01, v=0.1, r=0.01)
movel(p[-0.839633,0.45418,0.331961, 1.57, 0.00, 0.00], a=0.01, v=0.1, r=0.01)
movel(p[-0.837685,0.449143,0.3351, 1.57, 0.00, 0.00], a=0.01, v=0.1, r=0.01)
movel(p[-0.837685,0.449143,0.3351, 1.57, 0.00, 0.00], a=0.01, v=0.1, r=0.01)
movel(p[-0.836624,0.446418,0.336284, 1.57, 0.00, 0.00], a=0.01, v=0.1, r=0.01)
movel(p[-0.835737,0.444107,0.33824, 1.57, 0.00, 0.00], a=0.01, v=0.1, r=0.01)
movel(p[-0.834677,0.441381,0.339424, 1.57, 0.00, 0.00], a=0.01, v=0.1, r=0.01)
movel(p[-0.833338,0.437936,0.341056, 1.57, 0.00, 0.00], a=0.01, v=0.1, r=0.01)
movel(p[-0.83245,0.435625,0.343012, 1.57, 0.00, 0.00], a=0.01, v=0.1, r=0.01)
movel(p[-0.83139,0.4329,0.344196, 1.57, 0.00, 0.00], a=0.01, v=0.1, r=0.01)
movel(p[-0.830781,0.431308,0.345703, 1.57, 0.00, 0.00], a=0.01, v=0.1, r=0.01)
movel(p[-0.829946,0.42915,0.347048, 1.57, 0.00, 0.00], a=0.01, v=0.1, r=0.01)
movel(p[-0.829615,0.428277,0.348106, 1.57, 0.00, 0.00], a=0.01, v=0.1, r=0.01)
movel(p[-0.829284,0.427405,0.349165, 1.57, 0.00, 0.00], a=0.01, v=0.1, r=0.01)
movel(p[-0.829006,0.426686,0.349613, 1.57, 0.00, 0.00], a=0.01, v=0.1, r=0.01)
movel(p[-0.828953,0.426533,0.350223, 1.57, 0.00, 0.00], a=0.01, v=0.1, r=0.01)
movel(p[-0.828674,0.425813,0.350672, 1.57, 0.00, 0.00], a=0.01, v=0.1, r=0.01)
movel(p[-0.828622,0.425661,0.351282, 1.57, 0.00, 0.00], a=0.01, v=0.1, r=0.01)
movel(p[-0.828569,0.425508,0.351892, 1.57, 0.00, 0.00], a=0.01, v=0.1, r=0.01)
movel(p[-0.828291,0.424788,0.35234, 1.57, 0.00, 0.00], a=0.01, v=0.1, r=0.01)
movel(p[-0.828291,0.424788,0.35234, 1.57, 0.00, 0.00], a=0.01, v=0.1, r=0.01)
movel(p[-0.827907,0.423763,0.354009, 1.57, 0.00, 0.00], a=0.01, v=0.1, r=0.01)
movel(p[-0.826741,0.420733,0.356413, 1.57, 0.00, 0.00], a=0.01, v=0.1, r=0.01)
movel(p[-0.825906,0.418574,0.357758, 1.57, 0.00, 0.00], a=0.01, v=0.1, r=0.01)
movel(p[-0.825071,0.416415,0.359103, 1.57, 0.00, 0.00], a=0.01, v=0.1, r=0.01)
movel(p[-0.824011,0.41369,0.360287, 1.57, 0.00, 0.00], a=0.01, v=0.1, r=0.01)
movel(p[-0.823454,0.412251,0.361185, 1.57, 0.00, 0.00], a=0.01, v=0.1, r=0.01)
movel(p[-0.823454,0.412251,0.361185, 1.57, 0.00, 0.00], a=0.01, v=0.1, r=0.01)
movel(p[-0.822725,0.410398,0.36131, 1.57, 0.00, 0.00], a=0.01, v=0.1, r=0.01)
movel(p[-0.820869,0.405711,0.360628, 1.57, 0.00, 0.00], a=0.01, v=0.1, r=0.01)
movel(p[-0.819689,0.402724,0.360431, 1.57, 0.00, 0.00], a=0.01, v=0.1, r=0.01)
movel(p[-0.819689,0.402724,0.360431, 1.57, 0.00, 0.00], a=0.01, v=0.1, r=0.01)
movel(p[-0.818057,0.398604,0.359911, 1.57, 0.00, 0.00], a=0.01, v=0.1, r=0.01)
movel(p[-0.816479,0.394637,0.358781, 1.57, 0.00, 0.00], a=0.01, v=0.1, r=0.01)
movel(p[-0.814848,0.390517,0.358261, 1.57, 0.00, 0.00], a=0.01, v=0.1, r=0.01)
movel(p[-0.813668,0.38753,0.358063, 1.57, 0.00, 0.00], a=0.01, v=0.1, r=0.01)
movel(p[-0.812315,0.384129,0.357095, 1.57, 0.00, 0.00], a=0.01, v=0.1, r=0.01)
movel(p[-0.811413,0.381862,0.356449, 1.57, 0.00, 0.00], a=0.01, v=0.1, r=0.01)
movel(p[-0.810737,0.380162,0.355965, 1.57, 0.00, 0.00], a=0.01, v=0.1, r=0.01)
movel(p[-0.810339,0.379181,0.355032, 1.57, 0.00, 0.00], a=0.01, v=0.1, r=0.01)
movel(p[-0.810219,0.37892,0.35365, 1.57, 0.00, 0.00], a=0.01, v=0.1, r=0.01)
movel(p[-0.810099,0.378658,0.352269, 1.57, 0.00, 0.00], a=0.01, v=0.1, r=0.01)
movel(p[-0.810257,0.379117,0.350439, 1.57, 0.00, 0.00], a=0.01, v=0.1, r=0.01)
movel(p[-0.810747,0.380447,0.347551, 1.57, 0.00, 0.00], a=0.01, v=0.1, r=0.01)
movel(p[-0.811966,0.383631,0.344537, 1.57, 0.00, 0.00], a=0.01, v=0.1, r=0.01)
movel(p[-0.814019,0.388973,0.340178, 1.57, 0.00, 0.00], a=0.01, v=0.1, r=0.01)
movel(p[-0.815794,0.393595,0.336267, 1.57, 0.00, 0.00], a=0.01, v=0.1, r=0.01)
movel(p[-0.817119,0.397084,0.332033, 1.57, 0.00, 0.00], a=0.01, v=0.1, r=0.01)
movel(p[-0.818337,0.400268,0.329019, 1.57, 0.00, 0.00], a=0.01, v=0.1, r=0.01)
movel(p[-0.819225,0.402579,0.327064, 1.57, 0.00, 0.00], a=0.01, v=0.1, r=0.01)
movel(p[-0.819887,0.404324,0.324947, 1.57, 0.00, 0.00], a=0.01, v=0.1, r=0.01)
movel(p[-0.820046,0.404782,0.323117, 1.57, 0.00, 0.00], a=0.01, v=0.1, r=0.01)
movel(p[-0.820324,0.405501,0.322669, 1.57, 0.00, 0.00], a=0.01, v=0.1, r=0.01)
movel(p[-0.820377,0.405654,0.322059, 1.57, 0.00, 0.00], a=0.01, v=0.1, r=0.01)
movel(p[-0.820377,0.405654,0.322059, 1.57, 0.00, 0.00], a=0.01, v=0.1, r=0.01)
movel(p[-0.820377,0.405654,0.322059, 1.57, 0.00, 0.00], a=0.01, v=0.1, r=0.01)
movel(p[-0.820429,0.405807,0.321449, 1.57, 0.00, 0.00], a=0.01, v=0.1, r=0.01)
movel(p[-0.819753,0.404106,0.320965, 1.57, 0.00, 0.00], a=0.01, v=0.1, r=0.01)
movel(p[-0.819355,0.403126,0.320032, 1.57, 0.00, 0.00], a=0.01, v=0.1, r=0.01)
movel(p[-0.818678,0.401425,0.319547, 1.57, 0.00, 0.00], a=0.01, v=0.1, r=0.01)
movel(p[-0.818002,0.399725,0.319063, 1.57, 0.00, 0.00], a=0.01, v=0.1, r=0.01)
movel(p[-0.817153,0.397611,0.317807, 1.57, 0.00, 0.00], a=0.01, v=0.1, r=0.01)
movel(p[-0.8158,0.39421,0.316839, 1.57, 0.00, 0.00], a=0.01, v=0.1, r=0.01)
movel(p[-0.814673,0.391376,0.316031, 1.57, 0.00, 0.00], a=0.01, v=0.1, r=0.01)
movel(p[-0.813545,0.388542,0.315224, 1.57, 0.00, 0.00], a=0.01, v=0.1, r=0.01)
movel(p[-0.811967,0.384575,0.314094, 1.57, 0.00, 0.00], a=0.01, v=0.1, r=0.01)
movel(p[-0.811967,0.384575,0.314094, 1.57, 0.00, 0.00], a=0.01, v=0.1, r=0.01)
movel(p[-0.810667,0.381327,0.312515, 1.57, 0.00, 0.00], a=0.01, v=0.1, r=0.01)
movel(p[-0.808916,0.376945,0.310614, 1.57, 0.00, 0.00], a=0.01, v=0.1, r=0.01)
movel(p[-0.805865,0.369316,0.307134, 1.57, 0.00, 0.00], a=0.01, v=0.1, r=0.01)
movel(p[-0.805865,0.369316,0.307134, 1.57, 0.00, 0.00], a=0.01, v=0.1, r=0.01)
movel(p[-0.80434,0.365501,0.305394, 1.57, 0.00, 0.00], a=0.01, v=0.1, r=0.01)
movel(p[-0.802589,0.361119,0.303492, 1.57, 0.00, 0.00], a=0.01, v=0.1, r=0.01)
movel(p[-0.800838,0.356738,0.301591, 1.57, 0.00, 0.00], a=0.01, v=0.1, r=0.01)
movel(p[-0.799087,0.352357,0.299689, 1.57, 0.00, 0.00], a=0.01, v=0.1, r=0.01)
movel(p[-0.796885,0.346841,0.297465, 1.57, 0.00, 0.00], a=0.01, v=0.1, r=0.01)
movel(p[-0.794856,0.34174,0.296012, 1.57, 0.00, 0.00], a=0.01, v=0.1, r=0.01)
movel(p[-0.793052,0.337206,0.29472, 1.57, 0.00, 0.00], a=0.01, v=0.1, r=0.01)
movel(p[-0.791248,0.332672,0.293429, 1.57, 0.00, 0.00], a=0.01, v=0.1, r=0.01)
movel(p[-0.789445,0.328138,0.292137, 1.57, 0.00, 0.00], a=0.01, v=0.1, r=0.01)
movel(p[-0.788317,0.325304,0.29133, 1.57, 0.00, 0.00], a=0.01, v=0.1, r=0.01)
movel(p[-0.786739,0.321336,0.2902, 1.57, 0.00, 0.00], a=0.01, v=0.1, r=0.01)
movel(p[-0.785837,0.319069,0.289554, 1.57, 0.00, 0.00], a=0.01, v=0.1, r=0.01)
movel(p[-0.785161,0.317369,0.28907, 1.57, 0.00, 0.00], a=0.01, v=0.1, r=0.01)
movel(p[-0.78471,0.316235,0.288747, 1.57, 0.00, 0.00], a=0.01, v=0.1, r=0.01)
movel(p[-0.784259,0.315102,0.288424, 1.57, 0.00, 0.00], a=0.01, v=0.1, r=0.01)
movel(p[-0.784034,0.314535,0.288262, 1.57, 0.00, 0.00], a=0.01, v=0.1, r=0.01)
movel(p[-0.784034,0.314535,0.288262, 1.57, 0.00, 0.00], a=0.01, v=0.1, r=0.01)
movel(p[-0.784034,0.314535,0.288262, 1.57, 0.00, 0.00], a=0.01, v=0.1, r=0.01)
movel(p[-0.783357,0.312835,0.287778, 1.57, 0.00, 0.00], a=0.01, v=0.1, r=0.01)
movel(p[-0.783357,0.312835,0.287778, 1.57, 0.00, 0.00], a=0.01, v=0.1, r=0.01)
movel(p[-0.783132,0.312268,0.287617, 1.57, 0.00, 0.00], a=0.01, v=0.1, r=0.01)
movel(p[-0.782681,0.311134,0.287294, 1.57, 0.00, 0.00], a=0.01, v=0.1, r=0.01)
movel(p[-0.782004,0.309434,0.286809, 1.57, 0.00, 0.00], a=0.01, v=0.1, r=0.01)
movel(p[-0.781328,0.307734,0.286325, 1.57, 0.00, 0.00], a=0.01, v=0.1, r=0.01)
movel(p[-0.780599,0.305881,0.286451, 1.57, 0.00, 0.00], a=0.01, v=0.1, r=0.01)
movel(p[-0.779644,0.303461,0.286415, 1.57, 0.00, 0.00], a=0.01, v=0.1, r=0.01)
movel(p[-0.778689,0.301041,0.286379, 1.57, 0.00, 0.00], a=0.01, v=0.1, r=0.01)
movel(p[-0.777058,0.296921,0.285859, 1.57, 0.00, 0.00], a=0.01, v=0.1, r=0.01)
movel(p[-0.775653,0.293367,0.2855, 1.57, 0.00, 0.00], a=0.01, v=0.1, r=0.01)
movel(p[-0.774525,0.290533,0.284693, 1.57, 0.00, 0.00], a=0.01, v=0.1, r=0.01)
movel(p[-0.77312,0.28698,0.284334, 1.57, 0.00, 0.00], a=0.01, v=0.1, r=0.01)
movel(p[-0.771992,0.284146,0.283527, 1.57, 0.00, 0.00], a=0.01, v=0.1, r=0.01)
movel(p[-0.771992,0.284146,0.283527, 1.57, 0.00, 0.00], a=0.01, v=0.1, r=0.01)
movel(p[-0.77064,0.280745,0.282558, 1.57, 0.00, 0.00], a=0.01, v=0.1, r=0.01)
movel(p[-0.769061,0.276778,0.281428, 1.57, 0.00, 0.00], a=0.01, v=0.1, r=0.01)
movel(p[-0.765838,0.268734,0.277176, 1.57, 0.00, 0.00], a=0.01, v=0.1, r=0.01)
movel(p[-0.765838,0.268734,0.277176, 1.57, 0.00, 0.00], a=0.01, v=0.1, r=0.01)
movel(p[-0.764139,0.264506,0.274665, 1.57, 0.00, 0.00], a=0.01, v=0.1, r=0.01)
movel(p[-0.762269,0.259863,0.271382, 1.57, 0.00, 0.00], a=0.01, v=0.1, r=0.01)
movel(p[-0.760676,0.25594,0.267651, 1.57, 0.00, 0.00], a=0.01, v=0.1, r=0.01)
movel(p[-0.759031,0.251864,0.264529, 1.57, 0.00, 0.00], a=0.01, v=0.1, r=0.01)
movel(p[-0.757836,0.248921,0.261731, 1.57, 0.00, 0.00], a=0.01, v=0.1, r=0.01)
movel(p[-0.756642,0.245979,0.258932, 1.57, 0.00, 0.00], a=0.01, v=0.1, r=0.01)
movel(p[-0.756018,0.244431,0.257838, 1.57, 0.00, 0.00], a=0.01, v=0.1, r=0.01)
movel(p[-0.755448,0.243036,0.256134, 1.57, 0.00, 0.00], a=0.01, v=0.1, r=0.01)
movel(p[-0.754997,0.241903,0.255811, 1.57, 0.00, 0.00], a=0.01, v=0.1, r=0.01)
movel(p[-0.754824,0.241489,0.25504, 1.57, 0.00, 0.00], a=0.01, v=0.1, r=0.01)
movel(p[-0.754426,0.240508,0.254107, 1.57, 0.00, 0.00], a=0.01, v=0.1, r=0.01)
movel(p[-0.754253,0.240094,0.253335, 1.57, 0.00, 0.00], a=0.01, v=0.1, r=0.01)
movel(p[-0.753855,0.239113,0.252403, 1.57, 0.00, 0.00], a=0.01, v=0.1, r=0.01)
movel(p[-0.753284,0.237718,0.250698, 1.57, 0.00, 0.00], a=0.01, v=0.1, r=0.01)
movel(p[-0.75209,0.234776,0.2479, 1.57, 0.00, 0.00], a=0.01, v=0.1, r=0.01)
movel(p[-0.75079,0.231528,0.246321, 1.57, 0.00, 0.00], a=0.01, v=0.1, r=0.01)
movel(p[-0.749595,0.228585,0.243523, 1.57, 0.00, 0.00], a=0.01, v=0.1, r=0.01)
movel(p[-0.748123,0.224923,0.241173, 1.57, 0.00, 0.00], a=0.01, v=0.1, r=0.01)
movel(p[-0.745523,0.218427,0.238015, 1.57, 0.00, 0.00], a=0.01, v=0.1, r=0.01)
movel(p[-0.75079,0.231528,0.246321, 1.57, 0.00, 0.00], a=0.01, v=0.1, r=0.01)
movel(p[-0.745523,0.218427,0.238015, 1.57, 0.00, 0.00], a=0.01, v=0.1, r=0.01)
movel(p[-0.743945,0.21446,0.236885, 1.57, 0.00, 0.00], a=0.01, v=0.1, r=0.01)
movel(p[-0.742592,0.211059,0.235917, 1.57, 0.00, 0.00], a=0.01, v=0.1, r=0.01)
movel(p[-0.741464,0.208225,0.235109, 1.57, 0.00, 0.00], a=0.01, v=0.1, r=0.01)
movel(p[-0.740112,0.204825,0.234141, 1.57, 0.00, 0.00], a=0.01, v=0.1, r=0.01)
movel(p[-0.738931,0.201838,0.233943, 1.57, 0.00, 0.00], a=0.01, v=0.1, r=0.01)
movel(p[-0.737579,0.198437,0.232975, 1.57, 0.00, 0.00], a=0.01, v=0.1, r=0.01)
movel(p[-0.73612,0.194731,0.233226, 1.57, 0.00, 0.00], a=0.01, v=0.1, r=0.01)
movel(p[-0.734887,0.191592,0.233639, 1.57, 0.00, 0.00], a=0.01, v=0.1, r=0.01)
movel(p[-0.733203,0.187319,0.233728, 1.57, 0.00, 0.00], a=0.01, v=0.1, r=0.01)
movel(p[-0.731692,0.18346,0.23459, 1.57, 0.00, 0.00], a=0.01, v=0.1, r=0.01)
movel(p[-0.730128,0.179448,0.236061, 1.57, 0.00, 0.00], a=0.01, v=0.1, r=0.01)
movel(p[-0.728617,0.17559,0.236922, 1.57, 0.00, 0.00], a=0.01, v=0.1, r=0.01)
movel(p[-0.726045,0.169005,0.238967, 1.57, 0.00, 0.00], a=0.01, v=0.1, r=0.01)
movel(p[-0.725038,0.166433,0.239541, 1.57, 0.00, 0.00], a=0.01, v=0.1, r=0.01)
movel(p[-0.725038,0.166433,0.239541, 1.57, 0.00, 0.00], a=0.01, v=0.1, r=0.01)
movel(p[-0.724309,0.16458,0.239667, 1.57, 0.00, 0.00], a=0.01, v=0.1, r=0.01)
movel(p[-0.72285,0.160873,0.239918, 1.57, 0.00, 0.00], a=0.01, v=0.1, r=0.01)
movel(p[-0.722399,0.15974,0.239595, 1.57, 0.00, 0.00], a=0.01, v=0.1, r=0.01)
movel(p[-0.722399,0.15974,0.239595, 1.57, 0.00, 0.00], a=0.01, v=0.1, r=0.01)
movel(p[-0.721896,0.158454,0.239882, 1.57, 0.00, 0.00], a=0.01, v=0.1, r=0.01)
movel(p[-0.720715,0.155467,0.239685, 1.57, 0.00, 0.00], a=0.01, v=0.1, r=0.01)
movel(p[-0.720039,0.153767,0.2392, 1.57, 0.00, 0.00], a=0.01, v=0.1, r=0.01)
movel(p[-0.719588,0.152633,0.238877, 1.57, 0.00, 0.00], a=0.01, v=0.1, r=0.01)
movel(p[-0.719137,0.1515,0.238555, 1.57, 0.00, 0.00], a=0.01, v=0.1, r=0.01)
movel(p[-0.719137,0.1515,0.238555, 1.57, 0.00, 0.00], a=0.01, v=0.1, r=0.01)
movel(p[-0.718912,0.150933,0.238393, 1.57, 0.00, 0.00], a=0.01, v=0.1, r=0.01)
movel(p[-0.718912,0.150933,0.238393, 1.57, 0.00, 0.00], a=0.01, v=0.1, r=0.01)
movel(p[-0.718912,0.150933,0.238393, 1.57, 0.00, 0.00], a=0.01, v=0.1, r=0.01)
movel(p[-0.718686,0.150366,0.238232, 1.57, 0.00, 0.00], a=0.01, v=0.1, r=0.01)
movel(p[-0.718686,0.150366,0.238232, 1.57, 0.00, 0.00], a=0.01, v=0.1, r=0.01)
movel(p[-0.718461,0.149799,0.23807, 1.57, 0.00, 0.00], a=0.01, v=0.1, r=0.01)
movel(p[-0.718288,0.149385,0.237299, 1.57, 0.00, 0.00], a=0.01, v=0.1, r=0.01)
movel(p[-0.718288,0.149385,0.237299, 1.57, 0.00, 0.00], a=0.01, v=0.1, r=0.01)
movel(p[-0.718288,0.149385,0.237299, 1.57, 0.00, 0.00], a=0.01, v=0.1, r=0.01)
movel(p[-0.718063,0.148818,0.237137, 1.57, 0.00, 0.00], a=0.01, v=0.1, r=0.01)
movel(p[-0.718063,0.148818,0.237137, 1.57, 0.00, 0.00], a=0.01, v=0.1, r=0.01)
movel(p[-0.717612,0.147685,0.236815, 1.57, 0.00, 0.00], a=0.01, v=0.1, r=0.01)
movel(p[-0.717161,0.146551,0.236492, 1.57, 0.00, 0.00], a=0.01, v=0.1, r=0.01)
movel(p[-0.71671,0.145418,0.236169, 1.57, 0.00, 0.00], a=0.01, v=0.1, r=0.01)
movel(p[-0.716259,0.144284,0.235846, 1.57, 0.00, 0.00], a=0.01, v=0.1, r=0.01)
movel(p[-0.715582,0.142584,0.235362, 1.57, 0.00, 0.00], a=0.01, v=0.1, r=0.01)
movel(p[-0.714628,0.140164,0.235326, 1.57, 0.00, 0.00], a=0.01, v=0.1, r=0.01)
movel(p[-0.713275,0.136763,0.234357, 1.57, 0.00, 0.00], a=0.01, v=0.1, r=0.01)
movel(p[-0.712095,0.133777,0.23416, 1.57, 0.00, 0.00], a=0.01, v=0.1, r=0.01)
movel(p[-0.710742,0.130376,0.233191, 1.57, 0.00, 0.00], a=0.01, v=0.1, r=0.01)
movel(p[-0.709615,0.127542,0.232384, 1.57, 0.00, 0.00], a=0.01, v=0.1, r=0.01)
movel(p[-0.708262,0.124141,0.231415, 1.57, 0.00, 0.00], a=0.01, v=0.1, r=0.01)
movel(p[-0.706909,0.120741,0.230446, 1.57, 0.00, 0.00], a=0.01, v=0.1, r=0.01)
movel(p[-0.705105,0.116207,0.229155, 1.57, 0.00, 0.00], a=0.01, v=0.1, r=0.01)
movel(p[-0.70358,0.112392,0.227415, 1.57, 0.00, 0.00], a=0.01, v=0.1, r=0.01)
movel(p[-0.702333,0.109297,0.225226, 1.57, 0.00, 0.00], a=0.01, v=0.1, r=0.01)
movel(p[-0.701033,0.106049,0.223648, 1.57, 0.00, 0.00], a=0.01, v=0.1, r=0.01)
movel(p[-0.700236,0.104087,0.221782, 1.57, 0.00, 0.00], a=0.01, v=0.1, r=0.01)
movel(p[-0.699387,0.101973,0.220526, 1.57, 0.00, 0.00], a=0.01, v=0.1, r=0.01)
movel(p[-0.698644,0.100164,0.218051, 1.57, 0.00, 0.00], a=0.01, v=0.1, r=0.01)
movel(p[-0.6979,0.0983549,0.215575, 1.57, 0.00, 0.00], a=0.01, v=0.1, r=0.01)
movel(p[-0.69733,0.09696,0.213871, 1.57, 0.00, 0.00], a=0.01, v=0.1, r=0.01)
movel(p[-0.696984,0.0961319,0.212328, 1.57, 0.00, 0.00], a=0.01, v=0.1, r=0.01)
movel(p[-0.696466,0.0948898,0.210014, 1.57, 0.00, 0.00], a=0.01, v=0.1, r=0.01)
movel(p[-0.696399,0.0947812,0.208023, 1.57, 0.00, 0.00], a=0.01, v=0.1, r=0.01)
movel(p[-0.696332,0.0946727,0.206031, 1.57, 0.00, 0.00], a=0.01, v=0.1, r=0.01)
movel(p[-0.696265,0.0945641,0.20404, 1.57, 0.00, 0.00], a=0.01, v=0.1, r=0.01)
movel(p[-0.696251,0.0946083,0.201439, 1.57, 0.00, 0.00], a=0.01, v=0.1, r=0.01)
movel(p[-0.696409,0.0950665,0.199609, 1.57, 0.00, 0.00], a=0.01, v=0.1, r=0.01)
movel(p[-0.696568,0.0955247,0.197779, 1.57, 0.00, 0.00], a=0.01, v=0.1, r=0.01)
movel(p[-0.697004,0.0967024,0.195501, 1.57, 0.00, 0.00], a=0.01, v=0.1, r=0.01)
movel(p[-0.697772,0.0987524,0.192164, 1.57, 0.00, 0.00], a=0.01, v=0.1, r=0.01)
movel(p[-0.698765,0.101369,0.188989, 1.57, 0.00, 0.00], a=0.01, v=0.1, r=0.01)
movel(p[-0.699759,0.103986,0.185814, 1.57, 0.00, 0.00], a=0.01, v=0.1, r=0.01)
movel(p[-0.700977,0.107169,0.1828, 1.57, 0.00, 0.00], a=0.01, v=0.1, r=0.01)
movel(p[-0.701971,0.109786,0.179624, 1.57, 0.00, 0.00], a=0.01, v=0.1, r=0.01)
movel(p[-0.703189,0.11297,0.176611, 1.57, 0.00, 0.00], a=0.01, v=0.1, r=0.01)
movel(p[-0.704077,0.115281,0.174655, 1.57, 0.00, 0.00], a=0.01, v=0.1, r=0.01)
movel(p[-0.704964,0.117592,0.1727, 1.57, 0.00, 0.00], a=0.01, v=0.1, r=0.01)
movel(p[-0.706078,0.12047,0.170906, 1.57, 0.00, 0.00], a=0.01, v=0.1, r=0.01)
movel(p[-0.70686,0.122476,0.17017, 1.57, 0.00, 0.00], a=0.01, v=0.1, r=0.01)
movel(p[-0.707973,0.125354,0.168376, 1.57, 0.00, 0.00], a=0.01, v=0.1, r=0.01)
movel(p[-0.708529,0.126793,0.167479, 1.57, 0.00, 0.00], a=0.01, v=0.1, r=0.01)
movel(p[-0.709139,0.128385,0.165972, 1.57, 0.00, 0.00], a=0.01, v=0.1, r=0.01)
movel(p[-0.709973,0.130543,0.164627, 1.57, 0.00, 0.00], a=0.01, v=0.1, r=0.01)
movel(p[-0.71053,0.131982,0.16373, 1.57, 0.00, 0.00], a=0.01, v=0.1, r=0.01)
movel(p[-0.711365,0.134141,0.162384, 1.57, 0.00, 0.00], a=0.01, v=0.1, r=0.01)
movel(p[-0.712252,0.136452,0.160429, 1.57, 0.00, 0.00], a=0.01, v=0.1, r=0.01)
movel(p[-0.712252,0.136452,0.160429, 1.57, 0.00, 0.00], a=0.01, v=0.1, r=0.01)
movel(p[-0.712584,0.137324,0.159371, 1.57, 0.00, 0.00], a=0.01, v=0.1, r=0.01)
movel(p[-0.712967,0.138349,0.157702, 1.57, 0.00, 0.00], a=0.01, v=0.1, r=0.01)
movel(p[-0.713351,0.139374,0.156034, 1.57, 0.00, 0.00], a=0.01, v=0.1, r=0.01)
movel(p[-0.71351,0.139833,0.154204, 1.57, 0.00, 0.00], a=0.01, v=0.1, r=0.01)
movel(p[-0.713668,0.140291,0.152374, 1.57, 0.00, 0.00], a=0.01, v=0.1, r=0.01)
movel(p[-0.713932,0.141054,0.149325, 1.57, 0.00, 0.00], a=0.01, v=0.1, r=0.01)
movel(p[-0.714143,0.141665,0.146885, 1.57, 0.00, 0.00], a=0.01, v=0.1, r=0.01)
movel(p[-0.714407,0.142429,0.143835, 1.57, 0.00, 0.00], a=0.01, v=0.1, r=0.01)
movel(p[-0.714724,0.143346,0.140175, 1.57, 0.00, 0.00], a=0.01, v=0.1, r=0.01)
movel(p[-0.71447,0.142867,0.134812, 1.57, 0.00, 0.00], a=0.01, v=0.1, r=0.01)
movel(p[-0.71447,0.142867,0.134812, 1.57, 0.00, 0.00], a=0.01, v=0.1, r=0.01)
movel(p[-0.713952,0.141625,0.132497, 1.57, 0.00, 0.00], a=0.01, v=0.1, r=0.01)
movel(p[-0.713765,0.141255,0.129125, 1.57, 0.00, 0.00], a=0.01, v=0.1, r=0.01)
movel(p[-0.713022,0.139446,0.126649, 1.57, 0.00, 0.00], a=0.01, v=0.1, r=0.01)
movel(p[-0.712331,0.13779,0.123564, 1.57, 0.00, 0.00], a=0.01, v=0.1, r=0.01)
movel(p[-0.711866,0.136701,0.12064, 1.57, 0.00, 0.00], a=0.01, v=0.1, r=0.01)
movel(p[-0.71095,0.134478,0.117393, 1.57, 0.00, 0.00], a=0.01, v=0.1, r=0.01)
movel(p[-0.709703,0.131382,0.115204, 1.57, 0.00, 0.00], a=0.01, v=0.1, r=0.01)
movel(p[-0.708336,0.128026,0.111634, 1.57, 0.00, 0.00], a=0.01, v=0.1, r=0.01)
movel(p[-0.707141,0.125083,0.108836, 1.57, 0.00, 0.00], a=0.01, v=0.1, r=0.01)
movel(p[-0.705496,0.121007,0.105714, 1.57, 0.00, 0.00], a=0.01, v=0.1, r=0.01)
movel(p[-0.704023,0.117345,0.103364, 1.57, 0.00, 0.00], a=0.01, v=0.1, r=0.01)
movel(p[-0.702551,0.113683,0.101014, 1.57, 0.00, 0.00], a=0.01, v=0.1, r=0.01)
movel(p[-0.70068,0.109041,0.0977315, 1.57, 0.00, 0.00], a=0.01, v=0.1, r=0.01)
movel(p[-0.699207,0.105379,0.0953815, 1.57, 0.00, 0.00], a=0.01, v=0.1, r=0.01)
movel(p[-0.697682,0.101564,0.0936414, 1.57, 0.00, 0.00], a=0.01, v=0.1, r=0.01)
movel(p[-0.696156,0.0977491,0.0919013, 1.57, 0.00, 0.00], a=0.01, v=0.1, r=0.01)
movel(p[-0.694803,0.0943484,0.0909327, 1.57, 0.00, 0.00], a=0.01, v=0.1, r=0.01)
movel(p[-0.693,0.0898142,0.0896411, 1.57, 0.00, 0.00], a=0.01, v=0.1, r=0.01)
movel(p[-0.691196,0.0852799,0.0883495, 1.57, 0.00, 0.00], a=0.01, v=0.1, r=0.01)
movel(p[-0.689617,0.0813125,0.0872194, 1.57, 0.00, 0.00], a=0.01, v=0.1, r=0.01)
movel(p[-0.688716,0.0790454,0.0865736, 1.57, 0.00, 0.00], a=0.01, v=0.1, r=0.01)
movel(p[-0.687535,0.0760587,0.0863763, 1.57, 0.00, 0.00], a=0.01, v=0.1, r=0.01)
movel(p[-0.686806,0.0742057,0.0865019, 1.57, 0.00, 0.00], a=0.01, v=0.1, r=0.01)
movel(p[-0.686077,0.0723526,0.0866275, 1.57, 0.00, 0.00], a=0.01, v=0.1, r=0.01)
movel(p[-0.685573,0.0710663,0.0869146, 1.57, 0.00, 0.00], a=0.01, v=0.1, r=0.01)
movel(p[-0.685017,0.0696272,0.0878116, 1.57, 0.00, 0.00], a=0.01, v=0.1, r=0.01)
movel(p[-0.684791,0.0690605,0.0876501, 1.57, 0.00, 0.00], a=0.01, v=0.1, r=0.01)
movel(p[-0.684235,0.0676215,0.0885471, 1.57, 0.00, 0.00], a=0.01, v=0.1, r=0.01)
movel(p[-0.683453,0.0656156,0.0892827, 1.57, 0.00, 0.00], a=0.01, v=0.1, r=0.01)
movel(p[-0.682618,0.0634571,0.0906281, 1.57, 0.00, 0.00], a=0.01, v=0.1, r=0.01)
movel(p[-0.681836,0.0614513,0.0913637, 1.57, 0.00, 0.00], a=0.01, v=0.1, r=0.01)
movel(p[-0.681279,0.0600123,0.0922607, 1.57, 0.00, 0.00], a=0.01, v=0.1, r=0.01)
movel(p[-0.680617,0.0582678,0.0943775, 1.57, 0.00, 0.00], a=0.01, v=0.1, r=0.01)
movel(p[-0.680061,0.0568287,0.0952745, 1.57, 0.00, 0.00], a=0.01, v=0.1, r=0.01)
movel(p[-0.679782,0.0561092,0.095723, 1.57, 0.00, 0.00], a=0.01, v=0.1, r=0.01)
movel(p[-0.679451,0.055237,0.0967815, 1.57, 0.00, 0.00], a=0.01, v=0.1, r=0.01)
movel(p[-0.679451,0.055237,0.0967815, 1.57, 0.00, 0.00], a=0.01, v=0.1, r=0.01)
movel(p[-0.679173,0.0545175,0.09723, 1.57, 0.00, 0.00], a=0.01, v=0.1, r=0.01)
movel(p[-0.679173,0.0545175,0.09723, 1.57, 0.00, 0.00], a=0.01, v=0.1, r=0.01)
movel(p[-0.679173,0.0545175,0.09723, 1.57, 0.00, 0.00], a=0.01, v=0.1, r=0.01)
movel(p[-0.67912,0.0543647,0.0978399, 1.57, 0.00, 0.00], a=0.01, v=0.1, r=0.01)
movel(p[-0.679067,0.054212,0.0984499, 1.57, 0.00, 0.00], a=0.01, v=0.1, r=0.01)
movel(p[-0.678842,0.0536452,0.0982884, 1.57, 0.00, 0.00], a=0.01, v=0.1, r=0.01)
movel(p[-0.678789,0.0534925,0.0988984, 1.57, 0.00, 0.00], a=0.01, v=0.1, r=0.01)
movel(p[-0.678458,0.0526203,0.0999568, 1.57, 0.00, 0.00], a=0.01, v=0.1, r=0.01)
movel(p[-0.678233,0.0520535,0.0997954, 1.57, 0.00, 0.00], a=0.01, v=0.1, r=0.01)
movel(p[-0.67818,0.0519008,0.100405, 1.57, 0.00, 0.00], a=0.01, v=0.1, r=0.01)
movel(p[-0.67818,0.0519008,0.100405, 1.57, 0.00, 0.00], a=0.01, v=0.1, r=0.01)
movel(p[-0.677902,0.0511812,0.100854, 1.57, 0.00, 0.00], a=0.01, v=0.1, r=0.01)
movel(p[-0.677398,0.0498949,0.101141, 1.57, 0.00, 0.00], a=0.01, v=0.1, r=0.01)
movel(p[-0.677398,0.0498949,0.101141, 1.57, 0.00, 0.00], a=0.01, v=0.1, r=0.01)
movel(p[-0.677398,0.0498949,0.101141, 1.57, 0.00, 0.00], a=0.01, v=0.1, r=0.01)
movel(p[-0.677172,0.0493282,0.100979, 1.57, 0.00, 0.00], a=0.01, v=0.1, r=0.01)
movel(p[-0.677172,0.0493282,0.100979, 1.57, 0.00, 0.00], a=0.01, v=0.1, r=0.01)
movel(p[-0.677172,0.0493282,0.100979, 1.57, 0.00, 0.00], a=0.01, v=0.1, r=0.01)
movel(p[-0.677172,0.0493282,0.100979, 1.57, 0.00, 0.00], a=0.01, v=0.1, r=0.01)
movel(p[-0.677172,0.0493282,0.100979, 1.57, 0.00, 0.00], a=0.01, v=0.1, r=0.01)
movel(p[-0.677172,0.0493282,0.100979, 1.57, 0.00, 0.00], a=0.01, v=0.1, r=0.01)
movel(p[-0.677172,0.0493282,0.100979, 1.57, 0.00, 0.00], a=0.01, v=0.1, r=0.01)
movel(p[-0.677172,0.0493282,0.100979, 1.57, 0.00, 0.00], a=0.01, v=0.1, r=0.01)
movel(p[-0.676947,0.0487614,0.100818, 1.57, 0.00, 0.00], a=0.01, v=0.1, r=0.01)
movel(p[-0.676083,0.0466912,0.0969611, 1.57, 0.00, 0.00], a=0.01, v=0.1, r=0.01)
movel(p[-0.675738,0.0458631,0.0954183, 1.57, 0.00, 0.00], a=0.01, v=0.1, r=0.01)
movel(p[-0.675738,0.0458631,0.0954183, 1.57, 0.00, 0.00], a=0.01, v=0.1, r=0.01)
movel(p[-0.675566,0.0454491,0.0946469, 1.57, 0.00, 0.00], a=0.01, v=0.1, r=0.01)
movel(p[-0.675393,0.045035,0.0938755, 1.57, 0.00, 0.00], a=0.01, v=0.1, r=0.01)
movel(p[-0.675393,0.045035,0.0938755, 1.57, 0.00, 0.00], a=0.01, v=0.1, r=0.01)
movel(p[-0.67522,0.044621,0.0931041, 1.57, 0.00, 0.00], a=0.01, v=0.1, r=0.01)
movel(p[-0.67522,0.044621,0.0931041, 1.57, 0.00, 0.00], a=0.01, v=0.1, r=0.01)
movel(p[-0.6751,0.0443597,0.0917228, 1.57, 0.00, 0.00], a=0.01, v=0.1, r=0.01)
movel(p[-0.674875,0.043793,0.0915613, 1.57, 0.00, 0.00], a=0.01, v=0.1, r=0.01)
movel(p[-0.674928,0.0439457,0.0909514, 1.57, 0.00, 0.00], a=0.01, v=0.1, r=0.01)
movel(p[-0.674582,0.0431176,0.0894086, 1.57, 0.00, 0.00], a=0.01, v=0.1, r=0.01)
movel(p[-0.674582,0.0431176,0.0894086, 1.57, 0.00, 0.00], a=0.01, v=0.1, r=0.01)
movel(p[-0.674463,0.0428563,0.0880273, 1.57, 0.00, 0.00], a=0.01, v=0.1, r=0.01)
movel(p[-0.674463,0.0428563,0.0880273, 1.57, 0.00, 0.00], a=0.01, v=0.1, r=0.01)
movel(p[-0.674064,0.0418755,0.0870944, 1.57, 0.00, 0.00], a=0.01, v=0.1, r=0.01)
movel(p[-0.674064,0.0418755,0.0870944, 1.57, 0.00, 0.00], a=0.01, v=0.1, r=0.01)
movel(p[-0.674117,0.0420282,0.0864845, 1.57, 0.00, 0.00], a=0.01, v=0.1, r=0.01)
movel(p[-0.673892,0.0414614,0.086323, 1.57, 0.00, 0.00], a=0.01, v=0.1, r=0.01)
movel(p[-0.673945,0.0416142,0.0857131, 1.57, 0.00, 0.00], a=0.01, v=0.1, r=0.01)
movel(p[-0.673772,0.0412001,0.0849417, 1.57, 0.00, 0.00], a=0.01, v=0.1, r=0.01)
movel(p[-0.67381,0.0413971,0.0817305, 1.57, 0.00, 0.00], a=0.01, v=0.1, r=0.01)
movel(p[-0.67381,0.0413971,0.0817305, 1.57, 0.00, 0.00], a=0.01, v=0.1, r=0.01)
movel(p[-0.673465,0.040569,0.0801878, 1.57, 0.00, 0.00], a=0.01, v=0.1, r=0.01)
movel(p[-0.673465,0.040569,0.0801878, 1.57, 0.00, 0.00], a=0.01, v=0.1, r=0.01)
movel(p[-0.673518,0.0407217,0.0795778, 1.57, 0.00, 0.00], a=0.01, v=0.1, r=0.01)
movel(p[-0.673345,0.0403077,0.0788064, 1.57, 0.00, 0.00], a=0.01, v=0.1, r=0.01)
movel(p[-0.673345,0.0403077,0.0788064, 1.57, 0.00, 0.00], a=0.01, v=0.1, r=0.01)
movel(p[-0.673398,0.0404604,0.0781965, 1.57, 0.00, 0.00], a=0.01, v=0.1, r=0.01)
movel(p[-0.673398,0.0404604,0.0781965, 1.57, 0.00, 0.00], a=0.01, v=0.1, r=0.01)
movel(p[-0.673398,0.0404604,0.0781965, 1.57, 0.00, 0.00], a=0.01, v=0.1, r=0.01)
movel(p[-0.673225,0.0400464,0.0774251, 1.57, 0.00, 0.00], a=0.01, v=0.1, r=0.01)
movel(p[-0.673225,0.0400464,0.0774251, 1.57, 0.00, 0.00], a=0.01, v=0.1, r=0.01)
movel(p[-0.673053,0.0396323,0.0766537, 1.57, 0.00, 0.00], a=0.01, v=0.1, r=0.01)
movel(p[-0.673053,0.0396323,0.0766537, 1.57, 0.00, 0.00], a=0.01, v=0.1, r=0.01)
movel(p[-0.67288,0.0392183,0.0758823, 1.57, 0.00, 0.00], a=0.01, v=0.1, r=0.01)
movel(p[-0.672933,0.0393711,0.0752724, 1.57, 0.00, 0.00], a=0.01, v=0.1, r=0.01)
movel(p[-0.672986,0.0395238,0.0746624, 1.57, 0.00, 0.00], a=0.01, v=0.1, r=0.01)
movel(p[-0.67276,0.038957,0.074501, 1.57, 0.00, 0.00], a=0.01, v=0.1, r=0.01)
movel(p[-0.672813,0.0391098,0.073891, 1.57, 0.00, 0.00], a=0.01, v=0.1, r=0.01)
movel(p[-0.67264,0.0386957,0.0731197, 1.57, 0.00, 0.00], a=0.01, v=0.1, r=0.01)
movel(p[-0.672415,0.038129,0.0729582, 1.57, 0.00, 0.00], a=0.01, v=0.1, r=0.01)
movel(p[-0.672468,0.0382817,0.0723483, 1.57, 0.00, 0.00], a=0.01, v=0.1, r=0.01)
movel(p[-0.672242,0.0377149,0.0721868, 1.57, 0.00, 0.00], a=0.01, v=0.1, r=0.01)
movel(p[-0.672242,0.0377149,0.0721868, 1.57, 0.00, 0.00], a=0.01, v=0.1, r=0.01)
movel(p[-0.672242,0.0377149,0.0721868, 1.57, 0.00, 0.00], a=0.01, v=0.1, r=0.01)
movel(p[-0.672242,0.0377149,0.0721868, 1.57, 0.00, 0.00], a=0.01, v=0.1, r=0.01)
movel(p[-0.672242,0.0377149,0.0721868, 1.57, 0.00, 0.00], a=0.01, v=0.1, r=0.01)
movel(p[-0.672242,0.0377149,0.0721868, 1.57, 0.00, 0.00], a=0.01, v=0.1, r=0.01)
movel(p[-0.672242,0.0377149,0.0721868, 1.57, 0.00, 0.00], a=0.01, v=0.1, r=0.01)
movel(p[-0.672242,0.0377149,0.0721868, 1.57, 0.00, 0.00], a=0.01, v=0.1, r=0.01)
movel(p[-0.672242,0.0377149,0.0721868, 1.57, 0.00, 0.00], a=0.01, v=0.1, r=0.01)
movel(p[-0.672242,0.0377149,0.0721868, 1.57, 0.00, 0.00], a=0.01, v=0.1, r=0.01)
movel(p[-0.672242,0.0377149,0.0721868, 1.57, 0.00, 0.00], a=0.01, v=0.1, r=0.01)
movel(p[-0.672242,0.0377149,0.0721868, 1.57, 0.00, 0.00], a=0.01, v=0.1, r=0.01)
movel(p[-0.672242,0.0377149,0.0721868, 1.57, 0.00, 0.00], a=0.01, v=0.1, r=0.01)
movel(p[-0.672242,0.0377149,0.0721868, 1.57, 0.00, 0.00], a=0.01, v=0.1, r=0.01)
movel(p[-0.672242,0.0377149,0.0721868, 1.57, 0.00, 0.00], a=0.01, v=0.1, r=0.01)
movel(p[-0.672242,0.0377149,0.0721868, 1.57, 0.00, 0.00], a=0.01, v=0.1, r=0.01)
movel(p[-0.672242,0.0377149,0.0721868, 1.57, 0.00, 0.00], a=0.01, v=0.1, r=0.01)
movel(p[-0.672242,0.0377149,0.0721868, 1.57, 0.00, 0.00], a=0.01, v=0.1, r=0.01)
movel(p[-0.672242,0.0377149,0.0721868, 1.57, 0.00, 0.00], a=0.01, v=0.1, r=0.01)
movel(p[-0.672242,0.0377149,0.0721868, 1.57, 0.00, 0.00], a=0.01, v=0.1, r=0.01)
movel(p[-0.672242,0.0377149,0.0721868, 1.57, 0.00, 0.00], a=0.01, v=0.1, r=0.01)
movel(p[-0.672242,0.0377149,0.0721868, 1.57, 0.00, 0.00], a=0.01, v=0.1, r=0.01)
movel(p[-0.672242,0.0377149,0.0721868, 1.57, 0.00, 0.00], a=0.01, v=0.1, r=0.01)
movel(p[-0.672242,0.0377149,0.0721868, 1.57, 0.00, 0.00], a=0.01, v=0.1, r=0.01)
movel(p[-0.672242,0.0377149,0.0721868, 1.57, 0.00, 0.00], a=0.01, v=0.1, r=0.01)
movel(p[-0.672242,0.0377149,0.0721868, 1.57, 0.00, 0.00], a=0.01, v=0.1, r=0.01)
movel(p[-0.672242,0.0377149,0.0721868, 1.57, 0.00, 0.00], a=0.01, v=0.1, r=0.01)
movel(p[-0.672242,0.0377149,0.0721868, 1.57, 0.00, 0.00], a=0.01, v=0.1, r=0.01)
movel(p[-0.672242,0.0377149,0.0721868, 1.57, 0.00, 0.00], a=0.01, v=0.1, r=0.01)
movel(p[-0.672242,0.0377149,0.0721868, 1.57, 0.00, 0.00], a=0.01, v=0.1, r=0.01)
movel(p[-0.672242,0.0377149,0.0721868, 1.57, 0.00, 0.00], a=0.01, v=0.1, r=0.01)
movel(p[-0.672242,0.0377149,0.0721868, 1.57, 0.00, 0.00], a=0.01, v=0.1, r=0.01)
movel(p[-0.672242,0.0377149,0.0721868, 1.57, 0.00, 0.00], a=0.01, v=0.1, r=0.01)
movel(p[-0.672242,0.0377149,0.0721868, 1.57, 0.00, 0.00], a=0.01, v=0.1, r=0.01)
movel(p[-0.672242,0.0377149,0.0721868, 1.57, 0.00, 0.00], a=0.01, v=0.1, r=0.01)
movel(p[-0.672242,0.0377149,0.0721868, 1.57, 0.00, 0.00], a=0.01, v=0.1, r=0.01)
movel(p[-0.672242,0.0377149,0.0721868, 1.57, 0.00, 0.00], a=0.01, v=0.1, r=0.01)
movel(p[-0.672242,0.0377149,0.0721868, 1.57, 0.00, 0.00], a=0.01, v=0.1, r=0.01)
movel(p[-0.672242,0.0377149,0.0721868, 1.57, 0.00, 0.00], a=0.01, v=0.1, r=0.01)
movel(p[-0.672242,0.0377149,0.0721868, 1.57, 0.00, 0.00], a=0.01, v=0.1, r=0.01)
movel(p[-0.672242,0.0377149,0.0721868, 1.57, 0.00, 0.00], a=0.01, v=0.1, r=0.01)
movel(p[-0.672242,0.0377149,0.0721868, 1.57, 0.00, 0.00], a=0.01, v=0.1, r=0.01)
movel(p[-0.672242,0.0377149,0.0721868, 1.57, 0.00, 0.00], a=0.01, v=0.1, r=0.01)
movel(p[-0.672242,0.0377149,0.0721868, 1.57, 0.00, 0.00], a=0.01, v=0.1, r=0.01)
movel(p[-0.672242,0.0377149,0.0721868, 1.57, 0.00, 0.00], a=0.01, v=0.1, r=0.01)
movel(p[-0.672242,0.0377149,0.0721868, 1.57, 0.00, 0.00], a=0.01, v=0.1, r=0.01)
movel(p[-0.672242,0.0377149,0.0721868, 1.57, 0.00, 0.00], a=0.01, v=0.1, r=0.01)
movel(p[-0.672242,0.0377149,0.0721868, 1.57, 0.00, 0.00], a=0.01, v=0.1, r=0.01)
movel(p[-0.672242,0.0377149,0.0721868, 1.57, 0.00, 0.00], a=0.01, v=0.1, r=0.01)
movel(p[-0.672242,0.0377149,0.0721868, 1.57, 0.00, 0.00], a=0.01, v=0.1, r=0.01)
movel(p[-0.672242,0.0377149,0.0721868, 1.57, 0.00, 0.00], a=0.01, v=0.1, r=0.01)
movel(p[-0.672242,0.0377149,0.0721868, 1.57, 0.00, 0.00], a=0.01, v=0.1, r=0.01)
movel(p[-0.672242,0.0377149,0.0721868, 1.57, 0.00, 0.00], a=0.01, v=0.1, r=0.01)
movel(p[-0.672242,0.0377149,0.0721868, 1.57, 0.00, 0.00], a=0.01, v=0.1, r=0.01)
movel(p[-0.672242,0.0377149,0.0721868, 1.57, 0.00, 0.00], a=0.01, v=0.1, r=0.01)
movel(p[-0.672242,0.0377149,0.0721868, 1.57, 0.00, 0.00], a=0.01, v=0.1, r=0.01)
movel(p[-0.672242,0.0377149,0.0721868, 1.57, 0.00, 0.00], a=0.01, v=0.1, r=0.01)
movel(p[-0.672242,0.0377149,0.0721868, 1.57, 0.00, 0.00], a=0.01, v=0.1, r=0.01)
movel(p[-0.672242,0.0377149,0.0721868, 1.57, 0.00, 0.00], a=0.01, v=0.1, r=0.01)
movel(p[-0.672242,0.0377149,0.0721868, 1.57, 0.00, 0.00], a=0.01, v=0.1, r=0.01)
movel(p[-0.672242,0.0377149,0.0721868, 1.57, 0.00, 0.00], a=0.01, v=0.1, r=0.01)
movel(p[-0.672242,0.0377149,0.0721868, 1.57, 0.00, 0.00], a=0.01, v=0.1, r=0.01)
movel(p[-0.672242,0.0377149,0.0721868, 1.57, 0.00, 0.00], a=0.01, v=0.1, r=0.01)
movel(p[-0.672242,0.0377149,0.0721868, 1.57, 0.00, 0.00], a=0.01, v=0.1, r=0.01)
movel(p[-0.672242,0.0377149,0.0721868, 1.57, 0.00, 0.00], a=0.01, v=0.1, r=0.01)
movel(p[-0.672242,0.0377149,0.0721868, 1.57, 0.00, 0.00], a=0.01, v=0.1, r=0.01)
movel(p[-0.672242,0.0377149,0.0721868, 1.57, 0.00, 0.00], a=0.01, v=0.1, r=0.01)
movel(p[-0.672242,0.0377149,0.0721868, 1.57, 0.00, 0.00], a=0.01, v=0.1, r=0.01)
movel(p[-0.672242,0.0377149,0.0721868, 1.57, 0.00, 0.00], a=0.01, v=0.1, r=0.01)
movel(p[-0.672242,0.0377149,0.0721868, 1.57, 0.00, 0.00], a=0.01, v=0.1, r=0.01)
movel(p[-0.672242,0.0377149,0.0721868, 1.57, 0.00, 0.00], a=0.01, v=0.1, r=0.01)
movel(p[-0.672242,0.0377149,0.0721868, 1.57, 0.00, 0.00], a=0.01, v=0.1, r=0.01)
movel(p[-0.672242,0.0377149,0.0721868, 1.57, 0.00, 0.00], a=0.01, v=0.1, r=0.01)
movel(p[-0.672242,0.0377149,0.0721868, 1.57, 0.00, 0.00], a=0.01, v=0.1, r=0.01)
movel(p[-0.672242,0.0377149,0.0721868, 1.57, 0.00, 0.00], a=0.01, v=0.1, r=0.01)
movel(p[-0.672242,0.0377149,0.0721868, 1.57, 0.00, 0.00], a=0.01, v=0.1, r=0.01)
movel(p[-0.672242,0.0377149,0.0721868, 1.57, 0.00, 0.00], a=0.01, v=0.1, r=0.01)
movel(p[-0.672242,0.0377149,0.0721868, 1.57, 0.00, 0.00], a=0.01, v=0.1, r=0.01)
movel(p[-0.672242,0.0377149,0.0721868, 1.57, 0.00, 0.00], a=0.01, v=0.1, r=0.01)
movel(p[-0.672242,0.0377149,0.0721868, 1.57, 0.00, 0.00], a=0.01, v=0.1, r=0.01)
movel(p[-0.672242,0.0377149,0.0721868, 1.57, 0.00, 0.00], a=0.01, v=0.1, r=0.01)
movel(p[-0.672242,0.0377149,0.0721868, 1.57, 0.00, 0.00], a=0.01, v=0.1, r=0.01)
movel(p[-0.672242,0.0377149,0.0721868, 1.57, 0.00, 0.00], a=0.01, v=0.1, r=0.01)
movel(p[-0.672242,0.0377149,0.0721868, 1.57, 0.00, 0.00], a=0.01, v=0.1, r=0.01)
movel(p[-0.672242,0.0377149,0.0721868, 1.57, 0.00, 0.00], a=0.01, v=0.1, r=0.01)
movel(p[-0.672242,0.0377149,0.0721868, 1.57, 0.00, 0.00], a=0.01, v=0.1, r=0.01)
movel(p[-0.672242,0.0377149,0.0721868, 1.57, 0.00, 0.00], a=0.01, v=0.1, r=0.01)
movel(p[-0.672242,0.0377149,0.0721868, 1.57, 0.00, 0.00], a=0.01, v=0.1, r=0.01)
movel(p[-0.672242,0.0377149,0.0721868, 1.57, 0.00, 0.00], a=0.01, v=0.1, r=0.01)
movel(p[-0.672242,0.0377149,0.0721868, 1.57, 0.00, 0.00], a=0.01, v=0.1, r=0.01)
movel(p[-0.672242,0.0377149,0.0721868, 1.57, 0.00, 0.00], a=0.01, v=0.1, r=0.01)
movel(p[-0.672242,0.0377149,0.0721868, 1.57, 0.00, 0.00], a=0.01, v=0.1, r=0.01)
movel(p[-0.672242,0.0377149,0.0721868, 1.57, 0.00, 0.00], a=0.01, v=0.1, r=0.01)
movel(p[-0.672242,0.0377149,0.0721868, 1.57, 0.00, 0.00], a=0.01, v=0.1, r=0.01)
movel(p[-0.672242,0.0377149,0.0721868, 1.57, 0.00, 0.00], a=0.01, v=0.1, r=0.01)
movel(p[-0.672242,0.0377149,0.0721868, 1.57, 0.00, 0.00], a=0.01, v=0.1, r=0.01)
movel(p[-0.672242,0.0377149,0.0721868, 1.57, 0.00, 0.00], a=0.01, v=0.1, r=0.01)
movel(p[-0.672242,0.0377149,0.0721868, 1.57, 0.00, 0.00], a=0.01, v=0.1, r=0.01)
movel(p[-0.672242,0.0377149,0.0721868, 1.57, 0.00, 0.00], a=0.01, v=0.1, r=0.01)
movel(p[-0.672242,0.0377149,0.0721868, 1.57, 0.00, 0.00], a=0.01, v=0.1, r=0.01)
movel(p[-0.672242,0.0377149,0.0721868, 1.57, 0.00, 0.00], a=0.01, v=0.1, r=0.01)
movel(p[-0.672242,0.0377149,0.0721868, 1.57, 0.00, 0.00], a=0.01, v=0.1, r=0.01)
movel(p[-0.672242,0.0377149,0.0721868, 1.57, 0.00, 0.00], a=0.01, v=0.1, r=0.01)
movel(p[-0.672242,0.0377149,0.0721868, 1.57, 0.00, 0.00], a=0.01, v=0.1, r=0.01)
movel(p[-0.672242,0.0377149,0.0721868, 1.57, 0.00, 0.00], a=0.01, v=0.1, r=0.01)
movel(p[-0.672242,0.0377149,0.0721868, 1.57, 0.00, 0.00], a=0.01, v=0.1, r=0.01)
movel(p[-0.672242,0.0377149,0.0721868, 1.57, 0.00, 0.00], a=0.01, v=0.1, r=0.01)
movel(p[-0.672242,0.0377149,0.0721868, 1.57, 0.00, 0.00], a=0.01, v=0.1, r=0.01)
movel(p[-0.672242,0.0377149,0.0721868, 1.57, 0.00, 0.00], a=0.01, v=0.1, r=0.01)
movel(p[-0.672242,0.0377149,0.0721868, 1.57, 0.00, 0.00], a=0.01, v=0.1, r=0.01)
movel(p[-0.672242,0.0377149,0.0721868, 1.57, 0.00, 0.00], a=0.01, v=0.1, r=0.01)
movel(p[-0.672242,0.0377149,0.0721868, 1.57, 0.00, 0.00], a=0.01, v=0.1, r=0.01)
movel(p[-0.672242,0.0377149,0.0721868, 1.57, 0.00, 0.00], a=0.01, v=0.1, r=0.01)
movel(p[-0.672242,0.0377149,0.0721868, 1.57, 0.00, 0.00], a=0.01, v=0.1, r=0.01)
movel(p[-0.672242,0.0377149,0.0721868, 1.57, 0.00, 0.00], a=0.01, v=0.1, r=0.01)
movel(p[-0.672242,0.0377149,0.0721868, 1.57, 0.00, 0.00], a=0.01, v=0.1, r=0.01)
movel(p[-0.672242,0.0377149,0.0721868, 1.57, 0.00, 0.00], a=0.01, v=0.1, r=0.01)
movel(p[-0.672242,0.0377149,0.0721868, 1.57, 0.00, 0.00], a=0.01, v=0.1, r=0.01)
movel(p[-0.672242,0.0377149,0.0721868, 1.57, 0.00, 0.00], a=0.01, v=0.1, r=0.01)
movel(p[-0.672242,0.0377149,0.0721868, 1.57, 0.00, 0.00], a=0.01, v=0.1, r=0.01)
movel(p[-0.672242,0.0377149,0.0721868, 1.57, 0.00, 0.00], a=0.01, v=0.1, r=0.01)
movel(p[-0.672242,0.0377149,0.0721868, 1.57, 0.00, 0.00], a=0.01, v=0.1, r=0.01)
movel(p[-0.672242,0.0377149,0.0721868, 1.57, 0.00, 0.00], a=0.01, v=0.1, r=0.01)
movel(p[-0.672242,0.0377149,0.0721868, 1.57, 0.00, 0.00], a=0.01, v=0.1, r=0.01)
movel(p[-0.672242,0.0377149,0.0721868, 1.57, 0.00, 0.00], a=0.01, v=0.1, r=0.01)
movel(p[-0.672242,0.0377149,0.0721868, 1.57, 0.00, 0.00], a=0.01, v=0.1, r=0.01)
movel(p[-0.672242,0.0377149,0.0721868, 1.57, 0.00, 0.00], a=0.01, v=0.1, r=0.01)
movel(p[-0.672242,0.0377149,0.0721868, 1.57, 0.00, 0.00], a=0.01, v=0.1, r=0.01)
movel(p[-0.672242,0.0377149,0.0721868, 1.57, 0.00, 0.00], a=0.01, v=0.1, r=0.01)
movel(p[-0.672242,0.0377149,0.0721868, 1.57, 0.00, 0.00], a=0.01, v=0.1, r=0.01)
movel(p[-0.672242,0.0377149,0.0721868, 1.57, 0.00, 0.00], a=0.01, v=0.1, r=0.01)
movel(p[-0.672242,0.0377149,0.0721868, 1.57, 0.00, 0.00], a=0.01, v=0.1, r=0.01)
movel(p[-0.672242,0.0377149,0.0721868, 1.57, 0.00, 0.00], a=0.01, v=0.1, r=0.01)
movel(p[-0.672242,0.0377149,0.0721868, 1.57, 0.00, 0.00], a=0.01, v=0.1, r=0.01)
movel(p[-0.672242,0.0377149,0.0721868, 1.57, 0.00, 0.00], a=0.01, v=0.1, r=0.01)
movel(p[-0.672242,0.0377149,0.0721868, 1.57, 0.00, 0.00], a=0.01, v=0.1, r=0.01)
movel(p[-0.672242,0.0377149,0.0721868, 1.57, 0.00, 0.00], a=0.01, v=0.1, r=0.01)
movel(p[-0.672242,0.0377149,0.0721868, 1.57, 0.00, 0.00], a=0.01, v=0.1, r=0.01)
movel(p[-0.672242,0.0377149,0.0721868, 1.57, 0.00, 0.00], a=0.01, v=0.1, r=0.01)
movel(p[-0.672242,0.0377149,0.0721868, 1.57, 0.00, 0.00], a=0.01, v=0.1, r=0.01)
movel(p[-0.672242,0.0377149,0.0721868, 1.57, 0.00, 0.00], a=0.01, v=0.1, r=0.01)
movel(p[-0.672242,0.0377149,0.0721868, 1.57, 0.00, 0.00], a=0.01, v=0.1, r=0.01)
movel(p[-0.672242,0.0377149,0.0721868, 1.57, 0.00, 0.00], a=0.01, v=0.1, r=0.01)
movel(p[-0.672242,0.0377149,0.0721868, 1.57, 0.00, 0.00], a=0.01, v=0.1, r=0.01)
movel(p[-0.672242,0.0377149,0.0721868, 1.57, 0.00, 0.00], a=0.01, v=0.1, r=0.01)
movel(p[-0.672242,0.0377149,0.0721868, 1.57, 0.00, 0.00], a=0.01, v=0.1, r=0.01)
movel(p[-0.672242,0.0377149,0.0721868, 1.57, 0.00, 0.00], a=0.01, v=0.1, r=0.01)
movel(p[-0.672242,0.0377149,0.0721868, 1.57, 0.00, 0.00], a=0.01, v=0.1, r=0.01)
movel(p[-0.672242,0.0377149,0.0721868, 1.57, 0.00, 0.00], a=0.01, v=0.1, r=0.01)
movel(p[-0.672242,0.0377149,0.0721868, 1.57, 0.00, 0.00], a=0.01, v=0.1, r=0.01)
movel(p[-0.672242,0.0377149,0.0721868, 1.57, 0.00, 0.00], a=0.01, v=0.1, r=0.01)
movel(p[-0.672242,0.0377149,0.0721868, 1.57, 0.00, 0.00], a=0.01, v=0.1, r=0.01)
movel(p[-0.672242,0.0377149,0.0721868, 1.57, 0.00, 0.00], a=0.01, v=0.1, r=0.01)
movel(p[-0.672242,0.0377149,0.0721868, 1.57, 0.00, 0.00], a=0.01, v=0.1, r=0.01)
movel(p[-0.672242,0.0377149,0.0721868, 1.57, 0.00, 0.00], a=0.01, v=0.1, r=0.01)
movel(p[-0.672242,0.0377149,0.0721868, 1.57, 0.00, 0.00], a=0.01, v=0.1, r=0.01)
movel(p[-0.672242,0.0377149,0.0721868, 1.57, 0.00, 0.00], a=0.01, v=0.1, r=0.01)
movel(p[-0.672242,0.0377149,0.0721868, 1.57, 0.00, 0.00], a=0.01, v=0.1, r=0.01)
movel(p[-0.672242,0.0377149,0.0721868, 1.57, 0.00, 0.00], a=0.01, v=0.1, r=0.01)
movel(p[-0.672242,0.0377149,0.0721868, 1.57, 0.00, 0.00], a=0.01, v=0.1, r=0.01)
movel(p[-0.672242,0.0377149,0.0721868, 1.57, 0.00, 0.00], a=0.01, v=0.1, r=0.01)
movel(p[-0.672242,0.0377149,0.0721868, 1.57, 0.00, 0.00], a=0.01, v=0.1, r=0.01)
movel(p[-0.672242,0.0377149,0.0721868, 1.57, 0.00, 0.00], a=0.01, v=0.1, r=0.01)
movel(p[-0.672242,0.0377149,0.0721868, 1.57, 0.00, 0.00], a=0.01, v=0.1, r=0.01)
movel(p[-0.672242,0.0377149,0.0721868, 1.57, 0.00, 0.00], a=0.01, v=0.1, r=0.01)
movel(p[-0.672242,0.0377149,0.0721868, 1.57, 0.00, 0.00], a=0.01, v=0.1, r=0.01)
movel(p[-0.672242,0.0377149,0.0721868, 1.57, 0.00, 0.00], a=0.01, v=0.1, r=0.01)
movel(p[-0.672242,0.0377149,0.0721868, 1.57, 0.00, 0.00], a=0.01, v=0.1, r=0.01)
movel(p[-0.672242,0.0377149,0.0721868, 1.57, 0.00, 0.00], a=0.01, v=0.1, r=0.01)
movel(p[-0.672242,0.0377149,0.0721868, 1.57, 0.00, 0.00], a=0.01, v=0.1, r=0.01)
movel(p[-0.672242,0.0377149,0.0721868, 1.57, 0.00, 0.00], a=0.01, v=0.1, r=0.01)
movel(p[-0.672242,0.0377149,0.0721868, 1.57, 0.00, 0.00], a=0.01, v=0.1, r=0.01)
movel(p[-0.672242,0.0377149,0.0721868, 1.57, 0.00, 0.00], a=0.01, v=0.1, r=0.01)
movel(p[-0.672242,0.0377149,0.0721868, 1.57, 0.00, 0.00], a=0.01, v=0.1, r=0.01)
movel(p[-0.672242,0.0377149,0.0721868, 1.57, 0.00, 0.00], a=0.01, v=0.1, r=0.01)
movel(p[-0.672242,0.0377149,0.0721868, 1.57, 0.00, 0.00], a=0.01, v=0.1, r=0.01)
movel(p[-0.672242,0.0377149,0.0721868, 1.57, 0.00, 0.00], a=0.01, v=0.1, r=0.01)
movel(p[-0.672242,0.0377149,0.0721868, 1.57, 0.00, 0.00], a=0.01, v=0.1, r=0.01)
movel(p[-0.672242,0.0377149,0.0721868, 1.57, 0.00, 0.00], a=0.01, v=0.1, r=0.01)
movel(p[-0.672242,0.0377149,0.0721868, 1.57, 0.00, 0.00], a=0.01, v=0.1, r=0.01)
movel(p[-0.672242,0.0377149,0.0721868, 1.57, 0.00, 0.00], a=0.01, v=0.1, r=0.01)
end
