def myProg():
movel(p[-0.280768,-0.0287338,0.47323, 1.57, 0.00, 0.00], a=0.01, v=0.1, r=0.01)
movel(p[-0.280311,-0.0286111,0.471608, 1.57, 0.00, 0.00], a=0.01, v=0.1, r=0.01)
movel(p[-0.280443,-0.0289912,0.471081, 1.57, 0.00, 0.00], a=0.01, v=0.1, r=0.01)
movel(p[-0.279458,-0.028422,0.46996, 1.57, 0.00, 0.00], a=0.01, v=0.1, r=0.01)
movel(p[-0.278781,-0.0281838,0.468192, 1.57, 0.00, 0.00], a=0.01, v=0.1, r=0.01)
movel(p[-0.278907,-0.0283042,0.466328, 1.57, 0.00, 0.00], a=0.01, v=0.1, r=0.01)
movel(p[-0.278299,-0.0287624,0.465264, 1.57, 0.00, 0.00], a=0.01, v=0.1, r=0.01)
movel(p[-0.278333,-0.0289668,0.464726, 1.57, 0.00, 0.00], a=0.01, v=0.1, r=0.01)
movel(p[-0.278321,-0.0291226,0.463918, 1.57, 0.00, 0.00], a=0.01, v=0.1, r=0.01)
movel(p[-0.278346,-0.0287812,0.462904, 1.57, 0.00, 0.00], a=0.01, v=0.1, r=0.01)
movel(p[-0.278515,-0.0285567,0.461438, 1.57, 0.00, 0.00], a=0.01, v=0.1, r=0.01)
movel(p[-0.278493,-0.0288515,0.460621, 1.57, 0.00, 0.00], a=0.01, v=0.1, r=0.01)
movel(p[-0.278819,-0.0286973,0.458733, 1.57, 0.00, 0.00], a=0.01, v=0.1, r=0.01)
movel(p[-0.279466,-0.0288315,0.456994, 1.57, 0.00, 0.00], a=0.01, v=0.1, r=0.01)
movel(p[-0.279891,-0.0290897,0.45492, 1.57, 0.00, 0.00], a=0.01, v=0.1, r=0.01)
movel(p[-0.28,-0.0292976,0.454276, 1.57, 0.00, 0.00], a=0.01, v=0.1, r=0.01)
movel(p[-0.280959,-0.0293499,0.451738, 1.57, 0.00, 0.00], a=0.01, v=0.1, r=0.01)
movel(p[-0.281652,-0.0298783,0.449677, 1.57, 0.00, 0.00], a=0.01, v=0.1, r=0.01)
movel(p[-0.281474,-0.0303211,0.448238, 1.57, 0.00, 0.00], a=0.01, v=0.1, r=0.01)
movel(p[-0.28187,-0.0306836,0.446818, 1.57, 0.00, 0.00], a=0.01, v=0.1, r=0.01)
movel(p[-0.282278,-0.0314017,0.444107, 1.57, 0.00, 0.00], a=0.01, v=0.1, r=0.01)
movel(p[-0.282441,-0.031582,0.442468, 1.57, 0.00, 0.00], a=0.01, v=0.1, r=0.01)
movel(p[-0.282899,-0.0321275,0.439936, 1.57, 0.00, 0.00], a=0.01, v=0.1, r=0.01)
movel(p[-0.283555,-0.0325884,0.438144, 1.57, 0.00, 0.00], a=0.01, v=0.1, r=0.01)
movel(p[-0.2837,-0.0328023,0.436365, 1.57, 0.00, 0.00], a=0.01, v=0.1, r=0.01)
movel(p[-0.283871,-0.032726,0.435367, 1.57, 0.00, 0.00], a=0.01, v=0.1, r=0.01)
movel(p[-0.284629,-0.0328306,0.433127, 1.57, 0.00, 0.00], a=0.01, v=0.1, r=0.01)
movel(p[-0.284963,-0.032988,0.432401, 1.57, 0.00, 0.00], a=0.01, v=0.1, r=0.01)
movel(p[-0.286335,-0.0334101,0.429904, 1.57, 0.00, 0.00], a=0.01, v=0.1, r=0.01)
movel(p[-0.287071,-0.0331704,0.427579, 1.57, 0.00, 0.00], a=0.01, v=0.1, r=0.01)
movel(p[-0.287814,-0.033044,0.425939, 1.57, 0.00, 0.00], a=0.01, v=0.1, r=0.01)
movel(p[-0.288774,-0.0333592,0.424005, 1.57, 0.00, 0.00], a=0.01, v=0.1, r=0.01)
movel(p[-0.289794,-0.033799,0.421743, 1.57, 0.00, 0.00], a=0.01, v=0.1, r=0.01)
movel(p[-0.290086,-0.0341003,0.419761, 1.57, 0.00, 0.00], a=0.01, v=0.1, r=0.01)
movel(p[-0.291355,-0.0344515,0.415995, 1.57, 0.00, 0.00], a=0.01, v=0.1, r=0.01)
movel(p[-0.291639,-0.0344014,0.412908, 1.57, 0.00, 0.00], a=0.01, v=0.1, r=0.01)
movel(p[-0.29246,-0.0345814,0.41135, 1.57, 0.00, 0.00], a=0.01, v=0.1, r=0.01)
movel(p[-0.293482,-0.0344586,0.408895, 1.57, 0.00, 0.00], a=0.01, v=0.1, r=0.01)
movel(p[-0.294194,-0.0343557,0.405658, 1.57, 0.00, 0.00], a=0.01, v=0.1, r=0.01)
movel(p[-0.29485,-0.0344308,0.404538, 1.57, 0.00, 0.00], a=0.01, v=0.1, r=0.01)
movel(p[-0.295123,-0.0344049,0.401641, 1.57, 0.00, 0.00], a=0.01, v=0.1, r=0.01)
movel(p[-0.295926,-0.0344645,0.398403, 1.57, 0.00, 0.00], a=0.01, v=0.1, r=0.01)
movel(p[-0.296495,-0.0341889,0.395325, 1.57, 0.00, 0.00], a=0.01, v=0.1, r=0.01)
movel(p[-0.297304,-0.0340573,0.392052, 1.57, 0.00, 0.00], a=0.01, v=0.1, r=0.01)
movel(p[-0.298585,-0.0342527,0.38992, 1.57, 0.00, 0.00], a=0.01, v=0.1, r=0.01)
movel(p[-0.298539,-0.0337392,0.387513, 1.57, 0.00, 0.00], a=0.01, v=0.1, r=0.01)
movel(p[-0.299705,-0.0340107,0.383746, 1.57, 0.00, 0.00], a=0.01, v=0.1, r=0.01)
movel(p[-0.300347,-0.0342891,0.380448, 1.57, 0.00, 0.00], a=0.01, v=0.1, r=0.01)
movel(p[-0.300996,-0.0344509,0.3792, 1.57, 0.00, 0.00], a=0.01, v=0.1, r=0.01)
movel(p[-0.30176,-0.0336474,0.375653, 1.57, 0.00, 0.00], a=0.01, v=0.1, r=0.01)
movel(p[-0.302288,-0.0325683,0.37179, 1.57, 0.00, 0.00], a=0.01, v=0.1, r=0.01)
movel(p[-0.302668,-0.0313581,0.369017, 1.57, 0.00, 0.00], a=0.01, v=0.1, r=0.01)
movel(p[-0.303628,-0.0313379,0.365976, 1.57, 0.00, 0.00], a=0.01, v=0.1, r=0.01)
movel(p[-0.304278,-0.0309641,0.362807, 1.57, 0.00, 0.00], a=0.01, v=0.1, r=0.01)
movel(p[-0.304396,-0.0305803,0.360715, 1.57, 0.00, 0.00], a=0.01, v=0.1, r=0.01)
movel(p[-0.304611,-0.0301562,0.356461, 1.57, 0.00, 0.00], a=0.01, v=0.1, r=0.01)
movel(p[-0.305405,-0.0300478,0.354302, 1.57, 0.00, 0.00], a=0.01, v=0.1, r=0.01)
movel(p[-0.305331,-0.029223,0.351688, 1.57, 0.00, 0.00], a=0.01, v=0.1, r=0.01)
movel(p[-0.30652,-0.028068,0.346901, 1.57, 0.00, 0.00], a=0.01, v=0.1, r=0.01)
movel(p[-0.30688,-0.0273051,0.34442, 1.57, 0.00, 0.00], a=0.01, v=0.1, r=0.01)
movel(p[-0.307427,-0.0271313,0.343055, 1.57, 0.00, 0.00], a=0.01, v=0.1, r=0.01)
movel(p[-0.3082,-0.0270504,0.339481, 1.57, 0.00, 0.00], a=0.01, v=0.1, r=0.01)
movel(p[-0.308432,-0.0266992,0.336803, 1.57, 0.00, 0.00], a=0.01, v=0.1, r=0.01)
movel(p[-0.307834,-0.0257247,0.333686, 1.57, 0.00, 0.00], a=0.01, v=0.1, r=0.01)
movel(p[-0.309212,-0.0252658,0.330116, 1.57, 0.00, 0.00], a=0.01, v=0.1, r=0.01)
movel(p[-0.30902,-0.0240911,0.327289, 1.57, 0.00, 0.00], a=0.01, v=0.1, r=0.01)
movel(p[-0.308805,-0.0234988,0.324391, 1.57, 0.00, 0.00], a=0.01, v=0.1, r=0.01)
movel(p[-0.309009,-0.0226722,0.320519, 1.57, 0.00, 0.00], a=0.01, v=0.1, r=0.01)
movel(p[-0.308791,-0.0214455,0.317883, 1.57, 0.00, 0.00], a=0.01, v=0.1, r=0.01)
movel(p[-0.309267,-0.0211986,0.31634, 1.57, 0.00, 0.00], a=0.01, v=0.1, r=0.01)
movel(p[-0.309168,-0.0197044,0.313493, 1.57, 0.00, 0.00], a=0.01, v=0.1, r=0.01)
movel(p[-0.309124,-0.0190872,0.310463, 1.57, 0.00, 0.00], a=0.01, v=0.1, r=0.01)
movel(p[-0.309555,-0.0188039,0.309141, 1.57, 0.00, 0.00], a=0.01, v=0.1, r=0.01)
movel(p[-0.309333,-0.0178328,0.306356, 1.57, 0.00, 0.00], a=0.01, v=0.1, r=0.01)
movel(p[-0.309041,-0.0171403,0.303707, 1.57, 0.00, 0.00], a=0.01, v=0.1, r=0.01)
movel(p[-0.308377,-0.0170478,0.301585, 1.57, 0.00, 0.00], a=0.01, v=0.1, r=0.01)
movel(p[-0.308106,-0.0167293,0.299665, 1.57, 0.00, 0.00], a=0.01, v=0.1, r=0.01)
movel(p[-0.308612,-0.0162442,0.297215, 1.57, 0.00, 0.00], a=0.01, v=0.1, r=0.01)
movel(p[-0.307933,-0.0152179,0.295057, 1.57, 0.00, 0.00], a=0.01, v=0.1, r=0.01)
movel(p[-0.30711,-0.0152985,0.294294, 1.57, 0.00, 0.00], a=0.01, v=0.1, r=0.01)
movel(p[-0.306271,-0.0147896,0.292043, 1.57, 0.00, 0.00], a=0.01, v=0.1, r=0.01)
movel(p[-0.306442,-0.0144058,0.290148, 1.57, 0.00, 0.00], a=0.01, v=0.1, r=0.01)
movel(p[-0.306683,-0.0139224,0.287816, 1.57, 0.00, 0.00], a=0.01, v=0.1, r=0.01)
movel(p[-0.305839,-0.0134361,0.286134, 1.57, 0.00, 0.00], a=0.01, v=0.1, r=0.01)
movel(p[-0.305604,-0.0133413,0.285101, 1.57, 0.00, 0.00], a=0.01, v=0.1, r=0.01)
movel(p[-0.305716,-0.0126845,0.28233, 1.57, 0.00, 0.00], a=0.01, v=0.1, r=0.01)
movel(p[-0.306,-0.0121644,0.281064, 1.57, 0.00, 0.00], a=0.01, v=0.1, r=0.01)
movel(p[-0.305703,-0.0123856,0.280239, 1.57, 0.00, 0.00], a=0.01, v=0.1, r=0.01)
movel(p[-0.306257,-0.0126251,0.278506, 1.57, 0.00, 0.00], a=0.01, v=0.1, r=0.01)
movel(p[-0.306742,-0.0128102,0.277268, 1.57, 0.00, 0.00], a=0.01, v=0.1, r=0.01)
movel(p[-0.306878,-0.0126276,0.276278, 1.57, 0.00, 0.00], a=0.01, v=0.1, r=0.01)
movel(p[-0.307139,-0.0125947,0.275599, 1.57, 0.00, 0.00], a=0.01, v=0.1, r=0.01)
movel(p[-0.307674,-0.0122719,0.27479, 1.57, 0.00, 0.00], a=0.01, v=0.1, r=0.01)
movel(p[-0.307783,-0.012141,0.274008, 1.57, 0.00, 0.00], a=0.01, v=0.1, r=0.01)
movel(p[-0.308033,-0.0119772,0.273062, 1.57, 0.00, 0.00], a=0.01, v=0.1, r=0.01)
movel(p[-0.30879,-0.0115717,0.27253, 1.57, 0.00, 0.00], a=0.01, v=0.1, r=0.01)
movel(p[-0.309363,-0.0111061,0.272622, 1.57, 0.00, 0.00], a=0.01, v=0.1, r=0.01)
movel(p[-0.30971,-0.0106558,0.27097, 1.57, 0.00, 0.00], a=0.01, v=0.1, r=0.01)
movel(p[-0.310298,-0.0103296,0.2709, 1.57, 0.00, 0.00], a=0.01, v=0.1, r=0.01)
movel(p[-0.311101,-0.0104706,0.271183, 1.57, 0.00, 0.00], a=0.01, v=0.1, r=0.01)
movel(p[-0.311712,-0.0103816,0.270602, 1.57, 0.00, 0.00], a=0.01, v=0.1, r=0.01)
movel(p[-0.311838,-0.0102049,0.270193, 1.57, 0.00, 0.00], a=0.01, v=0.1, r=0.01)
movel(p[-0.311947,-0.0100942,0.269835, 1.57, 0.00, 0.00], a=0.01, v=0.1, r=0.01)
movel(p[-0.312172,-0.00948781,0.269527, 1.57, 0.00, 0.00], a=0.01, v=0.1, r=0.01)
movel(p[-0.312118,-0.00891185,0.269353, 1.57, 0.00, 0.00], a=0.01, v=0.1, r=0.01)
movel(p[-0.311836,-0.00864659,0.268954, 1.57, 0.00, 0.00], a=0.01, v=0.1, r=0.01)
movel(p[-0.312146,-0.00833327,0.268321, 1.57, 0.00, 0.00], a=0.01, v=0.1, r=0.01)
movel(p[-0.311784,-0.00796315,0.267914, 1.57, 0.00, 0.00], a=0.01, v=0.1, r=0.01)
movel(p[-0.311883,-0.00766287,0.267474, 1.57, 0.00, 0.00], a=0.01, v=0.1, r=0.01)
movel(p[-0.312111,-0.00686916,0.26701, 1.57, 0.00, 0.00], a=0.01, v=0.1, r=0.01)
movel(p[-0.31232,-0.00661686,0.266552, 1.57, 0.00, 0.00], a=0.01, v=0.1, r=0.01)
movel(p[-0.31237,-0.00548924,0.265986, 1.57, 0.00, 0.00], a=0.01, v=0.1, r=0.01)
movel(p[-0.312096,-0.0044194,0.265752, 1.57, 0.00, 0.00], a=0.01, v=0.1, r=0.01)
movel(p[-0.311282,-0.00289942,0.26587, 1.57, 0.00, 0.00], a=0.01, v=0.1, r=0.01)
movel(p[-0.311382,-0.00259087,0.265512, 1.57, 0.00, 0.00], a=0.01, v=0.1, r=0.01)
movel(p[-0.310792,-0.00114279,0.265147, 1.57, 0.00, 0.00], a=0.01, v=0.1, r=0.01)
movel(p[-0.30993,1.68247e-05,0.265179, 1.57, 0.00, 0.00], a=0.01, v=0.1, r=0.01)
movel(p[-0.309363,0.00140016,0.265651, 1.57, 0.00, 0.00], a=0.01, v=0.1, r=0.01)
movel(p[-0.30939,0.00250417,0.264996, 1.57, 0.00, 0.00], a=0.01, v=0.1, r=0.01)
movel(p[-0.308562,0.0045792,0.265489, 1.57, 0.00, 0.00], a=0.01, v=0.1, r=0.01)
movel(p[-0.30843,0.00649619,0.266011, 1.57, 0.00, 0.00], a=0.01, v=0.1, r=0.01)
movel(p[-0.307673,0.00907219,0.266256, 1.57, 0.00, 0.00], a=0.01, v=0.1, r=0.01)
movel(p[-0.307579,0.0100679,0.266111, 1.57, 0.00, 0.00], a=0.01, v=0.1, r=0.01)
movel(p[-0.307265,0.0121636,0.265881, 1.57, 0.00, 0.00], a=0.01, v=0.1, r=0.01)
movel(p[-0.306541,0.0153322,0.265872, 1.57, 0.00, 0.00], a=0.01, v=0.1, r=0.01)
movel(p[-0.305512,0.0190128,0.265975, 1.57, 0.00, 0.00], a=0.01, v=0.1, r=0.01)
movel(p[-0.305204,0.0203294,0.265985, 1.57, 0.00, 0.00], a=0.01, v=0.1, r=0.01)
movel(p[-0.30541,0.0234025,0.266277, 1.57, 0.00, 0.00], a=0.01, v=0.1, r=0.01)
movel(p[-0.30498,0.0266493,0.266856, 1.57, 0.00, 0.00], a=0.01, v=0.1, r=0.01)
movel(p[-0.304886,0.0297156,0.26706, 1.57, 0.00, 0.00], a=0.01, v=0.1, r=0.01)
movel(p[-0.304194,0.0318547,0.267213, 1.57, 0.00, 0.00], a=0.01, v=0.1, r=0.01)
movel(p[-0.304774,0.0365838,0.268167, 1.57, 0.00, 0.00], a=0.01, v=0.1, r=0.01)
movel(p[-0.305093,0.0395995,0.268236, 1.57, 0.00, 0.00], a=0.01, v=0.1, r=0.01)
movel(p[-0.30508,0.0441071,0.268156, 1.57, 0.00, 0.00], a=0.01, v=0.1, r=0.01)
movel(p[-0.30466,0.0461731,0.268401, 1.57, 0.00, 0.00], a=0.01, v=0.1, r=0.01)
movel(p[-0.304585,0.0492338,0.268211, 1.57, 0.00, 0.00], a=0.01, v=0.1, r=0.01)
movel(p[-0.304456,0.054812,0.268725, 1.57, 0.00, 0.00], a=0.01, v=0.1, r=0.01)
movel(p[-0.303695,0.0590061,0.268136, 1.57, 0.00, 0.00], a=0.01, v=0.1, r=0.01)
movel(p[-0.304292,0.0622787,0.267892, 1.57, 0.00, 0.00], a=0.01, v=0.1, r=0.01)
movel(p[-0.303777,0.0653484,0.268246, 1.57, 0.00, 0.00], a=0.01, v=0.1, r=0.01)
movel(p[-0.303792,0.0710936,0.268453, 1.57, 0.00, 0.00], a=0.01, v=0.1, r=0.01)
movel(p[-0.303145,0.0745129,0.268054, 1.57, 0.00, 0.00], a=0.01, v=0.1, r=0.01)
movel(p[-0.302348,0.0779822,0.267606, 1.57, 0.00, 0.00], a=0.01, v=0.1, r=0.01)
movel(p[-0.301677,0.0811816,0.267893, 1.57, 0.00, 0.00], a=0.01, v=0.1, r=0.01)
movel(p[-0.301631,0.0837757,0.267409, 1.57, 0.00, 0.00], a=0.01, v=0.1, r=0.01)
movel(p[-0.30142,0.0901797,0.267083, 1.57, 0.00, 0.00], a=0.01, v=0.1, r=0.01)
movel(p[-0.301652,0.0941755,0.266118, 1.57, 0.00, 0.00], a=0.01, v=0.1, r=0.01)
movel(p[-0.30144,0.0960006,0.266263, 1.57, 0.00, 0.00], a=0.01, v=0.1, r=0.01)
movel(p[-0.300654,0.101795,0.265859, 1.57, 0.00, 0.00], a=0.01, v=0.1, r=0.01)
movel(p[-0.299838,0.106069,0.265522, 1.57, 0.00, 0.00], a=0.01, v=0.1, r=0.01)
movel(p[-0.30082,0.109641,0.265466, 1.57, 0.00, 0.00], a=0.01, v=0.1, r=0.01)
movel(p[-0.29969,0.114693,0.265694, 1.57, 0.00, 0.00], a=0.01, v=0.1, r=0.01)
movel(p[-0.300067,0.119104,0.265112, 1.57, 0.00, 0.00], a=0.01, v=0.1, r=0.01)
movel(p[-0.300249,0.121045,0.264763, 1.57, 0.00, 0.00], a=0.01, v=0.1, r=0.01)
movel(p[-0.300676,0.125668,0.26408, 1.57, 0.00, 0.00], a=0.01, v=0.1, r=0.01)
movel(p[-0.299924,0.129418,0.26408, 1.57, 0.00, 0.00], a=0.01, v=0.1, r=0.01)
movel(p[-0.301057,0.132934,0.263422, 1.57, 0.00, 0.00], a=0.01, v=0.1, r=0.01)
movel(p[-0.301542,0.13871,0.263196, 1.57, 0.00, 0.00], a=0.01, v=0.1, r=0.01)
movel(p[-0.302091,0.142594,0.262816, 1.57, 0.00, 0.00], a=0.01, v=0.1, r=0.01)
movel(p[-0.301774,0.144696,0.262818, 1.57, 0.00, 0.00], a=0.01, v=0.1, r=0.01)
movel(p[-0.302164,0.150554,0.262114, 1.57, 0.00, 0.00], a=0.01, v=0.1, r=0.01)
movel(p[-0.302144,0.155602,0.261168, 1.57, 0.00, 0.00], a=0.01, v=0.1, r=0.01)
movel(p[-0.301842,0.157508,0.260679, 1.57, 0.00, 0.00], a=0.01, v=0.1, r=0.01)
movel(p[-0.30145,0.162898,0.260603, 1.57, 0.00, 0.00], a=0.01, v=0.1, r=0.01)
movel(p[-0.301279,0.165645,0.259918, 1.57, 0.00, 0.00], a=0.01, v=0.1, r=0.01)
movel(p[-0.301927,0.168411,0.259837, 1.57, 0.00, 0.00], a=0.01, v=0.1, r=0.01)
movel(p[-0.30184,0.172815,0.2598, 1.57, 0.00, 0.00], a=0.01, v=0.1, r=0.01)
movel(p[-0.301424,0.176489,0.259883, 1.57, 0.00, 0.00], a=0.01, v=0.1, r=0.01)
movel(p[-0.302081,0.179072,0.259785, 1.57, 0.00, 0.00], a=0.01, v=0.1, r=0.01)
movel(p[-0.302586,0.18493,0.260041, 1.57, 0.00, 0.00], a=0.01, v=0.1, r=0.01)
movel(p[-0.302711,0.18835,0.259312, 1.57, 0.00, 0.00], a=0.01, v=0.1, r=0.01)
movel(p[-0.302468,0.192342,0.259523, 1.57, 0.00, 0.00], a=0.01, v=0.1, r=0.01)
movel(p[-0.30223,0.194881,0.259591, 1.57, 0.00, 0.00], a=0.01, v=0.1, r=0.01)
movel(p[-0.30151,0.198157,0.259538, 1.57, 0.00, 0.00], a=0.01, v=0.1, r=0.01)
movel(p[-0.301456,0.199633,0.259032, 1.57, 0.00, 0.00], a=0.01, v=0.1, r=0.01)
movel(p[-0.301331,0.204282,0.258463, 1.57, 0.00, 0.00], a=0.01, v=0.1, r=0.01)
movel(p[-0.300964,0.207029,0.258467, 1.57, 0.00, 0.00], a=0.01, v=0.1, r=0.01)
movel(p[-0.30134,0.208107,0.25819, 1.57, 0.00, 0.00], a=0.01, v=0.1, r=0.01)
movel(p[-0.301373,0.211932,0.258393, 1.57, 0.00, 0.00], a=0.01, v=0.1, r=0.01)
movel(p[-0.301993,0.213966,0.257904, 1.57, 0.00, 0.00], a=0.01, v=0.1, r=0.01)
movel(p[-0.301869,0.21558,0.257945, 1.57, 0.00, 0.00], a=0.01, v=0.1, r=0.01)
movel(p[-0.302261,0.218443,0.257485, 1.57, 0.00, 0.00], a=0.01, v=0.1, r=0.01)
movel(p[-0.302638,0.221556,0.257205, 1.57, 0.00, 0.00], a=0.01, v=0.1, r=0.01)
movel(p[-0.302698,0.223638,0.257103, 1.57, 0.00, 0.00], a=0.01, v=0.1, r=0.01)
movel(p[-0.302537,0.225676,0.257173, 1.57, 0.00, 0.00], a=0.01, v=0.1, r=0.01)
movel(p[-0.302843,0.228405,0.256784, 1.57, 0.00, 0.00], a=0.01, v=0.1, r=0.01)
movel(p[-0.304509,0.231334,0.256781, 1.57, 0.00, 0.00], a=0.01, v=0.1, r=0.01)
movel(p[-0.305196,0.23311,0.256397, 1.57, 0.00, 0.00], a=0.01, v=0.1, r=0.01)
movel(p[-0.304983,0.234996,0.256339, 1.57, 0.00, 0.00], a=0.01, v=0.1, r=0.01)
movel(p[-0.305233,0.235767,0.256304, 1.57, 0.00, 0.00], a=0.01, v=0.1, r=0.01)
movel(p[-0.305206,0.237848,0.256554, 1.57, 0.00, 0.00], a=0.01, v=0.1, r=0.01)
movel(p[-0.305048,0.239626,0.256565, 1.57, 0.00, 0.00], a=0.01, v=0.1, r=0.01)
movel(p[-0.305142,0.239666,0.256891, 1.57, 0.00, 0.00], a=0.01, v=0.1, r=0.01)
movel(p[-0.304792,0.240808,0.257265, 1.57, 0.00, 0.00], a=0.01, v=0.1, r=0.01)
movel(p[-0.304897,0.241699,0.257399, 1.57, 0.00, 0.00], a=0.01, v=0.1, r=0.01)
movel(p[-0.304883,0.242226,0.257428, 1.57, 0.00, 0.00], a=0.01, v=0.1, r=0.01)
movel(p[-0.304856,0.243624,0.257573, 1.57, 0.00, 0.00], a=0.01, v=0.1, r=0.01)
movel(p[-0.304725,0.243582,0.257335, 1.57, 0.00, 0.00], a=0.01, v=0.1, r=0.01)
movel(p[-0.305235,0.242784,0.25732, 1.57, 0.00, 0.00], a=0.01, v=0.1, r=0.01)
movel(p[-0.304623,0.242539,0.25791, 1.57, 0.00, 0.00], a=0.01, v=0.1, r=0.01)
movel(p[-0.304504,0.243774,0.258145, 1.57, 0.00, 0.00], a=0.01, v=0.1, r=0.01)
movel(p[-0.303864,0.242867,0.257945, 1.57, 0.00, 0.00], a=0.01, v=0.1, r=0.01)
movel(p[-0.303379,0.24248,0.25799, 1.57, 0.00, 0.00], a=0.01, v=0.1, r=0.01)
movel(p[-0.302884,0.241902,0.258638, 1.57, 0.00, 0.00], a=0.01, v=0.1, r=0.01)
movel(p[-0.302265,0.240636,0.259335, 1.57, 0.00, 0.00], a=0.01, v=0.1, r=0.01)
movel(p[-0.301979,0.241202,0.259602, 1.57, 0.00, 0.00], a=0.01, v=0.1, r=0.01)
movel(p[-0.301191,0.240441,0.260589, 1.57, 0.00, 0.00], a=0.01, v=0.1, r=0.01)
movel(p[-0.300884,0.239681,0.26145, 1.57, 0.00, 0.00], a=0.01, v=0.1, r=0.01)
movel(p[-0.299771,0.238837,0.26327, 1.57, 0.00, 0.00], a=0.01, v=0.1, r=0.01)
movel(p[-0.299405,0.23913,0.26385, 1.57, 0.00, 0.00], a=0.01, v=0.1, r=0.01)
movel(p[-0.298491,0.238359,0.265486, 1.57, 0.00, 0.00], a=0.01, v=0.1, r=0.01)
movel(p[-0.297902,0.238136,0.267629, 1.57, 0.00, 0.00], a=0.01, v=0.1, r=0.01)
movel(p[-0.297773,0.237616,0.270105, 1.57, 0.00, 0.00], a=0.01, v=0.1, r=0.01)
movel(p[-0.297602,0.237692,0.270664, 1.57, 0.00, 0.00], a=0.01, v=0.1, r=0.01)
movel(p[-0.296913,0.23772,0.273749, 1.57, 0.00, 0.00], a=0.01, v=0.1, r=0.01)
movel(p[-0.29666,0.237104,0.276546, 1.57, 0.00, 0.00], a=0.01, v=0.1, r=0.01)
movel(p[-0.295883,0.237307,0.279584, 1.57, 0.00, 0.00], a=0.01, v=0.1, r=0.01)
movel(p[-0.295408,0.237414,0.281354, 1.57, 0.00, 0.00], a=0.01, v=0.1, r=0.01)
movel(p[-0.294007,0.23736,0.285466, 1.57, 0.00, 0.00], a=0.01, v=0.1, r=0.01)
movel(p[-0.294127,0.237216,0.289914, 1.57, 0.00, 0.00], a=0.01, v=0.1, r=0.01)
movel(p[-0.293381,0.236676,0.294321, 1.57, 0.00, 0.00], a=0.01, v=0.1, r=0.01)
movel(p[-0.292742,0.236776,0.29623, 1.57, 0.00, 0.00], a=0.01, v=0.1, r=0.01)
movel(p[-0.292287,0.236335,0.298915, 1.57, 0.00, 0.00], a=0.01, v=0.1, r=0.01)
movel(p[-0.291353,0.235982,0.303014, 1.57, 0.00, 0.00], a=0.01, v=0.1, r=0.01)
movel(p[-0.289991,0.235469,0.307754, 1.57, 0.00, 0.00], a=0.01, v=0.1, r=0.01)
movel(p[-0.28951,0.235595,0.309864, 1.57, 0.00, 0.00], a=0.01, v=0.1, r=0.01)
movel(p[-0.288682,0.235158,0.314609, 1.57, 0.00, 0.00], a=0.01, v=0.1, r=0.01)
movel(p[-0.288544,0.235113,0.318703, 1.57, 0.00, 0.00], a=0.01, v=0.1, r=0.01)
movel(p[-0.28869,0.235669,0.322822, 1.57, 0.00, 0.00], a=0.01, v=0.1, r=0.01)
movel(p[-0.287873,0.235949,0.326998, 1.57, 0.00, 0.00], a=0.01, v=0.1, r=0.01)
movel(p[-0.287919,0.236111,0.331636, 1.57, 0.00, 0.00], a=0.01, v=0.1, r=0.01)
movel(p[-0.287773,0.236399,0.337118, 1.57, 0.00, 0.00], a=0.01, v=0.1, r=0.01)
movel(p[-0.287196,0.235913,0.340413, 1.57, 0.00, 0.00], a=0.01, v=0.1, r=0.01)
movel(p[-0.286295,0.236159,0.34516, 1.57, 0.00, 0.00], a=0.01, v=0.1, r=0.01)
movel(p[-0.286002,0.23633,0.347147, 1.57, 0.00, 0.00], a=0.01, v=0.1, r=0.01)
movel(p[-0.285045,0.236169,0.352879, 1.57, 0.00, 0.00], a=0.01, v=0.1, r=0.01)
movel(p[-0.284378,0.235301,0.356559, 1.57, 0.00, 0.00], a=0.01, v=0.1, r=0.01)
movel(p[-0.284209,0.234518,0.359466, 1.57, 0.00, 0.00], a=0.01, v=0.1, r=0.01)
movel(p[-0.283531,0.234592,0.36448, 1.57, 0.00, 0.00], a=0.01, v=0.1, r=0.01)
movel(p[-0.283187,0.234728,0.367529, 1.57, 0.00, 0.00], a=0.01, v=0.1, r=0.01)
movel(p[-0.282256,0.23429,0.369889, 1.57, 0.00, 0.00], a=0.01, v=0.1, r=0.01)
movel(p[-0.281105,0.234007,0.373979, 1.57, 0.00, 0.00], a=0.01, v=0.1, r=0.01)
movel(p[-0.280634,0.234135,0.377699, 1.57, 0.00, 0.00], a=0.01, v=0.1, r=0.01)
movel(p[-0.279424,0.233659,0.38004, 1.57, 0.00, 0.00], a=0.01, v=0.1, r=0.01)
movel(p[-0.278399,0.233441,0.38516, 1.57, 0.00, 0.00], a=0.01, v=0.1, r=0.01)
movel(p[-0.277698,0.233141,0.388303, 1.57, 0.00, 0.00], a=0.01, v=0.1, r=0.01)
movel(p[-0.27736,0.233193,0.390147, 1.57, 0.00, 0.00], a=0.01, v=0.1, r=0.01)
movel(p[-0.276563,0.231997,0.395196, 1.57, 0.00, 0.00], a=0.01, v=0.1, r=0.01)
movel(p[-0.275282,0.230581,0.398714, 1.57, 0.00, 0.00], a=0.01, v=0.1, r=0.01)
movel(p[-0.273962,0.229337,0.401566, 1.57, 0.00, 0.00], a=0.01, v=0.1, r=0.01)
movel(p[-0.272394,0.22826,0.40683, 1.57, 0.00, 0.00], a=0.01, v=0.1, r=0.01)
movel(p[-0.271906,0.228161,0.4111, 1.57, 0.00, 0.00], a=0.01, v=0.1, r=0.01)
movel(p[-0.271998,0.227645,0.412906, 1.57, 0.00, 0.00], a=0.01, v=0.1, r=0.01)
movel(p[-0.271248,0.226802,0.416598, 1.57, 0.00, 0.00], a=0.01, v=0.1, r=0.01)
movel(p[-0.270685,0.226693,0.420069, 1.57, 0.00, 0.00], a=0.01, v=0.1, r=0.01)
movel(p[-0.270579,0.226125,0.423943, 1.57, 0.00, 0.00], a=0.01, v=0.1, r=0.01)
movel(p[-0.27097,0.225192,0.428532, 1.57, 0.00, 0.00], a=0.01, v=0.1, r=0.01)
movel(p[-0.2701,0.223358,0.432408, 1.57, 0.00, 0.00], a=0.01, v=0.1, r=0.01)
movel(p[-0.269853,0.223221,0.434492, 1.57, 0.00, 0.00], a=0.01, v=0.1, r=0.01)
movel(p[-0.268938,0.221799,0.438169, 1.57, 0.00, 0.00], a=0.01, v=0.1, r=0.01)
movel(p[-0.267424,0.220555,0.441709, 1.57, 0.00, 0.00], a=0.01, v=0.1, r=0.01)
movel(p[-0.265731,0.218978,0.444605, 1.57, 0.00, 0.00], a=0.01, v=0.1, r=0.01)
movel(p[-0.265586,0.218692,0.447446, 1.57, 0.00, 0.00], a=0.01, v=0.1, r=0.01)
movel(p[-0.264236,0.218083,0.450929, 1.57, 0.00, 0.00], a=0.01, v=0.1, r=0.01)
movel(p[-0.26374,0.218005,0.452697, 1.57, 0.00, 0.00], a=0.01, v=0.1, r=0.01)
movel(p[-0.26282,0.217558,0.45493, 1.57, 0.00, 0.00], a=0.01, v=0.1, r=0.01)
movel(p[-0.262523,0.217145,0.457993, 1.57, 0.00, 0.00], a=0.01, v=0.1, r=0.01)
movel(p[-0.261775,0.216992,0.458631, 1.57, 0.00, 0.00], a=0.01, v=0.1, r=0.01)
movel(p[-0.260901,0.216419,0.459989, 1.57, 0.00, 0.00], a=0.01, v=0.1, r=0.01)
movel(p[-0.259889,0.216162,0.460839, 1.57, 0.00, 0.00], a=0.01, v=0.1, r=0.01)
movel(p[-0.259701,0.21595,0.462148, 1.57, 0.00, 0.00], a=0.01, v=0.1, r=0.01)
movel(p[-0.258303,0.21589,0.463161, 1.57, 0.00, 0.00], a=0.01, v=0.1, r=0.01)
movel(p[-0.257039,0.216005,0.46241, 1.57, 0.00, 0.00], a=0.01, v=0.1, r=0.01)
movel(p[-0.25565,0.216195,0.463013, 1.57, 0.00, 0.00], a=0.01, v=0.1, r=0.01)
movel(p[-0.255219,0.21625,0.462227, 1.57, 0.00, 0.00], a=0.01, v=0.1, r=0.01)
movel(p[-0.254981,0.216113,0.463169, 1.57, 0.00, 0.00], a=0.01, v=0.1, r=0.01)
movel(p[-0.254672,0.216258,0.462426, 1.57, 0.00, 0.00], a=0.01, v=0.1, r=0.01)
movel(p[-0.254436,0.215874,0.462244, 1.57, 0.00, 0.00], a=0.01, v=0.1, r=0.01)
movel(p[-0.254138,0.215668,0.463102, 1.57, 0.00, 0.00], a=0.01, v=0.1, r=0.01)
movel(p[-0.253811,0.215225,0.462395, 1.57, 0.00, 0.00], a=0.01, v=0.1, r=0.01)
movel(p[-0.253236,0.215027,0.461487, 1.57, 0.00, 0.00], a=0.01, v=0.1, r=0.01)
movel(p[-0.253635,0.215041,0.460769, 1.57, 0.00, 0.00], a=0.01, v=0.1, r=0.01)
movel(p[-0.253868,0.215253,0.459997, 1.57, 0.00, 0.00], a=0.01, v=0.1, r=0.01)
movel(p[-0.253736,0.215122,0.460283, 1.57, 0.00, 0.00], a=0.01, v=0.1, r=0.01)
movel(p[-0.253962,0.21485,0.459779, 1.57, 0.00, 0.00], a=0.01, v=0.1, r=0.01)
movel(p[-0.254431,0.214713,0.459553, 1.57, 0.00, 0.00], a=0.01, v=0.1, r=0.01)
movel(p[-0.255153,0.214962,0.459431, 1.57, 0.00, 0.00], a=0.01, v=0.1, r=0.01)
movel(p[-0.255082,0.214868,0.459542, 1.57, 0.00, 0.00], a=0.01, v=0.1, r=0.01)
movel(p[-0.257444,0.216226,0.459469, 1.57, 0.00, 0.00], a=0.01, v=0.1, r=0.01)
movel(p[-0.258206,0.216526,0.459422, 1.57, 0.00, 0.00], a=0.01, v=0.1, r=0.01)
movel(p[-0.258182,0.216472,0.459494, 1.57, 0.00, 0.00], a=0.01, v=0.1, r=0.01)
movel(p[-0.258802,0.216822,0.459221, 1.57, 0.00, 0.00], a=0.01, v=0.1, r=0.01)
movel(p[-0.259072,0.216759,0.459198, 1.57, 0.00, 0.00], a=0.01, v=0.1, r=0.01)
movel(p[-0.259317,0.216669,0.459065, 1.57, 0.00, 0.00], a=0.01, v=0.1, r=0.01)
movel(p[-0.259319,0.216587,0.459151, 1.57, 0.00, 0.00], a=0.01, v=0.1, r=0.01)
movel(p[-0.259611,0.216418,0.459117, 1.57, 0.00, 0.00], a=0.01, v=0.1, r=0.01)
movel(p[-0.259765,0.216474,0.45902, 1.57, 0.00, 0.00], a=0.01, v=0.1, r=0.01)
movel(p[-0.260731,0.21696,0.458937, 1.57, 0.00, 0.00], a=0.01, v=0.1, r=0.01)
movel(p[-0.260743,0.216916,0.458978, 1.57, 0.00, 0.00], a=0.01, v=0.1, r=0.01)
movel(p[-0.261118,0.216652,0.45893, 1.57, 0.00, 0.00], a=0.01, v=0.1, r=0.01)
movel(p[-0.261227,0.216329,0.458816, 1.57, 0.00, 0.00], a=0.01, v=0.1, r=0.01)
movel(p[-0.261437,0.216243,0.458697, 1.57, 0.00, 0.00], a=0.01, v=0.1, r=0.01)
movel(p[-0.261456,0.216191,0.458733, 1.57, 0.00, 0.00], a=0.01, v=0.1, r=0.01)
movel(p[-0.261634,0.215999,0.458465, 1.57, 0.00, 0.00], a=0.01, v=0.1, r=0.01)
movel(p[-0.261741,0.215705,0.458191, 1.57, 0.00, 0.00], a=0.01, v=0.1, r=0.01)
movel(p[-0.26162,0.215656,0.457916, 1.57, 0.00, 0.00], a=0.01, v=0.1, r=0.01)
movel(p[-0.261763,0.215568,0.457777, 1.57, 0.00, 0.00], a=0.01, v=0.1, r=0.01)
movel(p[-0.261776,0.215528,0.457799, 1.57, 0.00, 0.00], a=0.01, v=0.1, r=0.01)
movel(p[-0.262005,0.21553,0.45772, 1.57, 0.00, 0.00], a=0.01, v=0.1, r=0.01)
movel(p[-0.262247,0.213367,0.456359, 1.57, 0.00, 0.00], a=0.01, v=0.1, r=0.01)
movel(p[-0.262475,0.213487,0.456197, 1.57, 0.00, 0.00], a=0.01, v=0.1, r=0.01)
movel(p[-0.262586,0.21346,0.455606, 1.57, 0.00, 0.00], a=0.01, v=0.1, r=0.01)
movel(p[-0.262574,0.213873,0.45528, 1.57, 0.00, 0.00], a=0.01, v=0.1, r=0.01)
movel(p[-0.262337,0.213929,0.454927, 1.57, 0.00, 0.00], a=0.01, v=0.1, r=0.01)
movel(p[-0.26217,0.213966,0.454745, 1.57, 0.00, 0.00], a=0.01, v=0.1, r=0.01)
movel(p[-0.262169,0.213894,0.454738, 1.57, 0.00, 0.00], a=0.01, v=0.1, r=0.01)
movel(p[-0.261962,0.213818,0.454714, 1.57, 0.00, 0.00], a=0.01, v=0.1, r=0.01)
movel(p[-0.261912,0.213826,0.454592, 1.57, 0.00, 0.00], a=0.01, v=0.1, r=0.01)
movel(p[-0.261968,0.213809,0.45446, 1.57, 0.00, 0.00], a=0.01, v=0.1, r=0.01)
movel(p[-0.26197,0.213761,0.454456, 1.57, 0.00, 0.00], a=0.01, v=0.1, r=0.01)
movel(p[-0.262161,0.213758,0.454197, 1.57, 0.00, 0.00], a=0.01, v=0.1, r=0.01)
movel(p[-0.262157,0.213893,0.453931, 1.57, 0.00, 0.00], a=0.01, v=0.1, r=0.01)
movel(p[-0.262128,0.214113,0.453576, 1.57, 0.00, 0.00], a=0.01, v=0.1, r=0.01)
movel(p[-0.262135,0.214061,0.453562, 1.57, 0.00, 0.00], a=0.01, v=0.1, r=0.01)
movel(p[-0.262053,0.214195,0.453181, 1.57, 0.00, 0.00], a=0.01, v=0.1, r=0.01)
movel(p[-0.262015,0.214392,0.452891, 1.57, 0.00, 0.00], a=0.01, v=0.1, r=0.01)
movel(p[-0.262182,0.214591,0.452241, 1.57, 0.00, 0.00], a=0.01, v=0.1, r=0.01)
movel(p[-0.262499,0.214576,0.451076, 1.57, 0.00, 0.00], a=0.01, v=0.1, r=0.01)
movel(p[-0.262509,0.214554,0.451009, 1.57, 0.00, 0.00], a=0.01, v=0.1, r=0.01)
movel(p[-0.262525,0.215101,0.45083, 1.57, 0.00, 0.00], a=0.01, v=0.1, r=0.01)
movel(p[-0.262556,0.215715,0.450793, 1.57, 0.00, 0.00], a=0.01, v=0.1, r=0.01)
movel(p[-0.262565,0.215741,0.450709, 1.57, 0.00, 0.00], a=0.01, v=0.1, r=0.01)
movel(p[-0.262552,0.21605,0.450639, 1.57, 0.00, 0.00], a=0.01, v=0.1, r=0.01)
movel(p[-0.262526,0.216344,0.450587, 1.57, 0.00, 0.00], a=0.01, v=0.1, r=0.01)
movel(p[-0.262425,0.216906,0.450477, 1.57, 0.00, 0.00], a=0.01, v=0.1, r=0.01)
movel(p[-0.262398,0.217422,0.450003, 1.57, 0.00, 0.00], a=0.01, v=0.1, r=0.01)
movel(p[-0.262404,0.217474,0.449932, 1.57, 0.00, 0.00], a=0.01, v=0.1, r=0.01)
movel(p[-0.262482,0.217886,0.449703, 1.57, 0.00, 0.00], a=0.01, v=0.1, r=0.01)
movel(p[-0.262588,0.218301,0.449506, 1.57, 0.00, 0.00], a=0.01, v=0.1, r=0.01)
movel(p[-0.26283,0.218579,0.449128, 1.57, 0.00, 0.00], a=0.01, v=0.1, r=0.01)
movel(p[-0.262835,0.218654,0.449019, 1.57, 0.00, 0.00], a=0.01, v=0.1, r=0.01)
movel(p[-0.262955,0.219001,0.44853, 1.57, 0.00, 0.00], a=0.01, v=0.1, r=0.01)
movel(p[-0.263345,0.219592,0.448281, 1.57, 0.00, 0.00], a=0.01, v=0.1, r=0.01)
movel(p[-0.263872,0.220079,0.448086, 1.57, 0.00, 0.00], a=0.01, v=0.1, r=0.01)
movel(p[-0.263872,0.220115,0.448032, 1.57, 0.00, 0.00], a=0.01, v=0.1, r=0.01)
movel(p[-0.264181,0.220489,0.447884, 1.57, 0.00, 0.00], a=0.01, v=0.1, r=0.01)
movel(p[-0.264173,0.220554,0.447749, 1.57, 0.00, 0.00], a=0.01, v=0.1, r=0.01)
movel(p[-0.264139,0.220675,0.447723, 1.57, 0.00, 0.00], a=0.01, v=0.1, r=0.01)
movel(p[-0.264146,0.220727,0.447651, 1.57, 0.00, 0.00], a=0.01, v=0.1, r=0.01)
movel(p[-0.264264,0.220948,0.447747, 1.57, 0.00, 0.00], a=0.01, v=0.1, r=0.01)
movel(p[-0.264439,0.220929,0.447691, 1.57, 0.00, 0.00], a=0.01, v=0.1, r=0.01)
movel(p[-0.264537,0.220892,0.447612, 1.57, 0.00, 0.00], a=0.01, v=0.1, r=0.01)
movel(p[-0.264408,0.221071,0.447628, 1.57, 0.00, 0.00], a=0.01, v=0.1, r=0.01)
movel(p[-0.264423,0.22112,0.447562, 1.57, 0.00, 0.00], a=0.01, v=0.1, r=0.01)
movel(p[-0.26413,0.22134,0.447747, 1.57, 0.00, 0.00], a=0.01, v=0.1, r=0.01)
movel(p[-0.263756,0.221422,0.447679, 1.57, 0.00, 0.00], a=0.01, v=0.1, r=0.01)
movel(p[-0.26377,0.221456,0.44764, 1.57, 0.00, 0.00], a=0.01, v=0.1, r=0.01)
movel(p[-0.263467,0.221314,0.447364, 1.57, 0.00, 0.00], a=0.01, v=0.1, r=0.01)
movel(p[-0.263432,0.221387,0.447429, 1.57, 0.00, 0.00], a=0.01, v=0.1, r=0.01)
movel(p[-0.263172,0.221369,0.447507, 1.57, 0.00, 0.00], a=0.01, v=0.1, r=0.01)
movel(p[-0.26318,0.221392,0.44748, 1.57, 0.00, 0.00], a=0.01, v=0.1, r=0.01)
movel(p[-0.263278,0.221264,0.447539, 1.57, 0.00, 0.00], a=0.01, v=0.1, r=0.01)
movel(p[-0.263507,0.220937,0.447626, 1.57, 0.00, 0.00], a=0.01, v=0.1, r=0.01)
movel(p[-0.263468,0.220533,0.44761, 1.57, 0.00, 0.00], a=0.01, v=0.1, r=0.01)
movel(p[-0.263475,0.220564,0.447519, 1.57, 0.00, 0.00], a=0.01, v=0.1, r=0.01)
movel(p[-0.263476,0.220088,0.447362, 1.57, 0.00, 0.00], a=0.01, v=0.1, r=0.01)
movel(p[-0.26345,0.21976,0.447362, 1.57, 0.00, 0.00], a=0.01, v=0.1, r=0.01)
movel(p[-0.26341,0.219424,0.447202, 1.57, 0.00, 0.00], a=0.01, v=0.1, r=0.01)
movel(p[-0.263416,0.21942,0.447167, 1.57, 0.00, 0.00], a=0.01, v=0.1, r=0.01)
movel(p[-0.263239,0.218965,0.446926, 1.57, 0.00, 0.00], a=0.01, v=0.1, r=0.01)
movel(p[-0.262832,0.218533,0.446751, 1.57, 0.00, 0.00], a=0.01, v=0.1, r=0.01)
movel(p[-0.26277,0.218341,0.446752, 1.57, 0.00, 0.00], a=0.01, v=0.1, r=0.01)
movel(p[-0.262639,0.218085,0.446878, 1.57, 0.00, 0.00], a=0.01, v=0.1, r=0.01)
movel(p[-0.262803,0.218075,0.446876, 1.57, 0.00, 0.00], a=0.01, v=0.1, r=0.01)
movel(p[-0.2628,0.218038,0.446816, 1.57, 0.00, 0.00], a=0.01, v=0.1, r=0.01)
movel(p[-0.262653,0.217933,0.446818, 1.57, 0.00, 0.00], a=0.01, v=0.1, r=0.01)
movel(p[-0.262544,0.218014,0.44695, 1.57, 0.00, 0.00], a=0.01, v=0.1, r=0.01)
movel(p[-0.262535,0.217979,0.446895, 1.57, 0.00, 0.00], a=0.01, v=0.1, r=0.01)
movel(p[-0.262337,0.217948,0.446929, 1.57, 0.00, 0.00], a=0.01, v=0.1, r=0.01)
movel(p[-0.262396,0.21783,0.446899, 1.57, 0.00, 0.00], a=0.01, v=0.1, r=0.01)
movel(p[-0.262501,0.217698,0.446613, 1.57, 0.00, 0.00], a=0.01, v=0.1, r=0.01)
movel(p[-0.262489,0.217627,0.446519, 1.57, 0.00, 0.00], a=0.01, v=0.1, r=0.01)
movel(p[-0.262708,0.21741,0.446126, 1.57, 0.00, 0.00], a=0.01, v=0.1, r=0.01)
movel(p[-0.262664,0.217323,0.445943, 1.57, 0.00, 0.00], a=0.01, v=0.1, r=0.01)
movel(p[-0.262586,0.217306,0.445876, 1.57, 0.00, 0.00], a=0.01, v=0.1, r=0.01)
movel(p[-0.262586,0.217259,0.445802, 1.57, 0.00, 0.00], a=0.01, v=0.1, r=0.01)
movel(p[-0.262413,0.217264,0.445763, 1.57, 0.00, 0.00], a=0.01, v=0.1, r=0.01)
movel(p[-0.26223,0.217087,0.44563, 1.57, 0.00, 0.00], a=0.01, v=0.1, r=0.01)
movel(p[-0.262022,0.216854,0.445605, 1.57, 0.00, 0.00], a=0.01, v=0.1, r=0.01)
movel(p[-0.262025,0.216824,0.445563, 1.57, 0.00, 0.00], a=0.01, v=0.1, r=0.01)
movel(p[-0.262026,0.216821,0.445654, 1.57, 0.00, 0.00], a=0.01, v=0.1, r=0.01)
movel(p[-0.262154,0.216756,0.445638, 1.57, 0.00, 0.00], a=0.01, v=0.1, r=0.01)
movel(p[-0.262019,0.216724,0.445494, 1.57, 0.00, 0.00], a=0.01, v=0.1, r=0.01)
movel(p[-0.262019,0.216693,0.445456, 1.57, 0.00, 0.00], a=0.01, v=0.1, r=0.01)
movel(p[-0.261917,0.216663,0.445357, 1.57, 0.00, 0.00], a=0.01, v=0.1, r=0.01)
movel(p[-0.26187,0.216617,0.445217, 1.57, 0.00, 0.00], a=0.01, v=0.1, r=0.01)
movel(p[-0.261885,0.216568,0.445109, 1.57, 0.00, 0.00], a=0.01, v=0.1, r=0.01)
movel(p[-0.261884,0.216533,0.445069, 1.57, 0.00, 0.00], a=0.01, v=0.1, r=0.01)
movel(p[-0.261861,0.216438,0.444982, 1.57, 0.00, 0.00], a=0.01, v=0.1, r=0.01)
movel(p[-0.261906,0.216442,0.445013, 1.57, 0.00, 0.00], a=0.01, v=0.1, r=0.01)
movel(p[-0.261967,0.216317,0.444907, 1.57, 0.00, 0.00], a=0.01, v=0.1, r=0.01)
movel(p[-0.261965,0.21626,0.444845, 1.57, 0.00, 0.00], a=0.01, v=0.1, r=0.01)
movel(p[-0.261918,0.21627,0.444842, 1.57, 0.00, 0.00], a=0.01, v=0.1, r=0.01)
movel(p[-0.262045,0.21591,0.444666, 1.57, 0.00, 0.00], a=0.01, v=0.1, r=0.01)
movel(p[-0.262021,0.215822,0.444643, 1.57, 0.00, 0.00], a=0.01, v=0.1, r=0.01)
movel(p[-0.262047,0.215598,0.44464, 1.57, 0.00, 0.00], a=0.01, v=0.1, r=0.01)
movel(p[-0.262038,0.215505,0.444568, 1.57, 0.00, 0.00], a=0.01, v=0.1, r=0.01)
movel(p[-0.262048,0.21514,0.444605, 1.57, 0.00, 0.00], a=0.01, v=0.1, r=0.01)
movel(p[-0.262214,0.214946,0.444566, 1.57, 0.00, 0.00], a=0.01, v=0.1, r=0.01)
movel(p[-0.262414,0.214862,0.444705, 1.57, 0.00, 0.00], a=0.01, v=0.1, r=0.01)
movel(p[-0.262411,0.214809,0.444675, 1.57, 0.00, 0.00], a=0.01, v=0.1, r=0.01)
movel(p[-0.262533,0.21454,0.444787, 1.57, 0.00, 0.00], a=0.01, v=0.1, r=0.01)
movel(p[-0.262399,0.214349,0.444943, 1.57, 0.00, 0.00], a=0.01, v=0.1, r=0.01)
movel(p[-0.262421,0.214127,0.445089, 1.57, 0.00, 0.00], a=0.01, v=0.1, r=0.01)
movel(p[-0.262417,0.214037,0.445057, 1.57, 0.00, 0.00], a=0.01, v=0.1, r=0.01)
movel(p[-0.26208,0.213791,0.445174, 1.57, 0.00, 0.00], a=0.01, v=0.1, r=0.01)
movel(p[-0.261681,0.213554,0.445351, 1.57, 0.00, 0.00], a=0.01, v=0.1, r=0.01)
movel(p[-0.26172,0.213352,0.445474, 1.57, 0.00, 0.00], a=0.01, v=0.1, r=0.01)
movel(p[-0.261651,0.213264,0.445343, 1.57, 0.00, 0.00], a=0.01, v=0.1, r=0.01)
movel(p[-0.261649,0.213184,0.445316, 1.57, 0.00, 0.00], a=0.01, v=0.1, r=0.01)
movel(p[-0.261739,0.213144,0.445116, 1.57, 0.00, 0.00], a=0.01, v=0.1, r=0.01)
movel(p[-0.261868,0.212955,0.444957, 1.57, 0.00, 0.00], a=0.01, v=0.1, r=0.01)
movel(p[-0.261867,0.212901,0.444937, 1.57, 0.00, 0.00], a=0.01, v=0.1, r=0.01)
movel(p[-0.261785,0.212778,0.444446, 1.57, 0.00, 0.00], a=0.01, v=0.1, r=0.01)
movel(p[-0.261621,0.212652,0.444144, 1.57, 0.00, 0.00], a=0.01, v=0.1, r=0.01)
movel(p[-0.261507,0.212554,0.443852, 1.57, 0.00, 0.00], a=0.01, v=0.1, r=0.01)
movel(p[-0.261506,0.2125,0.443825, 1.57, 0.00, 0.00], a=0.01, v=0.1, r=0.01)
movel(p[-0.261543,0.212257,0.443513, 1.57, 0.00, 0.00], a=0.01, v=0.1, r=0.01)
movel(p[-0.261433,0.212203,0.443464, 1.57, 0.00, 0.00], a=0.01, v=0.1, r=0.01)
movel(p[-0.261293,0.21214,0.4434, 1.57, 0.00, 0.00], a=0.01, v=0.1, r=0.01)
movel(p[-0.26129,0.212057,0.443354, 1.57, 0.00, 0.00], a=0.01, v=0.1, r=0.01)
movel(p[-0.261285,0.211961,0.443305, 1.57, 0.00, 0.00], a=0.01, v=0.1, r=0.01)
movel(p[-0.261207,0.211855,0.443246, 1.57, 0.00, 0.00], a=0.01, v=0.1, r=0.01)
movel(p[-0.261015,0.211808,0.443273, 1.57, 0.00, 0.00], a=0.01, v=0.1, r=0.01)
movel(p[-0.261011,0.211759,0.443242, 1.57, 0.00, 0.00], a=0.01, v=0.1, r=0.01)
movel(p[-0.260922,0.211709,0.443404, 1.57, 0.00, 0.00], a=0.01, v=0.1, r=0.01)
movel(p[-0.26087,0.211438,0.443321, 1.57, 0.00, 0.00], a=0.01, v=0.1, r=0.01)
movel(p[-0.260843,0.211317,0.443237, 1.57, 0.00, 0.00], a=0.01, v=0.1, r=0.01)
movel(p[-0.261074,0.211214,0.442945, 1.57, 0.00, 0.00], a=0.01, v=0.1, r=0.01)
movel(p[-0.261054,0.211083,0.442868, 1.57, 0.00, 0.00], a=0.01, v=0.1, r=0.01)
movel(p[-0.261316,0.211058,0.442523, 1.57, 0.00, 0.00], a=0.01, v=0.1, r=0.01)
movel(p[-0.261521,0.210784,0.442327, 1.57, 0.00, 0.00], a=0.01, v=0.1, r=0.01)
movel(p[-0.261674,0.210753,0.44244, 1.57, 0.00, 0.00], a=0.01, v=0.1, r=0.01)
movel(p[-0.261661,0.210671,0.442392, 1.57, 0.00, 0.00], a=0.01, v=0.1, r=0.01)
movel(p[-0.26165,0.210512,0.442333, 1.57, 0.00, 0.00], a=0.01, v=0.1, r=0.01)
movel(p[-0.261479,0.210456,0.442176, 1.57, 0.00, 0.00], a=0.01, v=0.1, r=0.01)
movel(p[-0.26141,0.210477,0.442395, 1.57, 0.00, 0.00], a=0.01, v=0.1, r=0.01)
movel(p[-0.261398,0.21039,0.442345, 1.57, 0.00, 0.00], a=0.01, v=0.1, r=0.01)
movel(p[-0.261445,0.210263,0.442204, 1.57, 0.00, 0.00], a=0.01, v=0.1, r=0.01)
movel(p[-0.2612,0.210344,0.442087, 1.57, 0.00, 0.00], a=0.01, v=0.1, r=0.01)
movel(p[-0.261381,0.210396,0.442044, 1.57, 0.00, 0.00], a=0.01, v=0.1, r=0.01)
movel(p[-0.261373,0.210327,0.442003, 1.57, 0.00, 0.00], a=0.01, v=0.1, r=0.01)
movel(p[-0.261431,0.210246,0.441954, 1.57, 0.00, 0.00], a=0.01, v=0.1, r=0.01)
movel(p[-0.261441,0.210059,0.44185, 1.57, 0.00, 0.00], a=0.01, v=0.1, r=0.01)
movel(p[-0.261627,0.209916,0.441975, 1.57, 0.00, 0.00], a=0.01, v=0.1, r=0.01)
movel(p[-0.261623,0.209827,0.441931, 1.57, 0.00, 0.00], a=0.01, v=0.1, r=0.01)
movel(p[-0.261399,0.209557,0.442217, 1.57, 0.00, 0.00], a=0.01, v=0.1, r=0.01)
movel(p[-0.261685,0.209459,0.443146, 1.57, 0.00, 0.00], a=0.01, v=0.1, r=0.01)
movel(p[-0.261528,0.209385,0.443535, 1.57, 0.00, 0.00], a=0.01, v=0.1, r=0.01)
movel(p[-0.261535,0.209229,0.443496, 1.57, 0.00, 0.00], a=0.01, v=0.1, r=0.01)
movel(p[-0.261592,0.208918,0.44402, 1.57, 0.00, 0.00], a=0.01, v=0.1, r=0.01)
movel(p[-0.261942,0.208692,0.444884, 1.57, 0.00, 0.00], a=0.01, v=0.1, r=0.01)
movel(p[-0.262439,0.208452,0.445575, 1.57, 0.00, 0.00], a=0.01, v=0.1, r=0.01)
movel(p[-0.262446,0.208302,0.44558, 1.57, 0.00, 0.00], a=0.01, v=0.1, r=0.01)
movel(p[-0.262522,0.207875,0.446452, 1.57, 0.00, 0.00], a=0.01, v=0.1, r=0.01)
movel(p[-0.262643,0.207892,0.447354, 1.57, 0.00, 0.00], a=0.01, v=0.1, r=0.01)
movel(p[-0.262992,0.207817,0.447448, 1.57, 0.00, 0.00], a=0.01, v=0.1, r=0.01)
movel(p[-0.263001,0.207668,0.447479, 1.57, 0.00, 0.00], a=0.01, v=0.1, r=0.01)
movel(p[-0.263514,0.207317,0.448194, 1.57, 0.00, 0.00], a=0.01, v=0.1, r=0.01)
movel(p[-0.263839,0.207082,0.448809, 1.57, 0.00, 0.00], a=0.01, v=0.1, r=0.01)
movel(p[-0.26415,0.207058,0.449595, 1.57, 0.00, 0.00], a=0.01, v=0.1, r=0.01)
movel(p[-0.264234,0.206727,0.449721, 1.57, 0.00, 0.00], a=0.01, v=0.1, r=0.01)
movel(p[-0.264512,0.20692,0.4505, 1.57, 0.00, 0.00], a=0.01, v=0.1, r=0.01)
movel(p[-0.264606,0.206968,0.450341, 1.57, 0.00, 0.00], a=0.01, v=0.1, r=0.01)
movel(p[-0.264633,0.207156,0.450342, 1.57, 0.00, 0.00], a=0.01, v=0.1, r=0.01)
movel(p[-0.264909,0.207284,0.450317, 1.57, 0.00, 0.00], a=0.01, v=0.1, r=0.01)
movel(p[-0.26493,0.207206,0.450352, 1.57, 0.00, 0.00], a=0.01, v=0.1, r=0.01)
movel(p[-0.264665,0.207267,0.45048, 1.57, 0.00, 0.00], a=0.01, v=0.1, r=0.01)
movel(p[-0.264624,0.207613,0.450818, 1.57, 0.00, 0.00], a=0.01, v=0.1, r=0.01)
movel(p[-0.264642,0.207535,0.450854, 1.57, 0.00, 0.00], a=0.01, v=0.1, r=0.01)
movel(p[-0.264537,0.20763,0.450969, 1.57, 0.00, 0.00], a=0.01, v=0.1, r=0.01)
movel(p[-0.264339,0.207744,0.451026, 1.57, 0.00, 0.00], a=0.01, v=0.1, r=0.01)
movel(p[-0.264034,0.207904,0.451086, 1.57, 0.00, 0.00], a=0.01, v=0.1, r=0.01)
movel(p[-0.26369,0.207912,0.451215, 1.57, 0.00, 0.00], a=0.01, v=0.1, r=0.01)
movel(p[-0.263728,0.207807,0.45124, 1.57, 0.00, 0.00], a=0.01, v=0.1, r=0.01)
movel(p[-0.263331,0.207735,0.450998, 1.57, 0.00, 0.00], a=0.01, v=0.1, r=0.01)
movel(p[-0.263188,0.207569,0.450654, 1.57, 0.00, 0.00], a=0.01, v=0.1, r=0.01)
movel(p[-0.263072,0.207352,0.450493, 1.57, 0.00, 0.00], a=0.01, v=0.1, r=0.01)
movel(p[-0.263085,0.207295,0.450501, 1.57, 0.00, 0.00], a=0.01, v=0.1, r=0.01)
movel(p[-0.262951,0.207011,0.450356, 1.57, 0.00, 0.00], a=0.01, v=0.1, r=0.01)
movel(p[-0.262861,0.206893,0.450316, 1.57, 0.00, 0.00], a=0.01, v=0.1, r=0.01)
movel(p[-0.262723,0.206914,0.450308, 1.57, 0.00, 0.00], a=0.01, v=0.1, r=0.01)
movel(p[-0.262731,0.206854,0.450312, 1.57, 0.00, 0.00], a=0.01, v=0.1, r=0.01)
movel(p[-0.262507,0.206826,0.449954, 1.57, 0.00, 0.00], a=0.01, v=0.1, r=0.01)
movel(p[-0.262653,0.206685,0.449795, 1.57, 0.00, 0.00], a=0.01, v=0.1, r=0.01)
movel(p[-0.263261,0.206704,0.449927, 1.57, 0.00, 0.00], a=0.01, v=0.1, r=0.01)
movel(p[-0.263796,0.206403,0.4501, 1.57, 0.00, 0.00], a=0.01, v=0.1, r=0.01)
movel(p[-0.26379,0.206268,0.450109, 1.57, 0.00, 0.00], a=0.01, v=0.1, r=0.01)
movel(p[-0.264315,0.205928,0.450402, 1.57, 0.00, 0.00], a=0.01, v=0.1, r=0.01)
movel(p[-0.264744,0.205953,0.450507, 1.57, 0.00, 0.00], a=0.01, v=0.1, r=0.01)
movel(p[-0.265035,0.205814,0.450515, 1.57, 0.00, 0.00], a=0.01, v=0.1, r=0.01)
movel(p[-0.265025,0.205701,0.450535, 1.57, 0.00, 0.00], a=0.01, v=0.1, r=0.01)
movel(p[-0.265375,0.205502,0.450431, 1.57, 0.00, 0.00], a=0.01, v=0.1, r=0.01)
movel(p[-0.265543,0.2054,0.450372, 1.57, 0.00, 0.00], a=0.01, v=0.1, r=0.01)
movel(p[-0.265542,0.205319,0.450395, 1.57, 0.00, 0.00], a=0.01, v=0.1, r=0.01)
movel(p[-0.265688,0.205185,0.450461, 1.57, 0.00, 0.00], a=0.01, v=0.1, r=0.01)
movel(p[-0.2652,0.204977,0.450346, 1.57, 0.00, 0.00], a=0.01, v=0.1, r=0.01)
movel(p[-0.265371,0.204867,0.450294, 1.57, 0.00, 0.00], a=0.01, v=0.1, r=0.01)
movel(p[-0.265338,0.20468,0.450297, 1.57, 0.00, 0.00], a=0.01, v=0.1, r=0.01)
movel(p[-0.265369,0.204542,0.450349, 1.57, 0.00, 0.00], a=0.01, v=0.1, r=0.01)
movel(p[-0.265473,0.204756,0.45005, 1.57, 0.00, 0.00], a=0.01, v=0.1, r=0.01)
movel(p[-0.265716,0.204994,0.44974, 1.57, 0.00, 0.00], a=0.01, v=0.1, r=0.01)
movel(p[-0.265499,0.205202,0.449716, 1.57, 0.00, 0.00], a=0.01, v=0.1, r=0.01)
movel(p[-0.26553,0.20508,0.449752, 1.57, 0.00, 0.00], a=0.01, v=0.1, r=0.01)
movel(p[-0.265567,0.205252,0.449589, 1.57, 0.00, 0.00], a=0.01, v=0.1, r=0.01)
movel(p[-0.265489,0.205323,0.449411, 1.57, 0.00, 0.00], a=0.01, v=0.1, r=0.01)
movel(p[-0.265562,0.205255,0.449251, 1.57, 0.00, 0.00], a=0.01, v=0.1, r=0.01)
movel(p[-0.265579,0.205189,0.449265, 1.57, 0.00, 0.00], a=0.01, v=0.1, r=0.01)
movel(p[-0.265549,0.205199,0.449112, 1.57, 0.00, 0.00], a=0.01, v=0.1, r=0.01)
movel(p[-0.26559,0.205227,0.448987, 1.57, 0.00, 0.00], a=0.01, v=0.1, r=0.01)
movel(p[-0.265497,0.2053,0.449108, 1.57, 0.00, 0.00], a=0.01, v=0.1, r=0.01)
movel(p[-0.26551,0.205246,0.449118, 1.57, 0.00, 0.00], a=0.01, v=0.1, r=0.01)
movel(p[-0.265498,0.20542,0.449089, 1.57, 0.00, 0.00], a=0.01, v=0.1, r=0.01)
movel(p[-0.266792,0.205844,0.449658, 1.57, 0.00, 0.00], a=0.01, v=0.1, r=0.01)
movel(p[-0.267,0.205937,0.449429, 1.57, 0.00, 0.00], a=0.01, v=0.1, r=0.01)
movel(p[-0.266974,0.205858,0.449414, 1.57, 0.00, 0.00], a=0.01, v=0.1, r=0.01)
movel(p[-0.267036,0.20594,0.449434, 1.57, 0.00, 0.00], a=0.01, v=0.1, r=0.01)
movel(p[-0.266938,0.206102,0.449318, 1.57, 0.00, 0.00], a=0.01, v=0.1, r=0.01)
movel(p[-0.26694,0.206223,0.449237, 1.57, 0.00, 0.00], a=0.01, v=0.1, r=0.01)
movel(p[-0.26595,0.205964,0.448594, 1.57, 0.00, 0.00], a=0.01, v=0.1, r=0.01)
movel(p[-0.265716,0.206048,0.448535, 1.57, 0.00, 0.00], a=0.01, v=0.1, r=0.01)
movel(p[-0.265658,0.20611,0.448659, 1.57, 0.00, 0.00], a=0.01, v=0.1, r=0.01)
movel(p[-0.265626,0.206241,0.44864, 1.57, 0.00, 0.00], a=0.01, v=0.1, r=0.01)
movel(p[-0.265598,0.206224,0.448583, 1.57, 0.00, 0.00], a=0.01, v=0.1, r=0.01)
movel(p[-0.265605,0.206176,0.448585, 1.57, 0.00, 0.00], a=0.01, v=0.1, r=0.01)
movel(p[-0.265473,0.206263,0.44848, 1.57, 0.00, 0.00], a=0.01, v=0.1, r=0.01)
movel(p[-0.265297,0.206181,0.448462, 1.57, 0.00, 0.00], a=0.01, v=0.1, r=0.01)
movel(p[-0.264817,0.20603,0.4483, 1.57, 0.00, 0.00], a=0.01, v=0.1, r=0.01)
movel(p[-0.264834,0.205974,0.4483, 1.57, 0.00, 0.00], a=0.01, v=0.1, r=0.01)
movel(p[-0.264827,0.205938,0.44835, 1.57, 0.00, 0.00], a=0.01, v=0.1, r=0.01)
movel(p[-0.26495,0.206059,0.448403, 1.57, 0.00, 0.00], a=0.01, v=0.1, r=0.01)
movel(p[-0.264878,0.205984,0.448495, 1.57, 0.00, 0.00], a=0.01, v=0.1, r=0.01)
movel(p[-0.264886,0.205961,0.448495, 1.57, 0.00, 0.00], a=0.01, v=0.1, r=0.01)
movel(p[-0.26484,0.205959,0.448491, 1.57, 0.00, 0.00], a=0.01, v=0.1, r=0.01)
movel(p[-0.265072,0.206159,0.448302, 1.57, 0.00, 0.00], a=0.01, v=0.1, r=0.01)
movel(p[-0.265107,0.206098,0.448296, 1.57, 0.00, 0.00], a=0.01, v=0.1, r=0.01)
movel(p[-0.265436,0.206266,0.448199, 1.57, 0.00, 0.00], a=0.01, v=0.1, r=0.01)
movel(p[-0.265825,0.206403,0.448206, 1.57, 0.00, 0.00], a=0.01, v=0.1, r=0.01)
movel(p[-0.265855,0.206385,0.448085, 1.57, 0.00, 0.00], a=0.01, v=0.1, r=0.01)
movel(p[-0.265777,0.20621,0.448057, 1.57, 0.00, 0.00], a=0.01, v=0.1, r=0.01)
movel(p[-0.265795,0.206179,0.448045, 1.57, 0.00, 0.00], a=0.01, v=0.1, r=0.01)
movel(p[-0.265559,0.205895,0.44794, 1.57, 0.00, 0.00], a=0.01, v=0.1, r=0.01)
movel(p[-0.265435,0.206005,0.447755, 1.57, 0.00, 0.00], a=0.01, v=0.1, r=0.01)
movel(p[-0.265493,0.206132,0.447396, 1.57, 0.00, 0.00], a=0.01, v=0.1, r=0.01)
movel(p[-0.265508,0.206116,0.447387, 1.57, 0.00, 0.00], a=0.01, v=0.1, r=0.01)
movel(p[-0.265231,0.206114,0.447073, 1.57, 0.00, 0.00], a=0.01, v=0.1, r=0.01)
movel(p[-0.265294,0.206128,0.446991, 1.57, 0.00, 0.00], a=0.01, v=0.1, r=0.01)
movel(p[-0.265277,0.206196,0.4469, 1.57, 0.00, 0.00], a=0.01, v=0.1, r=0.01)
movel(p[-0.265292,0.206184,0.446887, 1.57, 0.00, 0.00], a=0.01, v=0.1, r=0.01)
movel(p[-0.265058,0.206171,0.446641, 1.57, 0.00, 0.00], a=0.01, v=0.1, r=0.01)
movel(p[-0.265201,0.206344,0.446655, 1.57, 0.00, 0.00], a=0.01, v=0.1, r=0.01)
movel(p[-0.265241,0.206434,0.446683, 1.57, 0.00, 0.00], a=0.01, v=0.1, r=0.01)
movel(p[-0.265258,0.206421,0.446669, 1.57, 0.00, 0.00], a=0.01, v=0.1, r=0.01)
movel(p[-0.265358,0.206484,0.446665, 1.57, 0.00, 0.00], a=0.01, v=0.1, r=0.01)
movel(p[-0.265456,0.206529,0.44653, 1.57, 0.00, 0.00], a=0.01, v=0.1, r=0.01)
movel(p[-0.265676,0.206274,0.446799, 1.57, 0.00, 0.00], a=0.01, v=0.1, r=0.01)
movel(p[-0.265699,0.20625,0.446788, 1.57, 0.00, 0.00], a=0.01, v=0.1, r=0.01)
movel(p[-0.265769,0.206009,0.446717, 1.57, 0.00, 0.00], a=0.01, v=0.1, r=0.01)
movel(p[-0.266128,0.205756,0.446485, 1.57, 0.00, 0.00], a=0.01, v=0.1, r=0.01)
movel(p[-0.267461,0.204991,0.446099, 1.57, 0.00, 0.00], a=0.01, v=0.1, r=0.01)
movel(p[-0.268169,0.204628,0.445957, 1.57, 0.00, 0.00], a=0.01, v=0.1, r=0.01)
movel(p[-0.268203,0.204579,0.445924, 1.57, 0.00, 0.00], a=0.01, v=0.1, r=0.01)
movel(p[-0.268521,0.204524,0.446128, 1.57, 0.00, 0.00], a=0.01, v=0.1, r=0.01)
movel(p[-0.268245,0.204178,0.446188, 1.57, 0.00, 0.00], a=0.01, v=0.1, r=0.01)
movel(p[-0.268271,0.204133,0.446149, 1.57, 0.00, 0.00], a=0.01, v=0.1, r=0.01)
movel(p[-0.268037,0.203719,0.445824, 1.57, 0.00, 0.00], a=0.01, v=0.1, r=0.01)
movel(p[-0.268115,0.203441,0.445898, 1.57, 0.00, 0.00], a=0.01, v=0.1, r=0.01)
movel(p[-0.26816,0.203506,0.445946, 1.57, 0.00, 0.00], a=0.01, v=0.1, r=0.01)
movel(p[-0.268384,0.203411,0.44597, 1.57, 0.00, 0.00], a=0.01, v=0.1, r=0.01)
movel(p[-0.268405,0.203373,0.445937, 1.57, 0.00, 0.00], a=0.01, v=0.1, r=0.01)
movel(p[-0.268637,0.203051,0.445505, 1.57, 0.00, 0.00], a=0.01, v=0.1, r=0.01)
movel(p[-0.268909,0.202755,0.445009, 1.57, 0.00, 0.00], a=0.01, v=0.1, r=0.01)
movel(p[-0.269044,0.202587,0.444736, 1.57, 0.00, 0.00], a=0.01, v=0.1, r=0.01)
movel(p[-0.269124,0.202456,0.444612, 1.57, 0.00, 0.00], a=0.01, v=0.1, r=0.01)
movel(p[-0.268876,0.202108,0.444393, 1.57, 0.00, 0.00], a=0.01, v=0.1, r=0.01)
movel(p[-0.268654,0.202266,0.444782, 1.57, 0.00, 0.00], a=0.01, v=0.1, r=0.01)
movel(p[-0.268796,0.202457,0.445022, 1.57, 0.00, 0.00], a=0.01, v=0.1, r=0.01)
movel(p[-0.268841,0.202379,0.444957, 1.57, 0.00, 0.00], a=0.01, v=0.1, r=0.01)
movel(p[-0.269142,0.202729,0.445183, 1.57, 0.00, 0.00], a=0.01, v=0.1, r=0.01)
movel(p[-0.269215,0.202685,0.44555, 1.57, 0.00, 0.00], a=0.01, v=0.1, r=0.01)
movel(p[-0.269634,0.202513,0.445916, 1.57, 0.00, 0.00], a=0.01, v=0.1, r=0.01)
movel(p[-0.26974,0.202278,0.445807, 1.57, 0.00, 0.00], a=0.01, v=0.1, r=0.01)
movel(p[-0.271103,0.202903,0.446086, 1.57, 0.00, 0.00], a=0.01, v=0.1, r=0.01)
movel(p[-0.273654,0.20373,0.446787, 1.57, 0.00, 0.00], a=0.01, v=0.1, r=0.01)
movel(p[-0.276365,0.203022,0.443253, 1.57, 0.00, 0.00], a=0.01, v=0.1, r=0.01)
movel(p[-0.276383,0.20281,0.443196, 1.57, 0.00, 0.00], a=0.01, v=0.1, r=0.01)
movel(p[-0.278382,0.200356,0.433377, 1.57, 0.00, 0.00], a=0.01, v=0.1, r=0.01)
movel(p[-0.282262,0.197814,0.428041, 1.57, 0.00, 0.00], a=0.01, v=0.1, r=0.01)
movel(p[-0.285378,0.195777,0.42497, 1.57, 0.00, 0.00], a=0.01, v=0.1, r=0.01)
movel(p[-0.288251,0.19472,0.423436, 1.57, 0.00, 0.00], a=0.01, v=0.1, r=0.01)
movel(p[-0.288243,0.19463,0.42344, 1.57, 0.00, 0.00], a=0.01, v=0.1, r=0.01)
movel(p[-0.289644,0.193574,0.4225, 1.57, 0.00, 0.00], a=0.01, v=0.1, r=0.01)
movel(p[-0.291256,0.192749,0.422809, 1.57, 0.00, 0.00], a=0.01, v=0.1, r=0.01)
movel(p[-0.29125,0.19269,0.422813, 1.57, 0.00, 0.00], a=0.01, v=0.1, r=0.01)
movel(p[-0.292908,0.192559,0.423737, 1.57, 0.00, 0.00], a=0.01, v=0.1, r=0.01)
movel(p[-0.293686,0.192977,0.425187, 1.57, 0.00, 0.00], a=0.01, v=0.1, r=0.01)
movel(p[-0.293946,0.193876,0.428161, 1.57, 0.00, 0.00], a=0.01, v=0.1, r=0.01)
movel(p[-0.293901,0.19373,0.428182, 1.57, 0.00, 0.00], a=0.01, v=0.1, r=0.01)
movel(p[-0.293931,0.196387,0.434226, 1.57, 0.00, 0.00], a=0.01, v=0.1, r=0.01)
movel(p[-0.294062,0.199678,0.44194, 1.57, 0.00, 0.00], a=0.01, v=0.1, r=0.01)
movel(p[-0.294815,0.202337,0.448644, 1.57, 0.00, 0.00], a=0.01, v=0.1, r=0.01)
movel(p[-0.294808,0.202284,0.448649, 1.57, 0.00, 0.00], a=0.01, v=0.1, r=0.01)
movel(p[-0.295647,0.204424,0.453391, 1.57, 0.00, 0.00], a=0.01, v=0.1, r=0.01)
movel(p[-0.295732,0.205348,0.456299, 1.57, 0.00, 0.00], a=0.01, v=0.1, r=0.01)
movel(p[-0.29549,0.205655,0.457961, 1.57, 0.00, 0.00], a=0.01, v=0.1, r=0.01)
movel(p[-0.295847,0.206059,0.459468, 1.57, 0.00, 0.00], a=0.01, v=0.1, r=0.01)
movel(p[-0.295864,0.205963,0.459462, 1.57, 0.00, 0.00], a=0.01, v=0.1, r=0.01)
movel(p[-0.2958,0.205881,0.460381, 1.57, 0.00, 0.00], a=0.01, v=0.1, r=0.01)
movel(p[-0.295688,0.205631,0.46089, 1.57, 0.00, 0.00], a=0.01, v=0.1, r=0.01)
movel(p[-0.29544,0.205566,0.461334, 1.57, 0.00, 0.00], a=0.01, v=0.1, r=0.01)
end
