def myProg():
movel(p[0.264481,0.163907,0.535829, 1.57, 0.00, 0.00], a=0.01, v=0.1, r=0.01)
movel(p[0.264184,0.16401,0.535971, 1.57, 0.00, 0.00], a=0.01, v=0.1, r=0.01)
movel(p[0.263821,0.16418,0.536238, 1.57, 0.00, 0.00], a=0.01, v=0.1, r=0.01)
movel(p[0.263324,0.164395,0.536819, 1.57, 0.00, 0.00], a=0.01, v=0.1, r=0.01)
movel(p[0.262749,0.164792,0.536982, 1.57, 0.00, 0.00], a=0.01, v=0.1, r=0.01)
movel(p[0.262992,0.16485,0.537839, 1.57, 0.00, 0.00], a=0.01, v=0.1, r=0.01)
movel(p[0.262611,0.164898,0.538, 1.57, 0.00, 0.00], a=0.01, v=0.1, r=0.01)
movel(p[0.262545,0.165459,0.538271, 1.57, 0.00, 0.00], a=0.01, v=0.1, r=0.01)
movel(p[0.262444,0.165983,0.538096, 1.57, 0.00, 0.00], a=0.01, v=0.1, r=0.01)
movel(p[0.261804,0.166977,0.537841, 1.57, 0.00, 0.00], a=0.01, v=0.1, r=0.01)
movel(p[0.261568,0.167018,0.537952, 1.57, 0.00, 0.00], a=0.01, v=0.1, r=0.01)
movel(p[0.26126,0.167909,0.537702, 1.57, 0.00, 0.00], a=0.01, v=0.1, r=0.01)
movel(p[0.261434,0.168167,0.537885, 1.57, 0.00, 0.00], a=0.01, v=0.1, r=0.01)
movel(p[0.261384,0.168045,0.53826, 1.57, 0.00, 0.00], a=0.01, v=0.1, r=0.01)
movel(p[0.261179,0.168078,0.538366, 1.57, 0.00, 0.00], a=0.01, v=0.1, r=0.01)
movel(p[0.261393,0.168065,0.538449, 1.57, 0.00, 0.00], a=0.01, v=0.1, r=0.01)
movel(p[0.261943,0.168353,0.538066, 1.57, 0.00, 0.00], a=0.01, v=0.1, r=0.01)
movel(p[0.262106,0.168614,0.538052, 1.57, 0.00, 0.00], a=0.01, v=0.1, r=0.01)
movel(p[0.261921,0.168632,0.538149, 1.57, 0.00, 0.00], a=0.01, v=0.1, r=0.01)
movel(p[0.263006,0.168277,0.538462, 1.57, 0.00, 0.00], a=0.01, v=0.1, r=0.01)
movel(p[0.265135,0.16761,0.538345, 1.57, 0.00, 0.00], a=0.01, v=0.1, r=0.01)
movel(p[0.265917,0.166419,0.539095, 1.57, 0.00, 0.00], a=0.01, v=0.1, r=0.01)
movel(p[0.265587,0.166415,0.539349, 1.57, 0.00, 0.00], a=0.01, v=0.1, r=0.01)
movel(p[0.266748,0.165282,0.539456, 1.57, 0.00, 0.00], a=0.01, v=0.1, r=0.01)
movel(p[0.267891,0.164951,0.539255, 1.57, 0.00, 0.00], a=0.01, v=0.1, r=0.01)
movel(p[0.26936,0.164036,0.539215, 1.57, 0.00, 0.00], a=0.01, v=0.1, r=0.01)
movel(p[0.269219,0.164023,0.539351, 1.57, 0.00, 0.00], a=0.01, v=0.1, r=0.01)
movel(p[0.271351,0.162393,0.538976, 1.57, 0.00, 0.00], a=0.01, v=0.1, r=0.01)
movel(p[0.273694,0.160898,0.538585, 1.57, 0.00, 0.00], a=0.01, v=0.1, r=0.01)
movel(p[0.276646,0.158909,0.537591, 1.57, 0.00, 0.00], a=0.01, v=0.1, r=0.01)
movel(p[0.276335,0.158827,0.537907, 1.57, 0.00, 0.00], a=0.01, v=0.1, r=0.01)
movel(p[0.276517,0.158137,0.539624, 1.57, 0.00, 0.00], a=0.01, v=0.1, r=0.01)
movel(p[0.277154,0.15745,0.53958, 1.57, 0.00, 0.00], a=0.01, v=0.1, r=0.01)
movel(p[0.278086,0.156781,0.538952, 1.57, 0.00, 0.00], a=0.01, v=0.1, r=0.01)
movel(p[0.278999,0.15578,0.53846, 1.57, 0.00, 0.00], a=0.01, v=0.1, r=0.01)
movel(p[0.278901,0.155692,0.538583, 1.57, 0.00, 0.00], a=0.01, v=0.1, r=0.01)
movel(p[0.279717,0.153824,0.538596, 1.57, 0.00, 0.00], a=0.01, v=0.1, r=0.01)
movel(p[0.280255,0.1521,0.538452, 1.57, 0.00, 0.00], a=0.01, v=0.1, r=0.01)
movel(p[0.280061,0.151782,0.538654, 1.57, 0.00, 0.00], a=0.01, v=0.1, r=0.01)
movel(p[0.280351,0.15019,0.539352, 1.57, 0.00, 0.00], a=0.01, v=0.1, r=0.01)
movel(p[0.280577,0.148132,0.539711, 1.57, 0.00, 0.00], a=0.01, v=0.1, r=0.01)
movel(p[0.280901,0.145685,0.539646, 1.57, 0.00, 0.00], a=0.01, v=0.1, r=0.01)
movel(p[0.281154,0.143598,0.539453, 1.57, 0.00, 0.00], a=0.01, v=0.1, r=0.01)
movel(p[0.280937,0.142883,0.539624, 1.57, 0.00, 0.00], a=0.01, v=0.1, r=0.01)
movel(p[0.281107,0.141074,0.539902, 1.57, 0.00, 0.00], a=0.01, v=0.1, r=0.01)
movel(p[0.281061,0.138991,0.540452, 1.57, 0.00, 0.00], a=0.01, v=0.1, r=0.01)
movel(p[0.281072,0.136428,0.541217, 1.57, 0.00, 0.00], a=0.01, v=0.1, r=0.01)
movel(p[0.280933,0.135632,0.541384, 1.57, 0.00, 0.00], a=0.01, v=0.1, r=0.01)
movel(p[0.280709,0.133124,0.54186, 1.57, 0.00, 0.00], a=0.01, v=0.1, r=0.01)
movel(p[0.280442,0.130474,0.542131, 1.57, 0.00, 0.00], a=0.01, v=0.1, r=0.01)
movel(p[0.280277,0.128147,0.542569, 1.57, 0.00, 0.00], a=0.01, v=0.1, r=0.01)
movel(p[0.279934,0.126438,0.542858, 1.57, 0.00, 0.00], a=0.01, v=0.1, r=0.01)
movel(p[0.280039,0.123855,0.542908, 1.57, 0.00, 0.00], a=0.01, v=0.1, r=0.01)
movel(p[0.280513,0.121474,0.54296, 1.57, 0.00, 0.00], a=0.01, v=0.1, r=0.01)
movel(p[0.28049,0.11855,0.543363, 1.57, 0.00, 0.00], a=0.01, v=0.1, r=0.01)
movel(p[0.280167,0.117016,0.543562, 1.57, 0.00, 0.00], a=0.01, v=0.1, r=0.01)
movel(p[0.279887,0.114066,0.544085, 1.57, 0.00, 0.00], a=0.01, v=0.1, r=0.01)
movel(p[0.279281,0.110796,0.543948, 1.57, 0.00, 0.00], a=0.01, v=0.1, r=0.01)
movel(p[0.278958,0.107735,0.544389, 1.57, 0.00, 0.00], a=0.01, v=0.1, r=0.01)
movel(p[0.278733,0.106649,0.544492, 1.57, 0.00, 0.00], a=0.01, v=0.1, r=0.01)
movel(p[0.278533,0.103723,0.544501, 1.57, 0.00, 0.00], a=0.01, v=0.1, r=0.01)
movel(p[0.277886,0.100416,0.544785, 1.57, 0.00, 0.00], a=0.01, v=0.1, r=0.01)
movel(p[0.277946,0.0975921,0.545073, 1.57, 0.00, 0.00], a=0.01, v=0.1, r=0.01)
movel(p[0.277573,0.0957235,0.545147, 1.57, 0.00, 0.00], a=0.01, v=0.1, r=0.01)
movel(p[0.277239,0.0918405,0.545921, 1.57, 0.00, 0.00], a=0.01, v=0.1, r=0.01)
movel(p[0.276948,0.0886927,0.54612, 1.57, 0.00, 0.00], a=0.01, v=0.1, r=0.01)
movel(p[0.276923,0.0863869,0.546079, 1.57, 0.00, 0.00], a=0.01, v=0.1, r=0.01)
movel(p[0.276725,0.0851529,0.546115, 1.57, 0.00, 0.00], a=0.01, v=0.1, r=0.01)
movel(p[0.276611,0.0817838,0.546739, 1.57, 0.00, 0.00], a=0.01, v=0.1, r=0.01)
movel(p[0.276668,0.078283,0.547391, 1.57, 0.00, 0.00], a=0.01, v=0.1, r=0.01)
movel(p[0.276105,0.0746065,0.548299, 1.57, 0.00, 0.00], a=0.01, v=0.1, r=0.01)
movel(p[0.275234,0.0720289,0.54899, 1.57, 0.00, 0.00], a=0.01, v=0.1, r=0.01)
movel(p[0.274863,0.0693422,0.549142, 1.57, 0.00, 0.00], a=0.01, v=0.1, r=0.01)
movel(p[0.27406,0.0667735,0.549269, 1.57, 0.00, 0.00], a=0.01, v=0.1, r=0.01)
movel(p[0.273522,0.0626414,0.549577, 1.57, 0.00, 0.00], a=0.01, v=0.1, r=0.01)
movel(p[0.272543,0.0585926,0.550301, 1.57, 0.00, 0.00], a=0.01, v=0.1, r=0.01)
movel(p[0.272013,0.0555018,0.550451, 1.57, 0.00, 0.00], a=0.01, v=0.1, r=0.01)
movel(p[0.271311,0.0531487,0.550409, 1.57, 0.00, 0.00], a=0.01, v=0.1, r=0.01)
movel(p[0.270331,0.0487475,0.550289, 1.57, 0.00, 0.00], a=0.01, v=0.1, r=0.01)
movel(p[0.269888,0.044504,0.550459, 1.57, 0.00, 0.00], a=0.01, v=0.1, r=0.01)
movel(p[0.26942,0.0422958,0.5505, 1.57, 0.00, 0.00], a=0.01, v=0.1, r=0.01)
movel(p[0.268471,0.0379023,0.550453, 1.57, 0.00, 0.00], a=0.01, v=0.1, r=0.01)
movel(p[0.26769,0.0331654,0.550939, 1.57, 0.00, 0.00], a=0.01, v=0.1, r=0.01)
movel(p[0.266748,0.0295173,0.551447, 1.57, 0.00, 0.00], a=0.01, v=0.1, r=0.01)
movel(p[0.266127,0.0268532,0.551513, 1.57, 0.00, 0.00], a=0.01, v=0.1, r=0.01)
movel(p[0.265742,0.022826,0.55204, 1.57, 0.00, 0.00], a=0.01, v=0.1, r=0.01)
movel(p[0.265975,0.0183343,0.552421, 1.57, 0.00, 0.00], a=0.01, v=0.1, r=0.01)
movel(p[0.265768,0.0149529,0.552651, 1.57, 0.00, 0.00], a=0.01, v=0.1, r=0.01)
movel(p[0.264973,0.0115909,0.552852, 1.57, 0.00, 0.00], a=0.01, v=0.1, r=0.01)
movel(p[0.265943,0.00837493,0.55273, 1.57, 0.00, 0.00], a=0.01, v=0.1, r=0.01)
movel(p[0.265877,0.00370266,0.55291, 1.57, 0.00, 0.00], a=0.01, v=0.1, r=0.01)
movel(p[0.265333,0.000196288,0.552118, 1.57, 0.00, 0.00], a=0.01, v=0.1, r=0.01)
movel(p[0.26487,-0.0020815,0.552162, 1.57, 0.00, 0.00], a=0.01, v=0.1, r=0.01)
movel(p[0.265088,-0.0055035,0.552147, 1.57, 0.00, 0.00], a=0.01, v=0.1, r=0.01)
movel(p[0.264537,-0.00953293,0.551864, 1.57, 0.00, 0.00], a=0.01, v=0.1, r=0.01)
movel(p[0.264478,-0.01281,0.551508, 1.57, 0.00, 0.00], a=0.01, v=0.1, r=0.01)
movel(p[0.264039,-0.016172,0.551717, 1.57, 0.00, 0.00], a=0.01, v=0.1, r=0.01)
movel(p[0.263457,-0.0185108,0.551838, 1.57, 0.00, 0.00], a=0.01, v=0.1, r=0.01)
movel(p[0.263158,-0.0208562,0.551974, 1.57, 0.00, 0.00], a=0.01, v=0.1, r=0.01)
movel(p[0.262692,-0.0232308,0.552191, 1.57, 0.00, 0.00], a=0.01, v=0.1, r=0.01)
movel(p[0.262037,-0.0260226,0.552322, 1.57, 0.00, 0.00], a=0.01, v=0.1, r=0.01)
movel(p[0.261734,-0.0277473,0.552126, 1.57, 0.00, 0.00], a=0.01, v=0.1, r=0.01)
movel(p[0.260973,-0.0304242,0.552203, 1.57, 0.00, 0.00], a=0.01, v=0.1, r=0.01)
movel(p[0.260575,-0.0324906,0.552294, 1.57, 0.00, 0.00], a=0.01, v=0.1, r=0.01)
movel(p[0.25965,-0.036082,0.552567, 1.57, 0.00, 0.00], a=0.01, v=0.1, r=0.01)
movel(p[0.25907,-0.0381364,0.552638, 1.57, 0.00, 0.00], a=0.01, v=0.1, r=0.01)
movel(p[0.258255,-0.040699,0.553023, 1.57, 0.00, 0.00], a=0.01, v=0.1, r=0.01)
movel(p[0.257847,-0.0424314,0.553498, 1.57, 0.00, 0.00], a=0.01, v=0.1, r=0.01)
movel(p[0.257394,-0.0457325,0.553582, 1.57, 0.00, 0.00], a=0.01, v=0.1, r=0.01)
movel(p[0.256544,-0.0482336,0.553729, 1.57, 0.00, 0.00], a=0.01, v=0.1, r=0.01)
movel(p[0.256697,-0.0507973,0.554389, 1.57, 0.00, 0.00], a=0.01, v=0.1, r=0.01)
movel(p[0.256773,-0.0527411,0.555142, 1.57, 0.00, 0.00], a=0.01, v=0.1, r=0.01)
movel(p[0.256087,-0.0560397,0.555032, 1.57, 0.00, 0.00], a=0.01, v=0.1, r=0.01)
movel(p[0.25565,-0.0586279,0.554767, 1.57, 0.00, 0.00], a=0.01, v=0.1, r=0.01)
movel(p[0.255201,-0.059794,0.554871, 1.57, 0.00, 0.00], a=0.01, v=0.1, r=0.01)
movel(p[0.25502,-0.0617993,0.555365, 1.57, 0.00, 0.00], a=0.01, v=0.1, r=0.01)
movel(p[0.254979,-0.0637421,0.5558, 1.57, 0.00, 0.00], a=0.01, v=0.1, r=0.01)
movel(p[0.254454,-0.0651479,0.555984, 1.57, 0.00, 0.00], a=0.01, v=0.1, r=0.01)
movel(p[0.254015,-0.0666242,0.555923, 1.57, 0.00, 0.00], a=0.01, v=0.1, r=0.01)
movel(p[0.254297,-0.066875,0.555939, 1.57, 0.00, 0.00], a=0.01, v=0.1, r=0.01)
movel(p[0.253675,-0.0682006,0.555439, 1.57, 0.00, 0.00], a=0.01, v=0.1, r=0.01)
movel(p[0.253057,-0.069759,0.555596, 1.57, 0.00, 0.00], a=0.01, v=0.1, r=0.01)
movel(p[0.253229,-0.0701874,0.55506, 1.57, 0.00, 0.00], a=0.01, v=0.1, r=0.01)
movel(p[0.252967,-0.0706058,0.55465, 1.57, 0.00, 0.00], a=0.01, v=0.1, r=0.01)
movel(p[0.252726,-0.0713173,0.553836, 1.57, 0.00, 0.00], a=0.01, v=0.1, r=0.01)
movel(p[0.252444,-0.0719854,0.553839, 1.57, 0.00, 0.00], a=0.01, v=0.1, r=0.01)
movel(p[0.252312,-0.0725637,0.553414, 1.57, 0.00, 0.00], a=0.01, v=0.1, r=0.01)
movel(p[0.252457,-0.0727781,0.55305, 1.57, 0.00, 0.00], a=0.01, v=0.1, r=0.01)
movel(p[0.25235,-0.0736326,0.552368, 1.57, 0.00, 0.00], a=0.01, v=0.1, r=0.01)
movel(p[0.25204,-0.0743791,0.552303, 1.57, 0.00, 0.00], a=0.01, v=0.1, r=0.01)
movel(p[0.25233,-0.0743423,0.551454, 1.57, 0.00, 0.00], a=0.01, v=0.1, r=0.01)
movel(p[0.252484,-0.0742935,0.551099, 1.57, 0.00, 0.00], a=0.01, v=0.1, r=0.01)
movel(p[0.252315,-0.0747599,0.550279, 1.57, 0.00, 0.00], a=0.01, v=0.1, r=0.01)
movel(p[0.252224,-0.0749853,0.550225, 1.57, 0.00, 0.00], a=0.01, v=0.1, r=0.01)
movel(p[0.252659,-0.0754077,0.549639, 1.57, 0.00, 0.00], a=0.01, v=0.1, r=0.01)
movel(p[0.253088,-0.0753553,0.548731, 1.57, 0.00, 0.00], a=0.01, v=0.1, r=0.01)
movel(p[0.253155,-0.0756609,0.548087, 1.57, 0.00, 0.00], a=0.01, v=0.1, r=0.01)
movel(p[0.253225,-0.0754592,0.547235, 1.57, 0.00, 0.00], a=0.01, v=0.1, r=0.01)
movel(p[0.253077,-0.0760213,0.546915, 1.57, 0.00, 0.00], a=0.01, v=0.1, r=0.01)
movel(p[0.252968,-0.076251,0.545616, 1.57, 0.00, 0.00], a=0.01, v=0.1, r=0.01)
movel(p[0.253142,-0.0759361,0.544322, 1.57, 0.00, 0.00], a=0.01, v=0.1, r=0.01)
movel(p[0.253388,-0.0757489,0.543137, 1.57, 0.00, 0.00], a=0.01, v=0.1, r=0.01)
movel(p[0.253236,-0.0762656,0.542577, 1.57, 0.00, 0.00], a=0.01, v=0.1, r=0.01)
movel(p[0.25329,-0.0760249,0.541477, 1.57, 0.00, 0.00], a=0.01, v=0.1, r=0.01)
movel(p[0.253303,-0.0756026,0.540104, 1.57, 0.00, 0.00], a=0.01, v=0.1, r=0.01)
movel(p[0.25297,-0.07552,0.538704, 1.57, 0.00, 0.00], a=0.01, v=0.1, r=0.01)
movel(p[0.252882,-0.0758414,0.538046, 1.57, 0.00, 0.00], a=0.01, v=0.1, r=0.01)
movel(p[0.252558,-0.0755787,0.536042, 1.57, 0.00, 0.00], a=0.01, v=0.1, r=0.01)
movel(p[0.251939,-0.075357,0.534085, 1.57, 0.00, 0.00], a=0.01, v=0.1, r=0.01)
movel(p[0.251696,-0.0739106,0.532271, 1.57, 0.00, 0.00], a=0.01, v=0.1, r=0.01)
movel(p[0.251551,-0.0743172,0.530931, 1.57, 0.00, 0.00], a=0.01, v=0.1, r=0.01)
movel(p[0.250967,-0.0730365,0.528458, 1.57, 0.00, 0.00], a=0.01, v=0.1, r=0.01)
movel(p[0.25018,-0.0724888,0.525625, 1.57, 0.00, 0.00], a=0.01, v=0.1, r=0.01)
movel(p[0.25032,-0.0718764,0.523526, 1.57, 0.00, 0.00], a=0.01, v=0.1, r=0.01)
movel(p[0.250238,-0.0722264,0.521813, 1.57, 0.00, 0.00], a=0.01, v=0.1, r=0.01)
movel(p[0.250344,-0.0725354,0.51968, 1.57, 0.00, 0.00], a=0.01, v=0.1, r=0.01)
movel(p[0.250013,-0.0722893,0.516176, 1.57, 0.00, 0.00], a=0.01, v=0.1, r=0.01)
movel(p[0.250071,-0.072481,0.512791, 1.57, 0.00, 0.00], a=0.01, v=0.1, r=0.01)
movel(p[0.249899,-0.0729116,0.510912, 1.57, 0.00, 0.00], a=0.01, v=0.1, r=0.01)
movel(p[0.251126,-0.0730515,0.507963, 1.57, 0.00, 0.00], a=0.01, v=0.1, r=0.01)
movel(p[0.251754,-0.0733447,0.504818, 1.57, 0.00, 0.00], a=0.01, v=0.1, r=0.01)
movel(p[0.251637,-0.0740638,0.499331, 1.57, 0.00, 0.00], a=0.01, v=0.1, r=0.01)
movel(p[0.251661,-0.0745363,0.496998, 1.57, 0.00, 0.00], a=0.01, v=0.1, r=0.01)
movel(p[0.251845,-0.075331,0.493731, 1.57, 0.00, 0.00], a=0.01, v=0.1, r=0.01)
movel(p[0.251756,-0.0767311,0.488801, 1.57, 0.00, 0.00], a=0.01, v=0.1, r=0.01)
movel(p[0.252606,-0.0774007,0.48576, 1.57, 0.00, 0.00], a=0.01, v=0.1, r=0.01)
movel(p[0.253307,-0.0790512,0.481884, 1.57, 0.00, 0.00], a=0.01, v=0.1, r=0.01)
movel(p[0.253242,-0.079395,0.480349, 1.57, 0.00, 0.00], a=0.01, v=0.1, r=0.01)
movel(p[0.253874,-0.0807539,0.477347, 1.57, 0.00, 0.00], a=0.01, v=0.1, r=0.01)
movel(p[0.254138,-0.0818266,0.473907, 1.57, 0.00, 0.00], a=0.01, v=0.1, r=0.01)
movel(p[0.255041,-0.0824379,0.470615, 1.57, 0.00, 0.00], a=0.01, v=0.1, r=0.01)
movel(p[0.25608,-0.0829254,0.467809, 1.57, 0.00, 0.00], a=0.01, v=0.1, r=0.01)
movel(p[0.255967,-0.0834764,0.465081, 1.57, 0.00, 0.00], a=0.01, v=0.1, r=0.01)
movel(p[0.25662,-0.083945,0.461489, 1.57, 0.00, 0.00], a=0.01, v=0.1, r=0.01)
movel(p[0.256873,-0.0838879,0.458164, 1.57, 0.00, 0.00], a=0.01, v=0.1, r=0.01)
movel(p[0.256851,-0.0842467,0.455626, 1.57, 0.00, 0.00], a=0.01, v=0.1, r=0.01)
movel(p[0.256751,-0.0848302,0.451061, 1.57, 0.00, 0.00], a=0.01, v=0.1, r=0.01)
movel(p[0.256646,-0.0851212,0.44945, 1.57, 0.00, 0.00], a=0.01, v=0.1, r=0.01)
movel(p[0.256525,-0.0849323,0.447617, 1.57, 0.00, 0.00], a=0.01, v=0.1, r=0.01)
movel(p[0.256326,-0.0854725,0.444609, 1.57, 0.00, 0.00], a=0.01, v=0.1, r=0.01)
movel(p[0.256407,-0.0846503,0.443442, 1.57, 0.00, 0.00], a=0.01, v=0.1, r=0.01)
movel(p[0.256922,-0.0839011,0.442456, 1.57, 0.00, 0.00], a=0.01, v=0.1, r=0.01)
movel(p[0.256301,-0.0838475,0.438608, 1.57, 0.00, 0.00], a=0.01, v=0.1, r=0.01)
movel(p[0.256061,-0.0840326,0.436847, 1.57, 0.00, 0.00], a=0.01, v=0.1, r=0.01)
movel(p[0.256331,-0.0835059,0.434839, 1.57, 0.00, 0.00], a=0.01, v=0.1, r=0.01)
movel(p[0.256447,-0.0827925,0.43373, 1.57, 0.00, 0.00], a=0.01, v=0.1, r=0.01)
movel(p[0.256277,-0.0819183,0.429721, 1.57, 0.00, 0.00], a=0.01, v=0.1, r=0.01)
movel(p[0.256209,-0.0819236,0.429121, 1.57, 0.00, 0.00], a=0.01, v=0.1, r=0.01)
movel(p[0.255721,-0.0815532,0.427204, 1.57, 0.00, 0.00], a=0.01, v=0.1, r=0.01)
movel(p[0.255048,-0.0807814,0.424476, 1.57, 0.00, 0.00], a=0.01, v=0.1, r=0.01)
movel(p[0.254895,-0.0805344,0.421888, 1.57, 0.00, 0.00], a=0.01, v=0.1, r=0.01)
movel(p[0.254613,-0.0804604,0.420117, 1.57, 0.00, 0.00], a=0.01, v=0.1, r=0.01)
movel(p[0.255001,-0.0806717,0.417882, 1.57, 0.00, 0.00], a=0.01, v=0.1, r=0.01)
movel(p[0.255076,-0.0803594,0.415058, 1.57, 0.00, 0.00], a=0.01, v=0.1, r=0.01)
movel(p[0.255264,-0.0791163,0.40976, 1.57, 0.00, 0.00], a=0.01, v=0.1, r=0.01)
movel(p[0.254986,-0.0790187,0.408097, 1.57, 0.00, 0.00], a=0.01, v=0.1, r=0.01)
movel(p[0.255187,-0.0791462,0.403468, 1.57, 0.00, 0.00], a=0.01, v=0.1, r=0.01)
movel(p[0.255339,-0.079452,0.399794, 1.57, 0.00, 0.00], a=0.01, v=0.1, r=0.01)
movel(p[0.255235,-0.0789797,0.396025, 1.57, 0.00, 0.00], a=0.01, v=0.1, r=0.01)
movel(p[0.254822,-0.0789373,0.392852, 1.57, 0.00, 0.00], a=0.01, v=0.1, r=0.01)
movel(p[0.254716,-0.0785639,0.388796, 1.57, 0.00, 0.00], a=0.01, v=0.1, r=0.01)
movel(p[0.255703,-0.0783719,0.385568, 1.57, 0.00, 0.00], a=0.01, v=0.1, r=0.01)
movel(p[0.256512,-0.0786069,0.381368, 1.57, 0.00, 0.00], a=0.01, v=0.1, r=0.01)
movel(p[0.257278,-0.0790848,0.378962, 1.57, 0.00, 0.00], a=0.01, v=0.1, r=0.01)
movel(p[0.256943,-0.0791279,0.376003, 1.57, 0.00, 0.00], a=0.01, v=0.1, r=0.01)
movel(p[0.257416,-0.0793121,0.372816, 1.57, 0.00, 0.00], a=0.01, v=0.1, r=0.01)
movel(p[0.257265,-0.0798434,0.369665, 1.57, 0.00, 0.00], a=0.01, v=0.1, r=0.01)
movel(p[0.257595,-0.0806207,0.36735, 1.57, 0.00, 0.00], a=0.01, v=0.1, r=0.01)
movel(p[0.257178,-0.0807348,0.364622, 1.57, 0.00, 0.00], a=0.01, v=0.1, r=0.01)
movel(p[0.257952,-0.0813682,0.362278, 1.57, 0.00, 0.00], a=0.01, v=0.1, r=0.01)
movel(p[0.25819,-0.0819266,0.359936, 1.57, 0.00, 0.00], a=0.01, v=0.1, r=0.01)
movel(p[0.258471,-0.0826039,0.358484, 1.57, 0.00, 0.00], a=0.01, v=0.1, r=0.01)
movel(p[0.257886,-0.0828031,0.355163, 1.57, 0.00, 0.00], a=0.01, v=0.1, r=0.01)
movel(p[0.257747,-0.0829246,0.353752, 1.57, 0.00, 0.00], a=0.01, v=0.1, r=0.01)
movel(p[0.257738,-0.0834895,0.35193, 1.57, 0.00, 0.00], a=0.01, v=0.1, r=0.01)
movel(p[0.257938,-0.0835337,0.351693, 1.57, 0.00, 0.00], a=0.01, v=0.1, r=0.01)
movel(p[0.258254,-0.0837132,0.349776, 1.57, 0.00, 0.00], a=0.01, v=0.1, r=0.01)
movel(p[0.257927,-0.0838411,0.347718, 1.57, 0.00, 0.00], a=0.01, v=0.1, r=0.01)
movel(p[0.258122,-0.0842659,0.34708, 1.57, 0.00, 0.00], a=0.01, v=0.1, r=0.01)
movel(p[0.258284,-0.0846429,0.345316, 1.57, 0.00, 0.00], a=0.01, v=0.1, r=0.01)
movel(p[0.258144,-0.084707,0.34444, 1.57, 0.00, 0.00], a=0.01, v=0.1, r=0.01)
movel(p[0.25761,-0.0846773,0.342028, 1.57, 0.00, 0.00], a=0.01, v=0.1, r=0.01)
movel(p[0.257588,-0.0848678,0.340448, 1.57, 0.00, 0.00], a=0.01, v=0.1, r=0.01)
movel(p[0.258041,-0.0847982,0.339086, 1.57, 0.00, 0.00], a=0.01, v=0.1, r=0.01)
movel(p[0.257605,-0.0848004,0.336979, 1.57, 0.00, 0.00], a=0.01, v=0.1, r=0.01)
movel(p[0.2583,-0.0848436,0.3352, 1.57, 0.00, 0.00], a=0.01, v=0.1, r=0.01)
movel(p[0.258179,-0.0847294,0.332526, 1.57, 0.00, 0.00], a=0.01, v=0.1, r=0.01)
movel(p[0.258975,-0.0847205,0.330947, 1.57, 0.00, 0.00], a=0.01, v=0.1, r=0.01)
movel(p[0.2587,-0.0846562,0.328986, 1.57, 0.00, 0.00], a=0.01, v=0.1, r=0.01)
movel(p[0.259041,-0.0846456,0.327245, 1.57, 0.00, 0.00], a=0.01, v=0.1, r=0.01)
movel(p[0.258637,-0.0851748,0.324412, 1.57, 0.00, 0.00], a=0.01, v=0.1, r=0.01)
movel(p[0.258701,-0.0857074,0.322745, 1.57, 0.00, 0.00], a=0.01, v=0.1, r=0.01)
movel(p[0.258427,-0.0855265,0.320631, 1.57, 0.00, 0.00], a=0.01, v=0.1, r=0.01)
movel(p[0.258187,-0.0855044,0.319433, 1.57, 0.00, 0.00], a=0.01, v=0.1, r=0.01)
movel(p[0.257797,-0.0848874,0.317737, 1.57, 0.00, 0.00], a=0.01, v=0.1, r=0.01)
movel(p[0.257629,-0.084254,0.314989, 1.57, 0.00, 0.00], a=0.01, v=0.1, r=0.01)
movel(p[0.257531,-0.0843963,0.312521, 1.57, 0.00, 0.00], a=0.01, v=0.1, r=0.01)
movel(p[0.257338,-0.0843461,0.311456, 1.57, 0.00, 0.00], a=0.01, v=0.1, r=0.01)
movel(p[0.257542,-0.083776,0.30974, 1.57, 0.00, 0.00], a=0.01, v=0.1, r=0.01)
movel(p[0.257829,-0.0841354,0.308262, 1.57, 0.00, 0.00], a=0.01, v=0.1, r=0.01)
movel(p[0.257636,-0.0841094,0.305939, 1.57, 0.00, 0.00], a=0.01, v=0.1, r=0.01)
movel(p[0.257539,-0.0840748,0.305472, 1.57, 0.00, 0.00], a=0.01, v=0.1, r=0.01)
movel(p[0.257155,-0.0838726,0.303471, 1.57, 0.00, 0.00], a=0.01, v=0.1, r=0.01)
movel(p[0.257149,-0.0836278,0.302154, 1.57, 0.00, 0.00], a=0.01, v=0.1, r=0.01)
movel(p[0.257865,-0.0836269,0.301025, 1.57, 0.00, 0.00], a=0.01, v=0.1, r=0.01)
movel(p[0.257402,-0.0833283,0.299439, 1.57, 0.00, 0.00], a=0.01, v=0.1, r=0.01)
movel(p[0.257387,-0.0831843,0.297663, 1.57, 0.00, 0.00], a=0.01, v=0.1, r=0.01)
movel(p[0.257251,-0.0833865,0.297303, 1.57, 0.00, 0.00], a=0.01, v=0.1, r=0.01)
movel(p[0.256902,-0.0831417,0.296693, 1.57, 0.00, 0.00], a=0.01, v=0.1, r=0.01)
movel(p[0.256654,-0.0830148,0.295901, 1.57, 0.00, 0.00], a=0.01, v=0.1, r=0.01)
movel(p[0.256579,-0.0824596,0.295982, 1.57, 0.00, 0.00], a=0.01, v=0.1, r=0.01)
movel(p[0.257144,-0.0826586,0.296658, 1.57, 0.00, 0.00], a=0.01, v=0.1, r=0.01)
movel(p[0.257462,-0.0825481,0.296937, 1.57, 0.00, 0.00], a=0.01, v=0.1, r=0.01)
movel(p[0.25719,-0.0822864,0.296073, 1.57, 0.00, 0.00], a=0.01, v=0.1, r=0.01)
movel(p[0.257735,-0.0815638,0.29685, 1.57, 0.00, 0.00], a=0.01, v=0.1, r=0.01)
movel(p[0.25805,-0.0808306,0.297121, 1.57, 0.00, 0.00], a=0.01, v=0.1, r=0.01)
movel(p[0.258246,-0.0804211,0.297858, 1.57, 0.00, 0.00], a=0.01, v=0.1, r=0.01)
movel(p[0.258161,-0.0801313,0.297489, 1.57, 0.00, 0.00], a=0.01, v=0.1, r=0.01)
movel(p[0.258486,-0.0795286,0.298346, 1.57, 0.00, 0.00], a=0.01, v=0.1, r=0.01)
movel(p[0.258986,-0.0783178,0.299043, 1.57, 0.00, 0.00], a=0.01, v=0.1, r=0.01)
movel(p[0.259267,-0.0769629,0.299365, 1.57, 0.00, 0.00], a=0.01, v=0.1, r=0.01)
movel(p[0.259275,-0.0765631,0.299174, 1.57, 0.00, 0.00], a=0.01, v=0.1, r=0.01)
movel(p[0.259767,-0.0758351,0.299687, 1.57, 0.00, 0.00], a=0.01, v=0.1, r=0.01)
movel(p[0.260199,-0.0743659,0.300081, 1.57, 0.00, 0.00], a=0.01, v=0.1, r=0.01)
movel(p[0.260859,-0.0722302,0.300515, 1.57, 0.00, 0.00], a=0.01, v=0.1, r=0.01)
movel(p[0.260951,-0.0717724,0.300443, 1.57, 0.00, 0.00], a=0.01, v=0.1, r=0.01)
movel(p[0.262312,-0.0694598,0.300204, 1.57, 0.00, 0.00], a=0.01, v=0.1, r=0.01)
movel(p[0.263071,-0.0684281,0.300551, 1.57, 0.00, 0.00], a=0.01, v=0.1, r=0.01)
movel(p[0.264027,-0.0666691,0.300401, 1.57, 0.00, 0.00], a=0.01, v=0.1, r=0.01)
movel(p[0.264485,-0.0649993,0.300185, 1.57, 0.00, 0.00], a=0.01, v=0.1, r=0.01)
movel(p[0.264857,-0.0639713,0.300129, 1.57, 0.00, 0.00], a=0.01, v=0.1, r=0.01)
movel(p[0.265623,-0.0613381,0.300005, 1.57, 0.00, 0.00], a=0.01, v=0.1, r=0.01)
movel(p[0.265986,-0.0595088,0.300235, 1.57, 0.00, 0.00], a=0.01, v=0.1, r=0.01)
movel(p[0.267107,-0.0574793,0.300305, 1.57, 0.00, 0.00], a=0.01, v=0.1, r=0.01)
movel(p[0.267725,-0.0555845,0.30036, 1.57, 0.00, 0.00], a=0.01, v=0.1, r=0.01)
movel(p[0.268177,-0.0530785,0.300305, 1.57, 0.00, 0.00], a=0.01, v=0.1, r=0.01)
movel(p[0.269023,-0.048792,0.300055, 1.57, 0.00, 0.00], a=0.01, v=0.1, r=0.01)
movel(p[0.270719,-0.0443783,0.299931, 1.57, 0.00, 0.00], a=0.01, v=0.1, r=0.01)
movel(p[0.271089,-0.0433624,0.299953, 1.57, 0.00, 0.00], a=0.01, v=0.1, r=0.01)
movel(p[0.272607,-0.0383231,0.30008, 1.57, 0.00, 0.00], a=0.01, v=0.1, r=0.01)
movel(p[0.273756,-0.0340251,0.300615, 1.57, 0.00, 0.00], a=0.01, v=0.1, r=0.01)
movel(p[0.274444,-0.0302024,0.301149, 1.57, 0.00, 0.00], a=0.01, v=0.1, r=0.01)
movel(p[0.275079,-0.028313,0.301314, 1.57, 0.00, 0.00], a=0.01, v=0.1, r=0.01)
movel(p[0.275226,-0.0251292,0.302216, 1.57, 0.00, 0.00], a=0.01, v=0.1, r=0.01)
movel(p[0.276092,-0.0204625,0.302916, 1.57, 0.00, 0.00], a=0.01, v=0.1, r=0.01)
movel(p[0.276947,-0.0156973,0.303659, 1.57, 0.00, 0.00], a=0.01, v=0.1, r=0.01)
movel(p[0.278058,-0.0125826,0.303869, 1.57, 0.00, 0.00], a=0.01, v=0.1, r=0.01)
movel(p[0.27921,-0.007718,0.304891, 1.57, 0.00, 0.00], a=0.01, v=0.1, r=0.01)
movel(p[0.278709,-0.0056667,0.305826, 1.57, 0.00, 0.00], a=0.01, v=0.1, r=0.01)
movel(p[0.279299,-0.00263722,0.306185, 1.57, 0.00, 0.00], a=0.01, v=0.1, r=0.01)
movel(p[0.279967,-0.000560965,0.306422, 1.57, 0.00, 0.00], a=0.01, v=0.1, r=0.01)
movel(p[0.279907,0.00366042,0.306636, 1.57, 0.00, 0.00], a=0.01, v=0.1, r=0.01)
movel(p[0.279654,0.00729602,0.307091, 1.57, 0.00, 0.00], a=0.01, v=0.1, r=0.01)
movel(p[0.279393,0.0111765,0.307348, 1.57, 0.00, 0.00], a=0.01, v=0.1, r=0.01)
movel(p[0.280154,0.0139162,0.307549, 1.57, 0.00, 0.00], a=0.01, v=0.1, r=0.01)
movel(p[0.280786,0.0171319,0.308251, 1.57, 0.00, 0.00], a=0.01, v=0.1, r=0.01)
movel(p[0.281145,0.0212568,0.308416, 1.57, 0.00, 0.00], a=0.01, v=0.1, r=0.01)
movel(p[0.281956,0.0250801,0.308403, 1.57, 0.00, 0.00], a=0.01, v=0.1, r=0.01)
movel(p[0.282337,0.0265646,0.308576, 1.57, 0.00, 0.00], a=0.01, v=0.1, r=0.01)
movel(p[0.282387,0.0300318,0.308471, 1.57, 0.00, 0.00], a=0.01, v=0.1, r=0.01)
movel(p[0.282264,0.0341774,0.308733, 1.57, 0.00, 0.00], a=0.01, v=0.1, r=0.01)
movel(p[0.282213,0.035967,0.30863, 1.57, 0.00, 0.00], a=0.01, v=0.1, r=0.01)
movel(p[0.282867,0.0387972,0.308793, 1.57, 0.00, 0.00], a=0.01, v=0.1, r=0.01)
movel(p[0.282484,0.0420391,0.308785, 1.57, 0.00, 0.00], a=0.01, v=0.1, r=0.01)
movel(p[0.282911,0.0455729,0.308976, 1.57, 0.00, 0.00], a=0.01, v=0.1, r=0.01)
movel(p[0.283007,0.0475549,0.309148, 1.57, 0.00, 0.00], a=0.01, v=0.1, r=0.01)
movel(p[0.283207,0.0514337,0.309365, 1.57, 0.00, 0.00], a=0.01, v=0.1, r=0.01)
movel(p[0.283542,0.0527189,0.309393, 1.57, 0.00, 0.00], a=0.01, v=0.1, r=0.01)
movel(p[0.283106,0.0561977,0.30868, 1.57, 0.00, 0.00], a=0.01, v=0.1, r=0.01)
movel(p[0.282943,0.0602984,0.308597, 1.57, 0.00, 0.00], a=0.01, v=0.1, r=0.01)
movel(p[0.283321,0.0636292,0.30776, 1.57, 0.00, 0.00], a=0.01, v=0.1, r=0.01)
movel(p[0.283789,0.0656445,0.307699, 1.57, 0.00, 0.00], a=0.01, v=0.1, r=0.01)
movel(p[0.28291,0.0681761,0.307372, 1.57, 0.00, 0.00], a=0.01, v=0.1, r=0.01)
movel(p[0.282573,0.0699742,0.307018, 1.57, 0.00, 0.00], a=0.01, v=0.1, r=0.01)
movel(p[0.282537,0.0749798,0.305977, 1.57, 0.00, 0.00], a=0.01, v=0.1, r=0.01)
movel(p[0.282757,0.0768712,0.305901, 1.57, 0.00, 0.00], a=0.01, v=0.1, r=0.01)
movel(p[0.282881,0.0804526,0.305282, 1.57, 0.00, 0.00], a=0.01, v=0.1, r=0.01)
movel(p[0.282559,0.0829998,0.304376, 1.57, 0.00, 0.00], a=0.01, v=0.1, r=0.01)
movel(p[0.282794,0.0873766,0.303508, 1.57, 0.00, 0.00], a=0.01, v=0.1, r=0.01)
movel(p[0.283103,0.0900079,0.30336, 1.57, 0.00, 0.00], a=0.01, v=0.1, r=0.01)
movel(p[0.283425,0.0940003,0.303018, 1.57, 0.00, 0.00], a=0.01, v=0.1, r=0.01)
movel(p[0.283594,0.0969728,0.303109, 1.57, 0.00, 0.00], a=0.01, v=0.1, r=0.01)
movel(p[0.28366,0.100583,0.302761, 1.57, 0.00, 0.00], a=0.01, v=0.1, r=0.01)
movel(p[0.283803,0.101924,0.302696, 1.57, 0.00, 0.00], a=0.01, v=0.1, r=0.01)
movel(p[0.28372,0.105378,0.302241, 1.57, 0.00, 0.00], a=0.01, v=0.1, r=0.01)
movel(p[0.283972,0.107986,0.301236, 1.57, 0.00, 0.00], a=0.01, v=0.1, r=0.01)
movel(p[0.284278,0.111884,0.300281, 1.57, 0.00, 0.00], a=0.01, v=0.1, r=0.01)
movel(p[0.284474,0.114872,0.300165, 1.57, 0.00, 0.00], a=0.01, v=0.1, r=0.01)
movel(p[0.285235,0.118856,0.299871, 1.57, 0.00, 0.00], a=0.01, v=0.1, r=0.01)
movel(p[0.285072,0.121578,0.29922, 1.57, 0.00, 0.00], a=0.01, v=0.1, r=0.01)
movel(p[0.284646,0.124315,0.298513, 1.57, 0.00, 0.00], a=0.01, v=0.1, r=0.01)
movel(p[0.284746,0.12634,0.298473, 1.57, 0.00, 0.00], a=0.01, v=0.1, r=0.01)
movel(p[0.284431,0.12938,0.297274, 1.57, 0.00, 0.00], a=0.01, v=0.1, r=0.01)
movel(p[0.284347,0.132862,0.296472, 1.57, 0.00, 0.00], a=0.01, v=0.1, r=0.01)
movel(p[0.284386,0.135915,0.295882, 1.57, 0.00, 0.00], a=0.01, v=0.1, r=0.01)
movel(p[0.284097,0.138825,0.29514, 1.57, 0.00, 0.00], a=0.01, v=0.1, r=0.01)
movel(p[0.284203,0.140797,0.295016, 1.57, 0.00, 0.00], a=0.01, v=0.1, r=0.01)
movel(p[0.284036,0.144535,0.294869, 1.57, 0.00, 0.00], a=0.01, v=0.1, r=0.01)
movel(p[0.283518,0.145591,0.294837, 1.57, 0.00, 0.00], a=0.01, v=0.1, r=0.01)
movel(p[0.283261,0.147703,0.294867, 1.57, 0.00, 0.00], a=0.01, v=0.1, r=0.01)
movel(p[0.283365,0.149952,0.294717, 1.57, 0.00, 0.00], a=0.01, v=0.1, r=0.01)
movel(p[0.283442,0.151661,0.294228, 1.57, 0.00, 0.00], a=0.01, v=0.1, r=0.01)
movel(p[0.283114,0.153555,0.295381, 1.57, 0.00, 0.00], a=0.01, v=0.1, r=0.01)
movel(p[0.282518,0.155505,0.295732, 1.57, 0.00, 0.00], a=0.01, v=0.1, r=0.01)
movel(p[0.282654,0.156581,0.295585, 1.57, 0.00, 0.00], a=0.01, v=0.1, r=0.01)
movel(p[0.282125,0.15756,0.29594, 1.57, 0.00, 0.00], a=0.01, v=0.1, r=0.01)
movel(p[0.281629,0.158298,0.296641, 1.57, 0.00, 0.00], a=0.01, v=0.1, r=0.01)
movel(p[0.281185,0.158405,0.297282, 1.57, 0.00, 0.00], a=0.01, v=0.1, r=0.01)
movel(p[0.281238,0.159695,0.29728, 1.57, 0.00, 0.00], a=0.01, v=0.1, r=0.01)
movel(p[0.281462,0.159378,0.297907, 1.57, 0.00, 0.00], a=0.01, v=0.1, r=0.01)
movel(p[0.281837,0.160801,0.298623, 1.57, 0.00, 0.00], a=0.01, v=0.1, r=0.01)
movel(p[0.282142,0.160552,0.299723, 1.57, 0.00, 0.00], a=0.01, v=0.1, r=0.01)
movel(p[0.282276,0.161832,0.300016, 1.57, 0.00, 0.00], a=0.01, v=0.1, r=0.01)
movel(p[0.282569,0.160994,0.300581, 1.57, 0.00, 0.00], a=0.01, v=0.1, r=0.01)
movel(p[0.282345,0.161107,0.301165, 1.57, 0.00, 0.00], a=0.01, v=0.1, r=0.01)
movel(p[0.282144,0.161002,0.302381, 1.57, 0.00, 0.00], a=0.01, v=0.1, r=0.01)
movel(p[0.281964,0.161114,0.303371, 1.57, 0.00, 0.00], a=0.01, v=0.1, r=0.01)
movel(p[0.282009,0.161793,0.303771, 1.57, 0.00, 0.00], a=0.01, v=0.1, r=0.01)
movel(p[0.282197,0.161737,0.30476, 1.57, 0.00, 0.00], a=0.01, v=0.1, r=0.01)
movel(p[0.282992,0.161466,0.305968, 1.57, 0.00, 0.00], a=0.01, v=0.1, r=0.01)
movel(p[0.283087,0.162106,0.306492, 1.57, 0.00, 0.00], a=0.01, v=0.1, r=0.01)
movel(p[0.283333,0.161633,0.308729, 1.57, 0.00, 0.00], a=0.01, v=0.1, r=0.01)
movel(p[0.28316,0.162022,0.311273, 1.57, 0.00, 0.00], a=0.01, v=0.1, r=0.01)
movel(p[0.283108,0.162513,0.314474, 1.57, 0.00, 0.00], a=0.01, v=0.1, r=0.01)
movel(p[0.283221,0.162861,0.315011, 1.57, 0.00, 0.00], a=0.01, v=0.1, r=0.01)
movel(p[0.282297,0.162745,0.318071, 1.57, 0.00, 0.00], a=0.01, v=0.1, r=0.01)
movel(p[0.281639,0.163434,0.321424, 1.57, 0.00, 0.00], a=0.01, v=0.1, r=0.01)
movel(p[0.281712,0.162961,0.324978, 1.57, 0.00, 0.00], a=0.01, v=0.1, r=0.01)
movel(p[0.281929,0.163686,0.326746, 1.57, 0.00, 0.00], a=0.01, v=0.1, r=0.01)
movel(p[0.281928,0.163273,0.332077, 1.57, 0.00, 0.00], a=0.01, v=0.1, r=0.01)
movel(p[0.281416,0.164013,0.33665, 1.57, 0.00, 0.00], a=0.01, v=0.1, r=0.01)
movel(p[0.2818,0.163597,0.339432, 1.57, 0.00, 0.00], a=0.01, v=0.1, r=0.01)
movel(p[0.28234,0.163745,0.34501, 1.57, 0.00, 0.00], a=0.01, v=0.1, r=0.01)
movel(p[0.282526,0.16427,0.34734, 1.57, 0.00, 0.00], a=0.01, v=0.1, r=0.01)
movel(p[0.283113,0.16397,0.35162, 1.57, 0.00, 0.00], a=0.01, v=0.1, r=0.01)
movel(p[0.283152,0.164161,0.357832, 1.57, 0.00, 0.00], a=0.01, v=0.1, r=0.01)
movel(p[0.283196,0.164234,0.362312, 1.57, 0.00, 0.00], a=0.01, v=0.1, r=0.01)
movel(p[0.283518,0.164718,0.36515, 1.57, 0.00, 0.00], a=0.01, v=0.1, r=0.01)
movel(p[0.283938,0.164675,0.369543, 1.57, 0.00, 0.00], a=0.01, v=0.1, r=0.01)
movel(p[0.28407,0.164497,0.375691, 1.57, 0.00, 0.00], a=0.01, v=0.1, r=0.01)
movel(p[0.284044,0.163339,0.379555, 1.57, 0.00, 0.00], a=0.01, v=0.1, r=0.01)
movel(p[0.284408,0.163932,0.383834, 1.57, 0.00, 0.00], a=0.01, v=0.1, r=0.01)
movel(p[0.284063,0.163456,0.389987, 1.57, 0.00, 0.00], a=0.01, v=0.1, r=0.01)
movel(p[0.284032,0.162842,0.39363, 1.57, 0.00, 0.00], a=0.01, v=0.1, r=0.01)
movel(p[0.283719,0.162933,0.399558, 1.57, 0.00, 0.00], a=0.01, v=0.1, r=0.01)
movel(p[0.284109,0.163341,0.403993, 1.57, 0.00, 0.00], a=0.01, v=0.1, r=0.01)
movel(p[0.283395,0.163573,0.409223, 1.57, 0.00, 0.00], a=0.01, v=0.1, r=0.01)
movel(p[0.283035,0.163127,0.413396, 1.57, 0.00, 0.00], a=0.01, v=0.1, r=0.01)
movel(p[0.282577,0.162977,0.418056, 1.57, 0.00, 0.00], a=0.01, v=0.1, r=0.01)
movel(p[0.28281,0.163205,0.420715, 1.57, 0.00, 0.00], a=0.01, v=0.1, r=0.01)
movel(p[0.282611,0.163408,0.424868, 1.57, 0.00, 0.00], a=0.01, v=0.1, r=0.01)
movel(p[0.282284,0.16318,0.431125, 1.57, 0.00, 0.00], a=0.01, v=0.1, r=0.01)
movel(p[0.282094,0.162928,0.434897, 1.57, 0.00, 0.00], a=0.01, v=0.1, r=0.01)
movel(p[0.282243,0.163112,0.437604, 1.57, 0.00, 0.00], a=0.01, v=0.1, r=0.01)
movel(p[0.282128,0.16315,0.442123, 1.57, 0.00, 0.00], a=0.01, v=0.1, r=0.01)
movel(p[0.282064,0.163407,0.445735, 1.57, 0.00, 0.00], a=0.01, v=0.1, r=0.01)
movel(p[0.282722,0.163114,0.450255, 1.57, 0.00, 0.00], a=0.01, v=0.1, r=0.01)
movel(p[0.283022,0.163321,0.453132, 1.57, 0.00, 0.00], a=0.01, v=0.1, r=0.01)
movel(p[0.282554,0.162708,0.455209, 1.57, 0.00, 0.00], a=0.01, v=0.1, r=0.01)
movel(p[0.282903,0.163109,0.4592, 1.57, 0.00, 0.00], a=0.01, v=0.1, r=0.01)
movel(p[0.282806,0.162632,0.462511, 1.57, 0.00, 0.00], a=0.01, v=0.1, r=0.01)
movel(p[0.283005,0.162834,0.465287, 1.57, 0.00, 0.00], a=0.01, v=0.1, r=0.01)
movel(p[0.283009,0.162593,0.468123, 1.57, 0.00, 0.00], a=0.01, v=0.1, r=0.01)
movel(p[0.282659,0.162518,0.469852, 1.57, 0.00, 0.00], a=0.01, v=0.1, r=0.01)
movel(p[0.282038,0.163267,0.473847, 1.57, 0.00, 0.00], a=0.01, v=0.1, r=0.01)
movel(p[0.281354,0.164168,0.47775, 1.57, 0.00, 0.00], a=0.01, v=0.1, r=0.01)
movel(p[0.281494,0.164497,0.480911, 1.57, 0.00, 0.00], a=0.01, v=0.1, r=0.01)
movel(p[0.280656,0.164883,0.484027, 1.57, 0.00, 0.00], a=0.01, v=0.1, r=0.01)
movel(p[0.280079,0.165387,0.488303, 1.57, 0.00, 0.00], a=0.01, v=0.1, r=0.01)
movel(p[0.279238,0.166573,0.491343, 1.57, 0.00, 0.00], a=0.01, v=0.1, r=0.01)
movel(p[0.279333,0.166826,0.49299, 1.57, 0.00, 0.00], a=0.01, v=0.1, r=0.01)
movel(p[0.277928,0.167918,0.496762, 1.57, 0.00, 0.00], a=0.01, v=0.1, r=0.01)
movel(p[0.277003,0.168832,0.500876, 1.57, 0.00, 0.00], a=0.01, v=0.1, r=0.01)
movel(p[0.276299,0.169491,0.503747, 1.57, 0.00, 0.00], a=0.01, v=0.1, r=0.01)
movel(p[0.276185,0.170021,0.506459, 1.57, 0.00, 0.00], a=0.01, v=0.1, r=0.01)
movel(p[0.275844,0.170405,0.510312, 1.57, 0.00, 0.00], a=0.01, v=0.1, r=0.01)
movel(p[0.275494,0.170566,0.5133, 1.57, 0.00, 0.00], a=0.01, v=0.1, r=0.01)
movel(p[0.274702,0.171046,0.515124, 1.57, 0.00, 0.00], a=0.01, v=0.1, r=0.01)
movel(p[0.274565,0.171343,0.516747, 1.57, 0.00, 0.00], a=0.01, v=0.1, r=0.01)
movel(p[0.273453,0.171894,0.519376, 1.57, 0.00, 0.00], a=0.01, v=0.1, r=0.01)
movel(p[0.272527,0.172281,0.522392, 1.57, 0.00, 0.00], a=0.01, v=0.1, r=0.01)
movel(p[0.271629,0.172229,0.524938, 1.57, 0.00, 0.00], a=0.01, v=0.1, r=0.01)
movel(p[0.271422,0.172612,0.526975, 1.57, 0.00, 0.00], a=0.01, v=0.1, r=0.01)
movel(p[0.269728,0.172358,0.530074, 1.57, 0.00, 0.00], a=0.01, v=0.1, r=0.01)
movel(p[0.268474,0.171488,0.531637, 1.57, 0.00, 0.00], a=0.01, v=0.1, r=0.01)
movel(p[0.266868,0.17071,0.534538, 1.57, 0.00, 0.00], a=0.01, v=0.1, r=0.01)
movel(p[0.26651,0.170976,0.536507, 1.57, 0.00, 0.00], a=0.01, v=0.1, r=0.01)
movel(p[0.265961,0.170599,0.537456, 1.57, 0.00, 0.00], a=0.01, v=0.1, r=0.01)
movel(p[0.264783,0.170064,0.539228, 1.57, 0.00, 0.00], a=0.01, v=0.1, r=0.01)
movel(p[0.264104,0.169224,0.540401, 1.57, 0.00, 0.00], a=0.01, v=0.1, r=0.01)
movel(p[0.263588,0.168189,0.541733, 1.57, 0.00, 0.00], a=0.01, v=0.1, r=0.01)
movel(p[0.263258,0.168173,0.543181, 1.57, 0.00, 0.00], a=0.01, v=0.1, r=0.01)
movel(p[0.263283,0.167103,0.543352, 1.57, 0.00, 0.00], a=0.01, v=0.1, r=0.01)
movel(p[0.263524,0.165742,0.542978, 1.57, 0.00, 0.00], a=0.01, v=0.1, r=0.01)
movel(p[0.264052,0.163829,0.543228, 1.57, 0.00, 0.00], a=0.01, v=0.1, r=0.01)
movel(p[0.263589,0.163444,0.544925, 1.57, 0.00, 0.00], a=0.01, v=0.1, r=0.01)
movel(p[0.263921,0.161611,0.544566, 1.57, 0.00, 0.00], a=0.01, v=0.1, r=0.01)
movel(p[0.263546,0.159821,0.544858, 1.57, 0.00, 0.00], a=0.01, v=0.1, r=0.01)
movel(p[0.263957,0.158108,0.544352, 1.57, 0.00, 0.00], a=0.01, v=0.1, r=0.01)
movel(p[0.263658,0.15754,0.545136, 1.57, 0.00, 0.00], a=0.01, v=0.1, r=0.01)
movel(p[0.263555,0.155966,0.545288, 1.57, 0.00, 0.00], a=0.01, v=0.1, r=0.01)
movel(p[0.263683,0.154675,0.545135, 1.57, 0.00, 0.00], a=0.01, v=0.1, r=0.01)
movel(p[0.263845,0.153508,0.545277, 1.57, 0.00, 0.00], a=0.01, v=0.1, r=0.01)
movel(p[0.263641,0.152949,0.545762, 1.57, 0.00, 0.00], a=0.01, v=0.1, r=0.01)
movel(p[0.263597,0.152378,0.545694, 1.57, 0.00, 0.00], a=0.01, v=0.1, r=0.01)
movel(p[0.263181,0.151911,0.545038, 1.57, 0.00, 0.00], a=0.01, v=0.1, r=0.01)
movel(p[0.262941,0.151207,0.54549, 1.57, 0.00, 0.00], a=0.01, v=0.1, r=0.01)
movel(p[0.261802,0.151376,0.54525, 1.57, 0.00, 0.00], a=0.01, v=0.1, r=0.01)
movel(p[0.26125,0.151142,0.544837, 1.57, 0.00, 0.00], a=0.01, v=0.1, r=0.01)
movel(p[0.261092,0.150815,0.545017, 1.57, 0.00, 0.00], a=0.01, v=0.1, r=0.01)
movel(p[0.260686,0.150975,0.544685, 1.57, 0.00, 0.00], a=0.01, v=0.1, r=0.01)
movel(p[0.260511,0.150661,0.544862, 1.57, 0.00, 0.00], a=0.01, v=0.1, r=0.01)
movel(p[0.260114,0.150417,0.54465, 1.57, 0.00, 0.00], a=0.01, v=0.1, r=0.01)
movel(p[0.259697,0.150933,0.544131, 1.57, 0.00, 0.00], a=0.01, v=0.1, r=0.01)
movel(p[0.259234,0.151083,0.544137, 1.57, 0.00, 0.00], a=0.01, v=0.1, r=0.01)
movel(p[0.259094,0.150824,0.544256, 1.57, 0.00, 0.00], a=0.01, v=0.1, r=0.01)
movel(p[0.258218,0.151404,0.544325, 1.57, 0.00, 0.00], a=0.01, v=0.1, r=0.01)
movel(p[0.257449,0.152075,0.54429, 1.57, 0.00, 0.00], a=0.01, v=0.1, r=0.01)
movel(p[0.256896,0.152569,0.544347, 1.57, 0.00, 0.00], a=0.01, v=0.1, r=0.01)
movel(p[0.256763,0.152232,0.544473, 1.57, 0.00, 0.00], a=0.01, v=0.1, r=0.01)
movel(p[0.255896,0.152536,0.544817, 1.57, 0.00, 0.00], a=0.01, v=0.1, r=0.01)
movel(p[0.255881,0.152619,0.544125, 1.57, 0.00, 0.00], a=0.01, v=0.1, r=0.01)
movel(p[0.25639,0.151497,0.543075, 1.57, 0.00, 0.00], a=0.01, v=0.1, r=0.01)
movel(p[0.2563,0.150928,0.54325, 1.57, 0.00, 0.00], a=0.01, v=0.1, r=0.01)
movel(p[0.256649,0.151118,0.542941, 1.57, 0.00, 0.00], a=0.01, v=0.1, r=0.01)
movel(p[0.256755,0.15148,0.542338, 1.57, 0.00, 0.00], a=0.01, v=0.1, r=0.01)
movel(p[0.256931,0.152063,0.541997, 1.57, 0.00, 0.00], a=0.01, v=0.1, r=0.01)
movel(p[0.256905,0.151923,0.542107, 1.57, 0.00, 0.00], a=0.01, v=0.1, r=0.01)
movel(p[0.257321,0.152387,0.541914, 1.57, 0.00, 0.00], a=0.01, v=0.1, r=0.01)
movel(p[0.257254,0.153569,0.542499, 1.57, 0.00, 0.00], a=0.01, v=0.1, r=0.01)
movel(p[0.257293,0.154086,0.542261, 1.57, 0.00, 0.00], a=0.01, v=0.1, r=0.01)
movel(p[0.257283,0.153802,0.542327, 1.57, 0.00, 0.00], a=0.01, v=0.1, r=0.01)
movel(p[0.257198,0.154218,0.542415, 1.57, 0.00, 0.00], a=0.01, v=0.1, r=0.01)
movel(p[0.257112,0.15471,0.542037, 1.57, 0.00, 0.00], a=0.01, v=0.1, r=0.01)
movel(p[0.256988,0.155081,0.541941, 1.57, 0.00, 0.00], a=0.01, v=0.1, r=0.01)
movel(p[0.256978,0.155002,0.541956, 1.57, 0.00, 0.00], a=0.01, v=0.1, r=0.01)
movel(p[0.2568,0.155163,0.541943, 1.57, 0.00, 0.00], a=0.01, v=0.1, r=0.01)
movel(p[0.256773,0.155462,0.541979, 1.57, 0.00, 0.00], a=0.01, v=0.1, r=0.01)
movel(p[0.256354,0.155788,0.541949, 1.57, 0.00, 0.00], a=0.01, v=0.1, r=0.01)
movel(p[0.256173,0.155918,0.541888, 1.57, 0.00, 0.00], a=0.01, v=0.1, r=0.01)
movel(p[0.256154,0.155833,0.541909, 1.57, 0.00, 0.00], a=0.01, v=0.1, r=0.01)
movel(p[0.256129,0.156058,0.541618, 1.57, 0.00, 0.00], a=0.01, v=0.1, r=0.01)
movel(p[0.255968,0.156118,0.541597, 1.57, 0.00, 0.00], a=0.01, v=0.1, r=0.01)
movel(p[0.255837,0.156099,0.541201, 1.57, 0.00, 0.00], a=0.01, v=0.1, r=0.01)
movel(p[0.255736,0.155968,0.541237, 1.57, 0.00, 0.00], a=0.01, v=0.1, r=0.01)
movel(p[0.25543,0.156119,0.541273, 1.57, 0.00, 0.00], a=0.01, v=0.1, r=0.01)
movel(p[0.255193,0.156259,0.541121, 1.57, 0.00, 0.00], a=0.01, v=0.1, r=0.01)
movel(p[0.255134,0.156186,0.541145, 1.57, 0.00, 0.00], a=0.01, v=0.1, r=0.01)
movel(p[0.254935,0.15629,0.540916, 1.57, 0.00, 0.00], a=0.01, v=0.1, r=0.01)
movel(p[0.254848,0.156414,0.540649, 1.57, 0.00, 0.00], a=0.01, v=0.1, r=0.01)
movel(p[0.254867,0.156451,0.540216, 1.57, 0.00, 0.00], a=0.01, v=0.1, r=0.01)
movel(p[0.254788,0.156577,0.539842, 1.57, 0.00, 0.00], a=0.01, v=0.1, r=0.01)
movel(p[0.254668,0.15649,0.53984, 1.57, 0.00, 0.00], a=0.01, v=0.1, r=0.01)
movel(p[0.254471,0.156694,0.539668, 1.57, 0.00, 0.00], a=0.01, v=0.1, r=0.01)
movel(p[0.254243,0.156975,0.539218, 1.57, 0.00, 0.00], a=0.01, v=0.1, r=0.01)
movel(p[0.254072,0.157191,0.538871, 1.57, 0.00, 0.00], a=0.01, v=0.1, r=0.01)
movel(p[0.253941,0.157135,0.538803, 1.57, 0.00, 0.00], a=0.01, v=0.1, r=0.01)
movel(p[0.25386,0.157395,0.538513, 1.57, 0.00, 0.00], a=0.01, v=0.1, r=0.01)
movel(p[0.2537,0.157368,0.5383, 1.57, 0.00, 0.00], a=0.01, v=0.1, r=0.01)
movel(p[0.253869,0.15701,0.537763, 1.57, 0.00, 0.00], a=0.01, v=0.1, r=0.01)
movel(p[0.253808,0.15699,0.53772, 1.57, 0.00, 0.00], a=0.01, v=0.1, r=0.01)
movel(p[0.254054,0.156859,0.537359, 1.57, 0.00, 0.00], a=0.01, v=0.1, r=0.01)
movel(p[0.254324,0.156549,0.537088, 1.57, 0.00, 0.00], a=0.01, v=0.1, r=0.01)
movel(p[0.254558,0.156088,0.537038, 1.57, 0.00, 0.00], a=0.01, v=0.1, r=0.01)
end
