MODULE MainModule
PROC main()
MoveL [[391.112,639.217,820.583],[0.5,-0.5,0.5,0.5],[1,0,-1,1],[9E+09,9E+09,9E+09,9E+09,9E+09,9E+09]], v200, z50, toolSprayGun;
MoveL [[390.524,639.597,821.413],[0.5,-0.5,0.5,0.5],[1,0,-1,1],[9E+09,9E+09,9E+09,9E+09,9E+09,9E+09]], v200, z50, toolSprayGun;
MoveL [[389.823,640.47,822.018],[0.5,-0.5,0.5,0.5],[1,0,-1,1],[9E+09,9E+09,9E+09,9E+09,9E+09,9E+09]], v200, z50, toolSprayGun;
MoveL [[389.799,640.498,822.212],[0.5,-0.5,0.5,0.5],[1,0,-1,1],[9E+09,9E+09,9E+09,9E+09,9E+09,9E+09]], v200, z50, toolSprayGun;
MoveL [[389.423,640.83,822.799],[0.5,-0.5,0.5,0.5],[1,0,-1,1],[9E+09,9E+09,9E+09,9E+09,9E+09,9E+09]], v200, z50, toolSprayGun;
MoveL [[389.129,641.283,822.963],[0.5,-0.5,0.5,0.5],[1,0,-1,1],[9E+09,9E+09,9E+09,9E+09,9E+09,9E+09]], v200, z50, toolSprayGun;
MoveL [[388.838,641.971,823.035],[0.5,-0.5,0.5,0.5],[1,0,-1,1],[9E+09,9E+09,9E+09,9E+09,9E+09,9E+09]], v200, z50, toolSprayGun;
MoveL [[388.8,642.153,823.344],[0.5,-0.5,0.5,0.5],[1,0,-1,1],[9E+09,9E+09,9E+09,9E+09,9E+09,9E+09]], v200, z50, toolSprayGun;
MoveL [[388.293,642.551,823.318],[0.5,-0.5,0.5,0.5],[1,0,-1,1],[9E+09,9E+09,9E+09,9E+09,9E+09,9E+09]], v200, z50, toolSprayGun;
MoveL [[387.602,642.846,823.106],[0.5,-0.5,0.5,0.5],[1,0,-1,1],[9E+09,9E+09,9E+09,9E+09,9E+09,9E+09]], v200, z50, toolSprayGun;
MoveL [[387.333,643.37,823.235],[0.5,-0.5,0.5,0.5],[1,0,-1,1],[9E+09,9E+09,9E+09,9E+09,9E+09,9E+09]], v200, z50, toolSprayGun;
MoveL [[386.47,643.829,823.388],[0.5,-0.5,0.5,0.5],[1,0,-1,1],[9E+09,9E+09,9E+09,9E+09,9E+09,9E+09]], v200, z50, toolSprayGun;
MoveL [[386.404,643.936,823.491],[0.5,-0.5,0.5,0.5],[1,0,-1,1],[9E+09,9E+09,9E+09,9E+09,9E+09,9E+09]], v200, z50, toolSprayGun;
MoveL [[385.666,644.098,823.755],[0.5,-0.5,0.5,0.5],[1,0,-1,1],[9E+09,9E+09,9E+09,9E+09,9E+09,9E+09]], v200, z50, toolSprayGun;
MoveL [[384.868,644.424,824.006],[0.5,-0.5,0.5,0.5],[1,0,-1,1],[9E+09,9E+09,9E+09,9E+09,9E+09,9E+09]], v200, z50, toolSprayGun;
MoveL [[383.876,644.778,824.307],[0.5,-0.5,0.5,0.5],[1,0,-1,1],[9E+09,9E+09,9E+09,9E+09,9E+09,9E+09]], v200, z50, toolSprayGun;
MoveL [[383.655,645.006,824.483],[0.5,-0.5,0.5,0.5],[1,0,-1,1],[9E+09,9E+09,9E+09,9E+09,9E+09,9E+09]], v200, z50, toolSprayGun;
MoveL [[382.358,645.048,824.789],[0.5,-0.5,0.5,0.5],[1,0,-1,1],[9E+09,9E+09,9E+09,9E+09,9E+09,9E+09]], v200, z50, toolSprayGun;
MoveL [[381.234,645.225,824.92],[0.5,-0.5,0.5,0.5],[1,0,-1,1],[9E+09,9E+09,9E+09,9E+09,9E+09,9E+09]], v200, z50, toolSprayGun;
MoveL [[379.95,645.407,824.975],[0.5,-0.5,0.5,0.5],[1,0,-1,1],[9E+09,9E+09,9E+09,9E+09,9E+09,9E+09]], v200, z50, toolSprayGun;
MoveL [[379.585,645.647,825.124],[0.5,-0.5,0.5,0.5],[1,0,-1,1],[9E+09,9E+09,9E+09,9E+09,9E+09,9E+09]], v200, z50, toolSprayGun;
MoveL [[378.471,645.683,825.112],[0.5,-0.5,0.5,0.5],[1,0,-1,1],[9E+09,9E+09,9E+09,9E+09,9E+09,9E+09]], v200, z50, toolSprayGun;
MoveL [[377.237,645.717,825.196],[0.5,-0.5,0.5,0.5],[1,0,-1,1],[9E+09,9E+09,9E+09,9E+09,9E+09,9E+09]], v200, z50, toolSprayGun;
MoveL [[376,645.83,825.341],[0.5,-0.5,0.5,0.5],[1,0,-1,1],[9E+09,9E+09,9E+09,9E+09,9E+09,9E+09]], v200, z50, toolSprayGun;
MoveL [[375.754,645.949,825.414],[0.5,-0.5,0.5,0.5],[1,0,-1,1],[9E+09,9E+09,9E+09,9E+09,9E+09,9E+09]], v200, z50, toolSprayGun;
MoveL [[373.793,645.94,825.557],[0.5,-0.5,0.5,0.5],[1,0,-1,1],[9E+09,9E+09,9E+09,9E+09,9E+09,9E+09]], v200, z50, toolSprayGun;
MoveL [[371.417,645.737,826.25],[0.5,-0.5,0.5,0.5],[1,0,-1,1],[9E+09,9E+09,9E+09,9E+09,9E+09,9E+09]], v200, z50, toolSprayGun;
MoveL [[369.767,645.366,826.767],[0.5,-0.5,0.5,0.5],[1,0,-1,1],[9E+09,9E+09,9E+09,9E+09,9E+09,9E+09]], v200, z50, toolSprayGun;
MoveL [[368.606,645.662,827.125],[0.5,-0.5,0.5,0.5],[1,0,-1,1],[9E+09,9E+09,9E+09,9E+09,9E+09,9E+09]], v200, z50, toolSprayGun;
MoveL [[367.049,645.551,827.602],[0.5,-0.5,0.5,0.5],[1,0,-1,1],[9E+09,9E+09,9E+09,9E+09,9E+09,9E+09]], v200, z50, toolSprayGun;
MoveL [[365.559,645.149,827.702],[0.5,-0.5,0.5,0.5],[1,0,-1,1],[9E+09,9E+09,9E+09,9E+09,9E+09,9E+09]], v200, z50, toolSprayGun;
MoveL [[363.034,644.505,828.266],[0.5,-0.5,0.5,0.5],[1,0,-1,1],[9E+09,9E+09,9E+09,9E+09,9E+09,9E+09]], v200, z50, toolSprayGun;
MoveL [[361.956,644.621,828.563],[0.5,-0.5,0.5,0.5],[1,0,-1,1],[9E+09,9E+09,9E+09,9E+09,9E+09,9E+09]], v200, z50, toolSprayGun;
MoveL [[359.021,644.401,828.76],[0.5,-0.5,0.5,0.5],[1,0,-1,1],[9E+09,9E+09,9E+09,9E+09,9E+09,9E+09]], v200, z50, toolSprayGun;
MoveL [[356.036,644.299,829.248],[0.5,-0.5,0.5,0.5],[1,0,-1,1],[9E+09,9E+09,9E+09,9E+09,9E+09,9E+09]], v200, z50, toolSprayGun;
MoveL [[352.351,643.905,829.539],[0.5,-0.5,0.5,0.5],[1,0,-1,1],[9E+09,9E+09,9E+09,9E+09,9E+09,9E+09]], v200, z50, toolSprayGun;
MoveL [[350.987,643.984,829.79],[0.5,-0.5,0.5,0.5],[1,0,-1,1],[9E+09,9E+09,9E+09,9E+09,9E+09,9E+09]], v200, z50, toolSprayGun;
MoveL [[347.624,643.88,830.146],[0.5,-0.5,0.5,0.5],[1,0,-1,1],[9E+09,9E+09,9E+09,9E+09,9E+09,9E+09]], v200, z50, toolSprayGun;
MoveL [[344.237,644.179,830.78],[0.5,-0.5,0.5,0.5],[1,0,-1,1],[9E+09,9E+09,9E+09,9E+09,9E+09,9E+09]], v200, z50, toolSprayGun;
MoveL [[342.075,643.831,831.207],[0.5,-0.5,0.5,0.5],[1,0,-1,1],[9E+09,9E+09,9E+09,9E+09,9E+09,9E+09]], v200, z50, toolSprayGun;
MoveL [[339.943,643.849,831.499],[0.5,-0.5,0.5,0.5],[1,0,-1,1],[9E+09,9E+09,9E+09,9E+09,9E+09,9E+09]], v200, z50, toolSprayGun;
MoveL [[337.015,642.979,832.049],[0.5,-0.5,0.5,0.5],[1,0,-1,1],[9E+09,9E+09,9E+09,9E+09,9E+09,9E+09]], v200, z50, toolSprayGun;
MoveL [[333.849,642.276,832.221],[0.5,-0.5,0.5,0.5],[1,0,-1,1],[9E+09,9E+09,9E+09,9E+09,9E+09,9E+09]], v200, z50, toolSprayGun;
MoveL [[329.708,641.494,831.883],[0.5,-0.5,0.5,0.5],[1,0,-1,1],[9E+09,9E+09,9E+09,9E+09,9E+09,9E+09]], v200, z50, toolSprayGun;
MoveL [[325.739,641.325,831.968],[0.5,-0.5,0.5,0.5],[1,0,-1,1],[9E+09,9E+09,9E+09,9E+09,9E+09,9E+09]], v200, z50, toolSprayGun;
MoveL [[324.416,641.333,832.125],[0.5,-0.5,0.5,0.5],[1,0,-1,1],[9E+09,9E+09,9E+09,9E+09,9E+09,9E+09]], v200, z50, toolSprayGun;
MoveL [[321.015,640.631,832.814],[0.5,-0.5,0.5,0.5],[1,0,-1,1],[9E+09,9E+09,9E+09,9E+09,9E+09,9E+09]], v200, z50, toolSprayGun;
MoveL [[316.876,640.309,832.891],[0.5,-0.5,0.5,0.5],[1,0,-1,1],[9E+09,9E+09,9E+09,9E+09,9E+09,9E+09]], v200, z50, toolSprayGun;
MoveL [[313.244,639.52,832.358],[0.5,-0.5,0.5,0.5],[1,0,-1,1],[9E+09,9E+09,9E+09,9E+09,9E+09,9E+09]], v200, z50, toolSprayGun;
MoveL [[311.227,639.456,832.571],[0.5,-0.5,0.5,0.5],[1,0,-1,1],[9E+09,9E+09,9E+09,9E+09,9E+09,9E+09]], v200, z50, toolSprayGun;
MoveL [[307.204,639.444,832.47],[0.5,-0.5,0.5,0.5],[1,0,-1,1],[9E+09,9E+09,9E+09,9E+09,9E+09,9E+09]], v200, z50, toolSprayGun;
MoveL [[304.31,639.467,832.405],[0.5,-0.5,0.5,0.5],[1,0,-1,1],[9E+09,9E+09,9E+09,9E+09,9E+09,9E+09]], v200, z50, toolSprayGun;
MoveL [[299.896,639.767,832.574],[0.5,-0.5,0.5,0.5],[1,0,-1,1],[9E+09,9E+09,9E+09,9E+09,9E+09,9E+09]], v200, z50, toolSprayGun;
MoveL [[296.72,639.78,832.771],[0.5,-0.5,0.5,0.5],[1,0,-1,1],[9E+09,9E+09,9E+09,9E+09,9E+09,9E+09]], v200, z50, toolSprayGun;
MoveL [[294.919,639.925,832.702],[0.5,-0.5,0.5,0.5],[1,0,-1,1],[9E+09,9E+09,9E+09,9E+09,9E+09,9E+09]], v200, z50, toolSprayGun;
MoveL [[288.838,639.779,832.02],[0.5,-0.5,0.5,0.5],[1,0,-1,1],[9E+09,9E+09,9E+09,9E+09,9E+09,9E+09]], v200, z50, toolSprayGun;
MoveL [[285.577,639.737,831.648],[0.5,-0.5,0.5,0.5],[1,0,-1,1],[9E+09,9E+09,9E+09,9E+09,9E+09,9E+09]], v200, z50, toolSprayGun;
MoveL [[283.99,639.833,831.676],[0.5,-0.5,0.5,0.5],[1,0,-1,1],[9E+09,9E+09,9E+09,9E+09,9E+09,9E+09]], v200, z50, toolSprayGun;
MoveL [[279.454,639.771,832.175],[0.5,-0.5,0.5,0.5],[1,0,-1,1],[9E+09,9E+09,9E+09,9E+09,9E+09,9E+09]], v200, z50, toolSprayGun;
MoveL [[275.307,639.486,832.392],[0.5,-0.5,0.5,0.5],[1,0,-1,1],[9E+09,9E+09,9E+09,9E+09,9E+09,9E+09]], v200, z50, toolSprayGun;
MoveL [[272.881,639.572,832.189],[0.5,-0.5,0.5,0.5],[1,0,-1,1],[9E+09,9E+09,9E+09,9E+09,9E+09,9E+09]], v200, z50, toolSprayGun;
MoveL [[270.034,639.858,832.303],[0.5,-0.5,0.5,0.5],[1,0,-1,1],[9E+09,9E+09,9E+09,9E+09,9E+09,9E+09]], v200, z50, toolSprayGun;
MoveL [[265.932,640.059,832.31],[0.5,-0.5,0.5,0.5],[1,0,-1,1],[9E+09,9E+09,9E+09,9E+09,9E+09,9E+09]], v200, z50, toolSprayGun;
MoveL [[263.731,640.317,832.336],[0.5,-0.5,0.5,0.5],[1,0,-1,1],[9E+09,9E+09,9E+09,9E+09,9E+09,9E+09]], v200, z50, toolSprayGun;
MoveL [[260.017,640.578,832.574],[0.5,-0.5,0.5,0.5],[1,0,-1,1],[9E+09,9E+09,9E+09,9E+09,9E+09,9E+09]], v200, z50, toolSprayGun;
MoveL [[257.146,640.953,832.732],[0.5,-0.5,0.5,0.5],[1,0,-1,1],[9E+09,9E+09,9E+09,9E+09,9E+09,9E+09]], v200, z50, toolSprayGun;
MoveL [[254.994,641.54,833.566],[0.5,-0.5,0.5,0.5],[1,0,-1,1],[9E+09,9E+09,9E+09,9E+09,9E+09,9E+09]], v200, z50, toolSprayGun;
MoveL [[250.981,641.351,833.689],[0.5,-0.5,0.5,0.5],[1,0,-1,1],[9E+09,9E+09,9E+09,9E+09,9E+09,9E+09]], v200, z50, toolSprayGun;
MoveL [[246.412,641.531,833.986],[0.5,-0.5,0.5,0.5],[1,0,-1,1],[9E+09,9E+09,9E+09,9E+09,9E+09,9E+09]], v200, z50, toolSprayGun;
MoveL [[244.951,641.771,834.132],[0.5,-0.5,0.5,0.5],[1,0,-1,1],[9E+09,9E+09,9E+09,9E+09,9E+09,9E+09]], v200, z50, toolSprayGun;
MoveL [[241.318,642.319,834.264],[0.5,-0.5,0.5,0.5],[1,0,-1,1],[9E+09,9E+09,9E+09,9E+09,9E+09,9E+09]], v200, z50, toolSprayGun;
MoveL [[237.238,643.527,834.952],[0.5,-0.5,0.5,0.5],[1,0,-1,1],[9E+09,9E+09,9E+09,9E+09,9E+09,9E+09]], v200, z50, toolSprayGun;
MoveL [[235.342,643.741,835.601],[0.5,-0.5,0.5,0.5],[1,0,-1,1],[9E+09,9E+09,9E+09,9E+09,9E+09,9E+09]], v200, z50, toolSprayGun;
MoveL [[232.576,644.256,835.845],[0.5,-0.5,0.5,0.5],[1,0,-1,1],[9E+09,9E+09,9E+09,9E+09,9E+09,9E+09]], v200, z50, toolSprayGun;
MoveL [[228.63,645.056,836.123],[0.5,-0.5,0.5,0.5],[1,0,-1,1],[9E+09,9E+09,9E+09,9E+09,9E+09,9E+09]], v200, z50, toolSprayGun;
MoveL [[225.676,645.366,836.562],[0.5,-0.5,0.5,0.5],[1,0,-1,1],[9E+09,9E+09,9E+09,9E+09,9E+09,9E+09]], v200, z50, toolSprayGun;
MoveL [[221.571,645.9,837.304],[0.5,-0.5,0.5,0.5],[1,0,-1,1],[9E+09,9E+09,9E+09,9E+09,9E+09,9E+09]], v200, z50, toolSprayGun;
MoveL [[217.588,646.442,837.988],[0.5,-0.5,0.5,0.5],[1,0,-1,1],[9E+09,9E+09,9E+09,9E+09,9E+09,9E+09]], v200, z50, toolSprayGun;
MoveL [[216.808,646.619,838.074],[0.5,-0.5,0.5,0.5],[1,0,-1,1],[9E+09,9E+09,9E+09,9E+09,9E+09,9E+09]], v200, z50, toolSprayGun;
MoveL [[213.189,646.663,838.529],[0.5,-0.5,0.5,0.5],[1,0,-1,1],[9E+09,9E+09,9E+09,9E+09,9E+09,9E+09]], v200, z50, toolSprayGun;
MoveL [[209.19,647.344,838.977],[0.5,-0.5,0.5,0.5],[1,0,-1,1],[9E+09,9E+09,9E+09,9E+09,9E+09,9E+09]], v200, z50, toolSprayGun;
MoveL [[205.877,647.532,839.233],[0.5,-0.5,0.5,0.5],[1,0,-1,1],[9E+09,9E+09,9E+09,9E+09,9E+09,9E+09]], v200, z50, toolSprayGun;
MoveL [[204.678,647.837,839.427],[0.5,-0.5,0.5,0.5],[1,0,-1,1],[9E+09,9E+09,9E+09,9E+09,9E+09,9E+09]], v200, z50, toolSprayGun;
MoveL [[202.13,649.073,839.915],[0.5,-0.5,0.5,0.5],[1,0,-1,1],[9E+09,9E+09,9E+09,9E+09,9E+09,9E+09]], v200, z50, toolSprayGun;
MoveL [[201.026,649.582,840.249],[0.5,-0.5,0.5,0.5],[1,0,-1,1],[9E+09,9E+09,9E+09,9E+09,9E+09,9E+09]], v200, z50, toolSprayGun;
MoveL [[198.838,650.386,841.17],[0.5,-0.5,0.5,0.5],[1,0,-1,1],[9E+09,9E+09,9E+09,9E+09,9E+09,9E+09]], v200, z50, toolSprayGun;
MoveL [[196.645,650.936,841.473],[0.5,-0.5,0.5,0.5],[1,0,-1,1],[9E+09,9E+09,9E+09,9E+09,9E+09,9E+09]], v200, z50, toolSprayGun;
MoveL [[195.704,651.732,841.702],[0.5,-0.5,0.5,0.5],[1,0,-1,1],[9E+09,9E+09,9E+09,9E+09,9E+09,9E+09]], v200, z50, toolSprayGun;
MoveL [[193.933,652.79,841.742],[0.5,-0.5,0.5,0.5],[1,0,-1,1],[9E+09,9E+09,9E+09,9E+09,9E+09,9E+09]], v200, z50, toolSprayGun;
MoveL [[191.743,653.843,842.136],[0.5,-0.5,0.5,0.5],[1,0,-1,1],[9E+09,9E+09,9E+09,9E+09,9E+09,9E+09]], v200, z50, toolSprayGun;
MoveL [[190.642,654.642,842.301],[0.5,-0.5,0.5,0.5],[1,0,-1,1],[9E+09,9E+09,9E+09,9E+09,9E+09,9E+09]], v200, z50, toolSprayGun;
MoveL [[188.842,655.237,842.376],[0.5,-0.5,0.5,0.5],[1,0,-1,1],[9E+09,9E+09,9E+09,9E+09,9E+09,9E+09]], v200, z50, toolSprayGun;
MoveL [[187.295,655.478,842.996],[0.5,-0.5,0.5,0.5],[1,0,-1,1],[9E+09,9E+09,9E+09,9E+09,9E+09,9E+09]], v200, z50, toolSprayGun;
MoveL [[186.875,655.631,843.099],[0.5,-0.5,0.5,0.5],[1,0,-1,1],[9E+09,9E+09,9E+09,9E+09,9E+09,9E+09]], v200, z50, toolSprayGun;
MoveL [[185.233,656.158,843.354],[0.5,-0.5,0.5,0.5],[1,0,-1,1],[9E+09,9E+09,9E+09,9E+09,9E+09,9E+09]], v200, z50, toolSprayGun;
MoveL [[184.334,656.206,843.511],[0.5,-0.5,0.5,0.5],[1,0,-1,1],[9E+09,9E+09,9E+09,9E+09,9E+09,9E+09]], v200, z50, toolSprayGun;
MoveL [[183.894,656.235,843.533],[0.5,-0.5,0.5,0.5],[1,0,-1,1],[9E+09,9E+09,9E+09,9E+09,9E+09,9E+09]], v200, z50, toolSprayGun;
MoveL [[183.584,656.524,843.082],[0.5,-0.5,0.5,0.5],[1,0,-1,1],[9E+09,9E+09,9E+09,9E+09,9E+09,9E+09]], v200, z50, toolSprayGun;
MoveL [[183.054,656.377,842.272],[0.5,-0.5,0.5,0.5],[1,0,-1,1],[9E+09,9E+09,9E+09,9E+09,9E+09,9E+09]], v200, z50, toolSprayGun;
MoveL [[182.388,656.597,842.331],[0.5,-0.5,0.5,0.5],[1,0,-1,1],[9E+09,9E+09,9E+09,9E+09,9E+09,9E+09]], v200, z50, toolSprayGun;
MoveL [[181.511,656.423,841.675],[0.5,-0.5,0.5,0.5],[1,0,-1,1],[9E+09,9E+09,9E+09,9E+09,9E+09,9E+09]], v200, z50, toolSprayGun;
MoveL [[181.096,656.221,841.116],[0.5,-0.5,0.5,0.5],[1,0,-1,1],[9E+09,9E+09,9E+09,9E+09,9E+09,9E+09]], v200, z50, toolSprayGun;
MoveL [[181.742,655.803,840.502],[0.5,-0.5,0.5,0.5],[1,0,-1,1],[9E+09,9E+09,9E+09,9E+09,9E+09,9E+09]], v200, z50, toolSprayGun;
MoveL [[181.493,655.386,839.525],[0.5,-0.5,0.5,0.5],[1,0,-1,1],[9E+09,9E+09,9E+09,9E+09,9E+09,9E+09]], v200, z50, toolSprayGun;
MoveL [[181.135,655.513,839.472],[0.5,-0.5,0.5,0.5],[1,0,-1,1],[9E+09,9E+09,9E+09,9E+09,9E+09,9E+09]], v200, z50, toolSprayGun;
MoveL [[181.202,655.117,837.665],[0.5,-0.5,0.5,0.5],[1,0,-1,1],[9E+09,9E+09,9E+09,9E+09,9E+09,9E+09]], v200, z50, toolSprayGun;
MoveL [[181.637,654.786,835.821],[0.5,-0.5,0.5,0.5],[1,0,-1,1],[9E+09,9E+09,9E+09,9E+09,9E+09,9E+09]], v200, z50, toolSprayGun;
MoveL [[180.989,655.011,835.33],[0.5,-0.5,0.5,0.5],[1,0,-1,1],[9E+09,9E+09,9E+09,9E+09,9E+09,9E+09]], v200, z50, toolSprayGun;
MoveL [[181.211,654.841,832.987],[0.5,-0.5,0.5,0.5],[1,0,-1,1],[9E+09,9E+09,9E+09,9E+09,9E+09,9E+09]], v200, z50, toolSprayGun;
MoveL [[181.387,654.881,829.976],[0.5,-0.5,0.5,0.5],[1,0,-1,1],[9E+09,9E+09,9E+09,9E+09,9E+09,9E+09]], v200, z50, toolSprayGun;
MoveL [[181.319,654.804,827.57],[0.5,-0.5,0.5,0.5],[1,0,-1,1],[9E+09,9E+09,9E+09,9E+09,9E+09,9E+09]], v200, z50, toolSprayGun;
MoveL [[181.012,654.884,826.966],[0.5,-0.5,0.5,0.5],[1,0,-1,1],[9E+09,9E+09,9E+09,9E+09,9E+09,9E+09]], v200, z50, toolSprayGun;
MoveL [[180.847,654.987,823.879],[0.5,-0.5,0.5,0.5],[1,0,-1,1],[9E+09,9E+09,9E+09,9E+09,9E+09,9E+09]], v200, z50, toolSprayGun;
MoveL [[180.53,654.465,820.796],[0.5,-0.5,0.5,0.5],[1,0,-1,1],[9E+09,9E+09,9E+09,9E+09,9E+09,9E+09]], v200, z50, toolSprayGun;
MoveL [[180.693,654.6,817.871],[0.5,-0.5,0.5,0.5],[1,0,-1,1],[9E+09,9E+09,9E+09,9E+09,9E+09,9E+09]], v200, z50, toolSprayGun;
MoveL [[180.125,654.801,815.903],[0.5,-0.5,0.5,0.5],[1,0,-1,1],[9E+09,9E+09,9E+09,9E+09,9E+09,9E+09]], v200, z50, toolSprayGun;
MoveL [[180.397,654.825,811.92],[0.5,-0.5,0.5,0.5],[1,0,-1,1],[9E+09,9E+09,9E+09,9E+09,9E+09,9E+09]], v200, z50, toolSprayGun;
MoveL [[180.331,654.701,809.718],[0.5,-0.5,0.5,0.5],[1,0,-1,1],[9E+09,9E+09,9E+09,9E+09,9E+09,9E+09]], v200, z50, toolSprayGun;
MoveL [[179.849,655.136,806.395],[0.5,-0.5,0.5,0.5],[1,0,-1,1],[9E+09,9E+09,9E+09,9E+09,9E+09,9E+09]], v200, z50, toolSprayGun;
MoveL [[179.859,655.461,802.416],[0.5,-0.5,0.5,0.5],[1,0,-1,1],[9E+09,9E+09,9E+09,9E+09,9E+09,9E+09]], v200, z50, toolSprayGun;
MoveL [[179.654,655.61,801.184],[0.5,-0.5,0.5,0.5],[1,0,-1,1],[9E+09,9E+09,9E+09,9E+09,9E+09,9E+09]], v200, z50, toolSprayGun;
MoveL [[179.354,656.57,796.656],[0.5,-0.5,0.5,0.5],[1,0,-1,1],[9E+09,9E+09,9E+09,9E+09,9E+09,9E+09]], v200, z50, toolSprayGun;
MoveL [[179.394,656.597,792.952],[0.5,-0.5,0.5,0.5],[1,0,-1,1],[9E+09,9E+09,9E+09,9E+09,9E+09,9E+09]], v200, z50, toolSprayGun;
MoveL [[179.224,656.747,789.42],[0.5,-0.5,0.5,0.5],[1,0,-1,1],[9E+09,9E+09,9E+09,9E+09,9E+09,9E+09]], v200, z50, toolSprayGun;
MoveL [[178.957,657.117,787.352],[0.5,-0.5,0.5,0.5],[1,0,-1,1],[9E+09,9E+09,9E+09,9E+09,9E+09,9E+09]], v200, z50, toolSprayGun;
MoveL [[178.984,656.769,783.109],[0.5,-0.5,0.5,0.5],[1,0,-1,1],[9E+09,9E+09,9E+09,9E+09,9E+09,9E+09]], v200, z50, toolSprayGun;
MoveL [[178.706,656.381,779.887],[0.5,-0.5,0.5,0.5],[1,0,-1,1],[9E+09,9E+09,9E+09,9E+09,9E+09,9E+09]], v200, z50, toolSprayGun;
MoveL [[178.318,656.022,775.074],[0.5,-0.5,0.5,0.5],[1,0,-1,1],[9E+09,9E+09,9E+09,9E+09,9E+09,9E+09]], v200, z50, toolSprayGun;
MoveL [[178.199,656.391,772.864],[0.5,-0.5,0.5,0.5],[1,0,-1,1],[9E+09,9E+09,9E+09,9E+09,9E+09,9E+09]], v200, z50, toolSprayGun;
MoveL [[177.352,657.503,769.618],[0.5,-0.5,0.5,0.5],[1,0,-1,1],[9E+09,9E+09,9E+09,9E+09,9E+09,9E+09]], v200, z50, toolSprayGun;
MoveL [[176.946,659.125,765.376],[0.5,-0.5,0.5,0.5],[1,0,-1,1],[9E+09,9E+09,9E+09,9E+09,9E+09,9E+09]], v200, z50, toolSprayGun;
MoveL [[177.068,659.852,761.833],[0.5,-0.5,0.5,0.5],[1,0,-1,1],[9E+09,9E+09,9E+09,9E+09,9E+09,9E+09]], v200, z50, toolSprayGun;
MoveL [[176.856,660.473,759.41],[0.5,-0.5,0.5,0.5],[1,0,-1,1],[9E+09,9E+09,9E+09,9E+09,9E+09,9E+09]], v200, z50, toolSprayGun;
MoveL [[176.564,660.76,757.043],[0.5,-0.5,0.5,0.5],[1,0,-1,1],[9E+09,9E+09,9E+09,9E+09,9E+09,9E+09]], v200, z50, toolSprayGun;
MoveL [[176.766,660.678,754.052],[0.5,-0.5,0.5,0.5],[1,0,-1,1],[9E+09,9E+09,9E+09,9E+09,9E+09,9E+09]], v200, z50, toolSprayGun;
MoveL [[176.599,660.534,752.667],[0.5,-0.5,0.5,0.5],[1,0,-1,1],[9E+09,9E+09,9E+09,9E+09,9E+09,9E+09]], v200, z50, toolSprayGun;
MoveL [[176.461,661.142,749.925],[0.5,-0.5,0.5,0.5],[1,0,-1,1],[9E+09,9E+09,9E+09,9E+09,9E+09,9E+09]], v200, z50, toolSprayGun;
MoveL [[176.554,661.621,746.544],[0.5,-0.5,0.5,0.5],[1,0,-1,1],[9E+09,9E+09,9E+09,9E+09,9E+09,9E+09]], v200, z50, toolSprayGun;
MoveL [[176.451,661.623,744.719],[0.5,-0.5,0.5,0.5],[1,0,-1,1],[9E+09,9E+09,9E+09,9E+09,9E+09,9E+09]], v200, z50, toolSprayGun;
MoveL [[176.245,661.943,741.864],[0.5,-0.5,0.5,0.5],[1,0,-1,1],[9E+09,9E+09,9E+09,9E+09,9E+09,9E+09]], v200, z50, toolSprayGun;
MoveL [[176.111,662.568,739.258],[0.5,-0.5,0.5,0.5],[1,0,-1,1],[9E+09,9E+09,9E+09,9E+09,9E+09,9E+09]], v200, z50, toolSprayGun;
MoveL [[175.694,662.569,736.163],[0.5,-0.5,0.5,0.5],[1,0,-1,1],[9E+09,9E+09,9E+09,9E+09,9E+09,9E+09]], v200, z50, toolSprayGun;
MoveL [[174.654,663.571,733.925],[0.5,-0.5,0.5,0.5],[1,0,-1,1],[9E+09,9E+09,9E+09,9E+09,9E+09,9E+09]], v200, z50, toolSprayGun;
MoveL [[174.081,664.293,731.373],[0.5,-0.5,0.5,0.5],[1,0,-1,1],[9E+09,9E+09,9E+09,9E+09,9E+09,9E+09]], v200, z50, toolSprayGun;
MoveL [[174.009,664.738,729.868],[0.5,-0.5,0.5,0.5],[1,0,-1,1],[9E+09,9E+09,9E+09,9E+09,9E+09,9E+09]], v200, z50, toolSprayGun;
MoveL [[173.995,665.782,726.8],[0.5,-0.5,0.5,0.5],[1,0,-1,1],[9E+09,9E+09,9E+09,9E+09,9E+09,9E+09]], v200, z50, toolSprayGun;
MoveL [[174.022,666.437,723.826],[0.5,-0.5,0.5,0.5],[1,0,-1,1],[9E+09,9E+09,9E+09,9E+09,9E+09,9E+09]], v200, z50, toolSprayGun;
MoveL [[173.783,666.769,722.38],[0.5,-0.5,0.5,0.5],[1,0,-1,1],[9E+09,9E+09,9E+09,9E+09,9E+09,9E+09]], v200, z50, toolSprayGun;
MoveL [[173.511,667.171,718.665],[0.5,-0.5,0.5,0.5],[1,0,-1,1],[9E+09,9E+09,9E+09,9E+09,9E+09,9E+09]], v200, z50, toolSprayGun;
MoveL [[173.437,667.864,716.781],[0.5,-0.5,0.5,0.5],[1,0,-1,1],[9E+09,9E+09,9E+09,9E+09,9E+09,9E+09]], v200, z50, toolSprayGun;
MoveL [[173.386,668.039,715.812],[0.5,-0.5,0.5,0.5],[1,0,-1,1],[9E+09,9E+09,9E+09,9E+09,9E+09,9E+09]], v200, z50, toolSprayGun;
MoveL [[173.085,668.548,713.657],[0.5,-0.5,0.5,0.5],[1,0,-1,1],[9E+09,9E+09,9E+09,9E+09,9E+09,9E+09]], v200, z50, toolSprayGun;
MoveL [[173.044,669.395,711.364],[0.5,-0.5,0.5,0.5],[1,0,-1,1],[9E+09,9E+09,9E+09,9E+09,9E+09,9E+09]], v200, z50, toolSprayGun;
MoveL [[172.737,669.867,710.361],[0.5,-0.5,0.5,0.5],[1,0,-1,1],[9E+09,9E+09,9E+09,9E+09,9E+09,9E+09]], v200, z50, toolSprayGun;
MoveL [[172.048,670.274,708.18],[0.5,-0.5,0.5,0.5],[1,0,-1,1],[9E+09,9E+09,9E+09,9E+09,9E+09,9E+09]], v200, z50, toolSprayGun;
MoveL [[171.535,670.318,705.972],[0.5,-0.5,0.5,0.5],[1,0,-1,1],[9E+09,9E+09,9E+09,9E+09,9E+09,9E+09]], v200, z50, toolSprayGun;
MoveL [[170.941,669.823,704.596],[0.5,-0.5,0.5,0.5],[1,0,-1,1],[9E+09,9E+09,9E+09,9E+09,9E+09,9E+09]], v200, z50, toolSprayGun;
MoveL [[170.807,670.422,703.216],[0.5,-0.5,0.5,0.5],[1,0,-1,1],[9E+09,9E+09,9E+09,9E+09,9E+09,9E+09]], v200, z50, toolSprayGun;
MoveL [[170.658,670.146,701.12],[0.5,-0.5,0.5,0.5],[1,0,-1,1],[9E+09,9E+09,9E+09,9E+09,9E+09,9E+09]], v200, z50, toolSprayGun;
MoveL [[169.967,669.53,699.95],[0.5,-0.5,0.5,0.5],[1,0,-1,1],[9E+09,9E+09,9E+09,9E+09,9E+09,9E+09]], v200, z50, toolSprayGun;
MoveL [[169.851,670.181,698.367],[0.5,-0.5,0.5,0.5],[1,0,-1,1],[9E+09,9E+09,9E+09,9E+09,9E+09,9E+09]], v200, z50, toolSprayGun;
MoveL [[169.759,669.693,696.518],[0.5,-0.5,0.5,0.5],[1,0,-1,1],[9E+09,9E+09,9E+09,9E+09,9E+09,9E+09]], v200, z50, toolSprayGun;
MoveL [[169.992,669.31,696.309],[0.5,-0.5,0.5,0.5],[1,0,-1,1],[9E+09,9E+09,9E+09,9E+09,9E+09,9E+09]], v200, z50, toolSprayGun;
MoveL [[170.108,669.156,695.63],[0.5,-0.5,0.5,0.5],[1,0,-1,1],[9E+09,9E+09,9E+09,9E+09,9E+09,9E+09]], v200, z50, toolSprayGun;
MoveL [[170.407,668.878,694.325],[0.5,-0.5,0.5,0.5],[1,0,-1,1],[9E+09,9E+09,9E+09,9E+09,9E+09,9E+09]], v200, z50, toolSprayGun;
MoveL [[170.428,669.056,693.684],[0.5,-0.5,0.5,0.5],[1,0,-1,1],[9E+09,9E+09,9E+09,9E+09,9E+09,9E+09]], v200, z50, toolSprayGun;
MoveL [[171.453,669.225,692.75],[0.5,-0.5,0.5,0.5],[1,0,-1,1],[9E+09,9E+09,9E+09,9E+09,9E+09,9E+09]], v200, z50, toolSprayGun;
MoveL [[172.765,669.476,693.328],[0.5,-0.5,0.5,0.5],[1,0,-1,1],[9E+09,9E+09,9E+09,9E+09,9E+09,9E+09]], v200, z50, toolSprayGun;
MoveL [[173.965,669.503,692.97],[0.5,-0.5,0.5,0.5],[1,0,-1,1],[9E+09,9E+09,9E+09,9E+09,9E+09,9E+09]], v200, z50, toolSprayGun;
MoveL [[174.245,669.781,691.756],[0.5,-0.5,0.5,0.5],[1,0,-1,1],[9E+09,9E+09,9E+09,9E+09,9E+09,9E+09]], v200, z50, toolSprayGun;
MoveL [[176.177,670.242,690.741],[0.5,-0.5,0.5,0.5],[1,0,-1,1],[9E+09,9E+09,9E+09,9E+09,9E+09,9E+09]], v200, z50, toolSprayGun;
MoveL [[177.719,670.255,690.801],[0.5,-0.5,0.5,0.5],[1,0,-1,1],[9E+09,9E+09,9E+09,9E+09,9E+09,9E+09]], v200, z50, toolSprayGun;
MoveL [[179.665,669.728,690.295],[0.5,-0.5,0.5,0.5],[1,0,-1,1],[9E+09,9E+09,9E+09,9E+09,9E+09,9E+09]], v200, z50, toolSprayGun;
MoveL [[180.493,669.924,688.983],[0.5,-0.5,0.5,0.5],[1,0,-1,1],[9E+09,9E+09,9E+09,9E+09,9E+09,9E+09]], v200, z50, toolSprayGun;
MoveL [[182.923,669.65,689.464],[0.5,-0.5,0.5,0.5],[1,0,-1,1],[9E+09,9E+09,9E+09,9E+09,9E+09,9E+09]], v200, z50, toolSprayGun;
MoveL [[185.924,668.833,688.757],[0.5,-0.5,0.5,0.5],[1,0,-1,1],[9E+09,9E+09,9E+09,9E+09,9E+09,9E+09]], v200, z50, toolSprayGun;
MoveL [[188.714,669.172,688.038],[0.5,-0.5,0.5,0.5],[1,0,-1,1],[9E+09,9E+09,9E+09,9E+09,9E+09,9E+09]], v200, z50, toolSprayGun;
MoveL [[190.117,669.307,686.933],[0.5,-0.5,0.5,0.5],[1,0,-1,1],[9E+09,9E+09,9E+09,9E+09,9E+09,9E+09]], v200, z50, toolSprayGun;
MoveL [[192.941,668.047,686.722],[0.5,-0.5,0.5,0.5],[1,0,-1,1],[9E+09,9E+09,9E+09,9E+09,9E+09,9E+09]], v200, z50, toolSprayGun;
MoveL [[195.984,666.874,686.215],[0.5,-0.5,0.5,0.5],[1,0,-1,1],[9E+09,9E+09,9E+09,9E+09,9E+09,9E+09]], v200, z50, toolSprayGun;
MoveL [[198.553,666.045,685.721],[0.5,-0.5,0.5,0.5],[1,0,-1,1],[9E+09,9E+09,9E+09,9E+09,9E+09,9E+09]], v200, z50, toolSprayGun;
MoveL [[200.34,665.79,684.75],[0.5,-0.5,0.5,0.5],[1,0,-1,1],[9E+09,9E+09,9E+09,9E+09,9E+09,9E+09]], v200, z50, toolSprayGun;
MoveL [[203.86,664.368,684.745],[0.5,-0.5,0.5,0.5],[1,0,-1,1],[9E+09,9E+09,9E+09,9E+09,9E+09,9E+09]], v200, z50, toolSprayGun;
MoveL [[206.376,662.633,685.132],[0.5,-0.5,0.5,0.5],[1,0,-1,1],[9E+09,9E+09,9E+09,9E+09,9E+09,9E+09]], v200, z50, toolSprayGun;
MoveL [[211.726,659.786,684.902],[0.5,-0.5,0.5,0.5],[1,0,-1,1],[9E+09,9E+09,9E+09,9E+09,9E+09,9E+09]], v200, z50, toolSprayGun;
MoveL [[212.944,659.306,684.558],[0.5,-0.5,0.5,0.5],[1,0,-1,1],[9E+09,9E+09,9E+09,9E+09,9E+09,9E+09]], v200, z50, toolSprayGun;
MoveL [[216.764,658.393,684.957],[0.5,-0.5,0.5,0.5],[1,0,-1,1],[9E+09,9E+09,9E+09,9E+09,9E+09,9E+09]], v200, z50, toolSprayGun;
MoveL [[223.091,657.413,685.378],[0.5,-0.5,0.5,0.5],[1,0,-1,1],[9E+09,9E+09,9E+09,9E+09,9E+09,9E+09]], v200, z50, toolSprayGun;
MoveL [[229.112,657.747,686.412],[0.5,-0.5,0.5,0.5],[1,0,-1,1],[9E+09,9E+09,9E+09,9E+09,9E+09,9E+09]], v200, z50, toolSprayGun;
MoveL [[230.249,657.283,686.247],[0.5,-0.5,0.5,0.5],[1,0,-1,1],[9E+09,9E+09,9E+09,9E+09,9E+09,9E+09]], v200, z50, toolSprayGun;
MoveL [[236.561,657.827,687.122],[0.5,-0.5,0.5,0.5],[1,0,-1,1],[9E+09,9E+09,9E+09,9E+09,9E+09,9E+09]], v200, z50, toolSprayGun;
MoveL [[243.443,657.165,688.154],[0.5,-0.5,0.5,0.5],[1,0,-1,1],[9E+09,9E+09,9E+09,9E+09,9E+09,9E+09]], v200, z50, toolSprayGun;
MoveL [[247.921,656.23,688.476],[0.5,-0.5,0.5,0.5],[1,0,-1,1],[9E+09,9E+09,9E+09,9E+09,9E+09,9E+09]], v200, z50, toolSprayGun;
MoveL [[251.167,655.062,688.561],[0.5,-0.5,0.5,0.5],[1,0,-1,1],[9E+09,9E+09,9E+09,9E+09,9E+09,9E+09]], v200, z50, toolSprayGun;
MoveL [[256.631,654.736,689.234],[0.5,-0.5,0.5,0.5],[1,0,-1,1],[9E+09,9E+09,9E+09,9E+09,9E+09,9E+09]], v200, z50, toolSprayGun;
MoveL [[260.713,655.069,689.223],[0.5,-0.5,0.5,0.5],[1,0,-1,1],[9E+09,9E+09,9E+09,9E+09,9E+09,9E+09]], v200, z50, toolSprayGun;
MoveL [[265.941,655.594,689.065],[0.5,-0.5,0.5,0.5],[1,0,-1,1],[9E+09,9E+09,9E+09,9E+09,9E+09,9E+09]], v200, z50, toolSprayGun;
MoveL [[272.38,655.569,689.149],[0.5,-0.5,0.5,0.5],[1,0,-1,1],[9E+09,9E+09,9E+09,9E+09,9E+09,9E+09]], v200, z50, toolSprayGun;
MoveL [[274.186,655.175,689.29],[0.5,-0.5,0.5,0.5],[1,0,-1,1],[9E+09,9E+09,9E+09,9E+09,9E+09,9E+09]], v200, z50, toolSprayGun;
MoveL [[279.196,655.909,689.349],[0.5,-0.5,0.5,0.5],[1,0,-1,1],[9E+09,9E+09,9E+09,9E+09,9E+09,9E+09]], v200, z50, toolSprayGun;
MoveL [[284.576,656.14,689.426],[0.5,-0.5,0.5,0.5],[1,0,-1,1],[9E+09,9E+09,9E+09,9E+09,9E+09,9E+09]], v200, z50, toolSprayGun;
MoveL [[288.326,656.265,689.529],[0.5,-0.5,0.5,0.5],[1,0,-1,1],[9E+09,9E+09,9E+09,9E+09,9E+09,9E+09]], v200, z50, toolSprayGun;
MoveL [[291.945,655.68,689.737],[0.5,-0.5,0.5,0.5],[1,0,-1,1],[9E+09,9E+09,9E+09,9E+09,9E+09,9E+09]], v200, z50, toolSprayGun;
MoveL [[297.729,655.248,689.505],[0.5,-0.5,0.5,0.5],[1,0,-1,1],[9E+09,9E+09,9E+09,9E+09,9E+09,9E+09]], v200, z50, toolSprayGun;
MoveL [[300.407,655.505,688.542],[0.5,-0.5,0.5,0.5],[1,0,-1,1],[9E+09,9E+09,9E+09,9E+09,9E+09,9E+09]], v200, z50, toolSprayGun;
MoveL [[304.747,655.578,687.185],[0.5,-0.5,0.5,0.5],[1,0,-1,1],[9E+09,9E+09,9E+09,9E+09,9E+09,9E+09]], v200, z50, toolSprayGun;
MoveL [[308.685,655.126,687.194],[0.5,-0.5,0.5,0.5],[1,0,-1,1],[9E+09,9E+09,9E+09,9E+09,9E+09,9E+09]], v200, z50, toolSprayGun;
MoveL [[311.147,654.58,686.33],[0.5,-0.5,0.5,0.5],[1,0,-1,1],[9E+09,9E+09,9E+09,9E+09,9E+09,9E+09]], v200, z50, toolSprayGun;
MoveL [[316.077,654.164,685.025],[0.5,-0.5,0.5,0.5],[1,0,-1,1],[9E+09,9E+09,9E+09,9E+09,9E+09,9E+09]], v200, z50, toolSprayGun;
MoveL [[321.285,654.157,683.549],[0.5,-0.5,0.5,0.5],[1,0,-1,1],[9E+09,9E+09,9E+09,9E+09,9E+09,9E+09]], v200, z50, toolSprayGun;
MoveL [[322.987,653.985,683.523],[0.5,-0.5,0.5,0.5],[1,0,-1,1],[9E+09,9E+09,9E+09,9E+09,9E+09,9E+09]], v200, z50, toolSprayGun;
MoveL [[329.376,653.827,682.682],[0.5,-0.5,0.5,0.5],[1,0,-1,1],[9E+09,9E+09,9E+09,9E+09,9E+09,9E+09]], v200, z50, toolSprayGun;
MoveL [[334.068,653.996,681.013],[0.5,-0.5,0.5,0.5],[1,0,-1,1],[9E+09,9E+09,9E+09,9E+09,9E+09,9E+09]], v200, z50, toolSprayGun;
MoveL [[338.232,653.749,679.825],[0.5,-0.5,0.5,0.5],[1,0,-1,1],[9E+09,9E+09,9E+09,9E+09,9E+09,9E+09]], v200, z50, toolSprayGun;
MoveL [[340.754,653.538,679.724],[0.5,-0.5,0.5,0.5],[1,0,-1,1],[9E+09,9E+09,9E+09,9E+09,9E+09,9E+09]], v200, z50, toolSprayGun;
MoveL [[346.14,653.239,678.478],[0.5,-0.5,0.5,0.5],[1,0,-1,1],[9E+09,9E+09,9E+09,9E+09,9E+09,9E+09]], v200, z50, toolSprayGun;
MoveL [[350.167,652.942,677.762],[0.5,-0.5,0.5,0.5],[1,0,-1,1],[9E+09,9E+09,9E+09,9E+09,9E+09,9E+09]], v200, z50, toolSprayGun;
MoveL [[354.952,652.106,677.181],[0.5,-0.5,0.5,0.5],[1,0,-1,1],[9E+09,9E+09,9E+09,9E+09,9E+09,9E+09]], v200, z50, toolSprayGun;
MoveL [[357.837,651.794,677.044],[0.5,-0.5,0.5,0.5],[1,0,-1,1],[9E+09,9E+09,9E+09,9E+09,9E+09,9E+09]], v200, z50, toolSprayGun;
MoveL [[360.542,652.218,676.742],[0.5,-0.5,0.5,0.5],[1,0,-1,1],[9E+09,9E+09,9E+09,9E+09,9E+09,9E+09]], v200, z50, toolSprayGun;
MoveL [[365.238,652.345,676.349],[0.5,-0.5,0.5,0.5],[1,0,-1,1],[9E+09,9E+09,9E+09,9E+09,9E+09,9E+09]], v200, z50, toolSprayGun;
MoveL [[368.98,652.173,676.457],[0.5,-0.5,0.5,0.5],[1,0,-1,1],[9E+09,9E+09,9E+09,9E+09,9E+09,9E+09]], v200, z50, toolSprayGun;
MoveL [[371.625,652.714,676.765],[0.5,-0.5,0.5,0.5],[1,0,-1,1],[9E+09,9E+09,9E+09,9E+09,9E+09,9E+09]], v200, z50, toolSprayGun;
MoveL [[373.918,652.39,676.664],[0.5,-0.5,0.5,0.5],[1,0,-1,1],[9E+09,9E+09,9E+09,9E+09,9E+09,9E+09]], v200, z50, toolSprayGun;
MoveL [[377.534,652.044,677.09],[0.5,-0.5,0.5,0.5],[1,0,-1,1],[9E+09,9E+09,9E+09,9E+09,9E+09,9E+09]], v200, z50, toolSprayGun;
MoveL [[379.349,652.364,676.635],[0.5,-0.5,0.5,0.5],[1,0,-1,1],[9E+09,9E+09,9E+09,9E+09,9E+09,9E+09]], v200, z50, toolSprayGun;
MoveL [[382.944,651.639,677.068],[0.5,-0.5,0.5,0.5],[1,0,-1,1],[9E+09,9E+09,9E+09,9E+09,9E+09,9E+09]], v200, z50, toolSprayGun;
MoveL [[385.03,651.296,677.088],[0.5,-0.5,0.5,0.5],[1,0,-1,1],[9E+09,9E+09,9E+09,9E+09,9E+09,9E+09]], v200, z50, toolSprayGun;
MoveL [[386.312,651.262,677.015],[0.5,-0.5,0.5,0.5],[1,0,-1,1],[9E+09,9E+09,9E+09,9E+09,9E+09,9E+09]], v200, z50, toolSprayGun;
MoveL [[389.648,650.427,677.973],[0.5,-0.5,0.5,0.5],[1,0,-1,1],[9E+09,9E+09,9E+09,9E+09,9E+09,9E+09]], v200, z50, toolSprayGun;
MoveL [[391.018,650.08,678.844],[0.5,-0.5,0.5,0.5],[1,0,-1,1],[9E+09,9E+09,9E+09,9E+09,9E+09,9E+09]], v200, z50, toolSprayGun;
MoveL [[392.186,649.799,679.005],[0.5,-0.5,0.5,0.5],[1,0,-1,1],[9E+09,9E+09,9E+09,9E+09,9E+09,9E+09]], v200, z50, toolSprayGun;
MoveL [[393.265,649.159,679.449],[0.5,-0.5,0.5,0.5],[1,0,-1,1],[9E+09,9E+09,9E+09,9E+09,9E+09,9E+09]], v200, z50, toolSprayGun;
MoveL [[394.288,648.078,680.679],[0.5,-0.5,0.5,0.5],[1,0,-1,1],[9E+09,9E+09,9E+09,9E+09,9E+09,9E+09]], v200, z50, toolSprayGun;
MoveL [[393.746,647.475,682.373],[0.5,-0.5,0.5,0.5],[1,0,-1,1],[9E+09,9E+09,9E+09,9E+09,9E+09,9E+09]], v200, z50, toolSprayGun;
MoveL [[395.764,646.703,683.117],[0.5,-0.5,0.5,0.5],[1,0,-1,1],[9E+09,9E+09,9E+09,9E+09,9E+09,9E+09]], v200, z50, toolSprayGun;
MoveL [[396.296,645.351,685.16],[0.5,-0.5,0.5,0.5],[1,0,-1,1],[9E+09,9E+09,9E+09,9E+09,9E+09,9E+09]], v200, z50, toolSprayGun;
MoveL [[396.35,644.457,688.016],[0.5,-0.5,0.5,0.5],[1,0,-1,1],[9E+09,9E+09,9E+09,9E+09,9E+09,9E+09]], v200, z50, toolSprayGun;
MoveL [[396.009,643.766,690.696],[0.5,-0.5,0.5,0.5],[1,0,-1,1],[9E+09,9E+09,9E+09,9E+09,9E+09,9E+09]], v200, z50, toolSprayGun;
MoveL [[397.561,642.821,692.122],[0.5,-0.5,0.5,0.5],[1,0,-1,1],[9E+09,9E+09,9E+09,9E+09,9E+09,9E+09]], v200, z50, toolSprayGun;
MoveL [[396.969,642.626,695.069],[0.5,-0.5,0.5,0.5],[1,0,-1,1],[9E+09,9E+09,9E+09,9E+09,9E+09,9E+09]], v200, z50, toolSprayGun;
MoveL [[397.745,641.767,698.805],[0.5,-0.5,0.5,0.5],[1,0,-1,1],[9E+09,9E+09,9E+09,9E+09,9E+09,9E+09]], v200, z50, toolSprayGun;
MoveL [[397.316,641.277,704.008],[0.5,-0.5,0.5,0.5],[1,0,-1,1],[9E+09,9E+09,9E+09,9E+09,9E+09,9E+09]], v200, z50, toolSprayGun;
MoveL [[397.848,640.769,705.1],[0.5,-0.5,0.5,0.5],[1,0,-1,1],[9E+09,9E+09,9E+09,9E+09,9E+09,9E+09]], v200, z50, toolSprayGun;
MoveL [[397.922,639.671,711.27],[0.5,-0.5,0.5,0.5],[1,0,-1,1],[9E+09,9E+09,9E+09,9E+09,9E+09,9E+09]], v200, z50, toolSprayGun;
MoveL [[398.219,639.45,716.323],[0.5,-0.5,0.5,0.5],[1,0,-1,1],[9E+09,9E+09,9E+09,9E+09,9E+09,9E+09]], v200, z50, toolSprayGun;
MoveL [[397.95,639.922,720.088],[0.5,-0.5,0.5,0.5],[1,0,-1,1],[9E+09,9E+09,9E+09,9E+09,9E+09,9E+09]], v200, z50, toolSprayGun;
MoveL [[398.881,638.792,723.401],[0.5,-0.5,0.5,0.5],[1,0,-1,1],[9E+09,9E+09,9E+09,9E+09,9E+09,9E+09]], v200, z50, toolSprayGun;
MoveL [[399.232,639.071,730.035],[0.5,-0.5,0.5,0.5],[1,0,-1,1],[9E+09,9E+09,9E+09,9E+09,9E+09,9E+09]], v200, z50, toolSprayGun;
MoveL [[398.855,639.24,734.977],[0.5,-0.5,0.5,0.5],[1,0,-1,1],[9E+09,9E+09,9E+09,9E+09,9E+09,9E+09]], v200, z50, toolSprayGun;
MoveL [[398.525,639.43,741.183],[0.5,-0.5,0.5,0.5],[1,0,-1,1],[9E+09,9E+09,9E+09,9E+09,9E+09,9E+09]], v200, z50, toolSprayGun;
MoveL [[399.062,638.271,744.898],[0.5,-0.5,0.5,0.5],[1,0,-1,1],[9E+09,9E+09,9E+09,9E+09,9E+09,9E+09]], v200, z50, toolSprayGun;
MoveL [[398.219,638.624,749.537],[0.5,-0.5,0.5,0.5],[1,0,-1,1],[9E+09,9E+09,9E+09,9E+09,9E+09,9E+09]], v200, z50, toolSprayGun;
MoveL [[397.542,638.577,755.611],[0.5,-0.5,0.5,0.5],[1,0,-1,1],[9E+09,9E+09,9E+09,9E+09,9E+09,9E+09]], v200, z50, toolSprayGun;
MoveL [[397.056,638.164,761.614],[0.5,-0.5,0.5,0.5],[1,0,-1,1],[9E+09,9E+09,9E+09,9E+09,9E+09,9E+09]], v200, z50, toolSprayGun;
MoveL [[396.41,638.503,766.275],[0.5,-0.5,0.5,0.5],[1,0,-1,1],[9E+09,9E+09,9E+09,9E+09,9E+09,9E+09]], v200, z50, toolSprayGun;
MoveL [[396.754,637.636,770.373],[0.5,-0.5,0.5,0.5],[1,0,-1,1],[9E+09,9E+09,9E+09,9E+09,9E+09,9E+09]], v200, z50, toolSprayGun;
MoveL [[396.103,636.607,774.753],[0.5,-0.5,0.5,0.5],[1,0,-1,1],[9E+09,9E+09,9E+09,9E+09,9E+09,9E+09]], v200, z50, toolSprayGun;
MoveL [[395.084,635.989,778.248],[0.5,-0.5,0.5,0.5],[1,0,-1,1],[9E+09,9E+09,9E+09,9E+09,9E+09,9E+09]], v200, z50, toolSprayGun;
MoveL [[395.456,634.795,784.288],[0.5,-0.5,0.5,0.5],[1,0,-1,1],[9E+09,9E+09,9E+09,9E+09,9E+09,9E+09]], v200, z50, toolSprayGun;
MoveL [[394.507,633.801,788.616],[0.5,-0.5,0.5,0.5],[1,0,-1,1],[9E+09,9E+09,9E+09,9E+09,9E+09,9E+09]], v200, z50, toolSprayGun;
MoveL [[393.976,633.797,790.477],[0.5,-0.5,0.5,0.5],[1,0,-1,1],[9E+09,9E+09,9E+09,9E+09,9E+09,9E+09]], v200, z50, toolSprayGun;
MoveL [[393.065,633.29,796.841],[0.5,-0.5,0.5,0.5],[1,0,-1,1],[9E+09,9E+09,9E+09,9E+09,9E+09,9E+09]], v200, z50, toolSprayGun;
MoveL [[392.055,632.878,802.295],[0.5,-0.5,0.5,0.5],[1,0,-1,1],[9E+09,9E+09,9E+09,9E+09,9E+09,9E+09]], v200, z50, toolSprayGun;
MoveL [[391.264,633.393,804.746],[0.5,-0.5,0.5,0.5],[1,0,-1,1],[9E+09,9E+09,9E+09,9E+09,9E+09,9E+09]], v200, z50, toolSprayGun;
MoveL [[390.631,634.309,810.883],[0.5,-0.5,0.5,0.5],[1,0,-1,1],[9E+09,9E+09,9E+09,9E+09,9E+09,9E+09]], v200, z50, toolSprayGun;
MoveL [[390.645,634.217,811.729],[0.5,-0.5,0.5,0.5],[1,0,-1,1],[9E+09,9E+09,9E+09,9E+09,9E+09,9E+09]], v200, z50, toolSprayGun;
MoveL [[390.693,633.91,814.55],[0.5,-0.5,0.5,0.5],[1,0,-1,1],[9E+09,9E+09,9E+09,9E+09,9E+09,9E+09]], v200, z50, toolSprayGun;
MoveL [[389.644,634.471,817.782],[0.5,-0.5,0.5,0.5],[1,0,-1,1],[9E+09,9E+09,9E+09,9E+09,9E+09,9E+09]], v200, z50, toolSprayGun;
MoveL [[388.774,635.339,821.768],[0.5,-0.5,0.5,0.5],[1,0,-1,1],[9E+09,9E+09,9E+09,9E+09,9E+09,9E+09]], v200, z50, toolSprayGun;
MoveL [[387.645,636,823.436],[0.5,-0.5,0.5,0.5],[1,0,-1,1],[9E+09,9E+09,9E+09,9E+09,9E+09,9E+09]], v200, z50, toolSprayGun;
MoveL [[386.92,636.699,825.905],[0.5,-0.5,0.5,0.5],[1,0,-1,1],[9E+09,9E+09,9E+09,9E+09,9E+09,9E+09]], v200, z50, toolSprayGun;
MoveL [[386.955,636.597,828.953],[0.5,-0.5,0.5,0.5],[1,0,-1,1],[9E+09,9E+09,9E+09,9E+09,9E+09,9E+09]], v200, z50, toolSprayGun;
MoveL [[385.799,636.992,830.089],[0.5,-0.5,0.5,0.5],[1,0,-1,1],[9E+09,9E+09,9E+09,9E+09,9E+09,9E+09]], v200, z50, toolSprayGun;
MoveL [[385.154,637.304,830.536],[0.5,-0.5,0.5,0.5],[1,0,-1,1],[9E+09,9E+09,9E+09,9E+09,9E+09,9E+09]], v200, z50, toolSprayGun;
MoveL [[384.843,637.174,831.814],[0.5,-0.5,0.5,0.5],[1,0,-1,1],[9E+09,9E+09,9E+09,9E+09,9E+09,9E+09]], v200, z50, toolSprayGun;
MoveL [[384.839,637.159,832.897],[0.5,-0.5,0.5,0.5],[1,0,-1,1],[9E+09,9E+09,9E+09,9E+09,9E+09,9E+09]], v200, z50, toolSprayGun;
MoveL [[384.369,636.879,833.359],[0.5,-0.5,0.5,0.5],[1,0,-1,1],[9E+09,9E+09,9E+09,9E+09,9E+09,9E+09]], v200, z50, toolSprayGun;
MoveL [[384.105,636.451,833.195],[0.5,-0.5,0.5,0.5],[1,0,-1,1],[9E+09,9E+09,9E+09,9E+09,9E+09,9E+09]], v200, z50, toolSprayGun;
MoveL [[383.756,636.307,831.669],[0.5,-0.5,0.5,0.5],[1,0,-1,1],[9E+09,9E+09,9E+09,9E+09,9E+09,9E+09]], v200, z50, toolSprayGun;
MoveL [[383.737,636.285,832.862],[0.5,-0.5,0.5,0.5],[1,0,-1,1],[9E+09,9E+09,9E+09,9E+09,9E+09,9E+09]], v200, z50, toolSprayGun;
MoveL [[383.431,636.242,831.452],[0.5,-0.5,0.5,0.5],[1,0,-1,1],[9E+09,9E+09,9E+09,9E+09,9E+09,9E+09]], v200, z50, toolSprayGun;
MoveL [[382.858,636.256,830.195],[0.5,-0.5,0.5,0.5],[1,0,-1,1],[9E+09,9E+09,9E+09,9E+09,9E+09,9E+09]], v200, z50, toolSprayGun;
MoveL [[382.679,635.953,829.318],[0.5,-0.5,0.5,0.5],[1,0,-1,1],[9E+09,9E+09,9E+09,9E+09,9E+09,9E+09]], v200, z50, toolSprayGun;
MoveL [[382.612,635.978,829.786],[0.5,-0.5,0.5,0.5],[1,0,-1,1],[9E+09,9E+09,9E+09,9E+09,9E+09,9E+09]], v200, z50, toolSprayGun;
MoveL [[382.431,635.393,828.628],[0.5,-0.5,0.5,0.5],[1,0,-1,1],[9E+09,9E+09,9E+09,9E+09,9E+09,9E+09]], v200, z50, toolSprayGun;
MoveL [[382.197,635.013,827.542],[0.5,-0.5,0.5,0.5],[1,0,-1,1],[9E+09,9E+09,9E+09,9E+09,9E+09,9E+09]], v200, z50, toolSprayGun;
MoveL [[381.722,634.469,827.031],[0.5,-0.5,0.5,0.5],[1,0,-1,1],[9E+09,9E+09,9E+09,9E+09,9E+09,9E+09]], v200, z50, toolSprayGun;
MoveL [[381.684,634.469,827.136],[0.5,-0.5,0.5,0.5],[1,0,-1,1],[9E+09,9E+09,9E+09,9E+09,9E+09,9E+09]], v200, z50, toolSprayGun;
MoveL [[381.542,634.299,826.723],[0.5,-0.5,0.5,0.5],[1,0,-1,1],[9E+09,9E+09,9E+09,9E+09,9E+09,9E+09]], v200, z50, toolSprayGun;
MoveL [[381.459,634.611,826.322],[0.5,-0.5,0.5,0.5],[1,0,-1,1],[9E+09,9E+09,9E+09,9E+09,9E+09,9E+09]], v200, z50, toolSprayGun;
MoveL [[381.423,634.652,825.745],[0.5,-0.5,0.5,0.5],[1,0,-1,1],[9E+09,9E+09,9E+09,9E+09,9E+09,9E+09]], v200, z50, toolSprayGun;
MoveL [[381.266,634.61,825.828],[0.5,-0.5,0.5,0.5],[1,0,-1,1],[9E+09,9E+09,9E+09,9E+09,9E+09,9E+09]], v200, z50, toolSprayGun;
MoveL [[381.409,634.499,825.443],[0.5,-0.5,0.5,0.5],[1,0,-1,1],[9E+09,9E+09,9E+09,9E+09,9E+09,9E+09]], v200, z50, toolSprayGun;
MoveL [[381.58,634.775,824.921],[0.5,-0.5,0.5,0.5],[1,0,-1,1],[9E+09,9E+09,9E+09,9E+09,9E+09,9E+09]], v200, z50, toolSprayGun;
MoveL [[381.424,634.661,824.44],[0.5,-0.5,0.5,0.5],[1,0,-1,1],[9E+09,9E+09,9E+09,9E+09,9E+09,9E+09]], v200, z50, toolSprayGun;
MoveL [[381.347,634.658,824.456],[0.5,-0.5,0.5,0.5],[1,0,-1,1],[9E+09,9E+09,9E+09,9E+09,9E+09,9E+09]], v200, z50, toolSprayGun;
MoveL [[380.994,635.028,823.791],[0.5,-0.5,0.5,0.5],[1,0,-1,1],[9E+09,9E+09,9E+09,9E+09,9E+09,9E+09]], v200, z50, toolSprayGun;
MoveL [[380.94,635.438,823.597],[0.5,-0.5,0.5,0.5],[1,0,-1,1],[9E+09,9E+09,9E+09,9E+09,9E+09,9E+09]], v200, z50, toolSprayGun;
MoveL [[381.001,635.468,823.589],[0.5,-0.5,0.5,0.5],[1,0,-1,1],[9E+09,9E+09,9E+09,9E+09,9E+09,9E+09]], v200, z50, toolSprayGun;
MoveL [[380.943,635.492,823.598],[0.5,-0.5,0.5,0.5],[1,0,-1,1],[9E+09,9E+09,9E+09,9E+09,9E+09,9E+09]], v200, z50, toolSprayGun;
MoveL [[380.972,635.511,823.539],[0.5,-0.5,0.5,0.5],[1,0,-1,1],[9E+09,9E+09,9E+09,9E+09,9E+09,9E+09]], v200, z50, toolSprayGun;
MoveL [[380.863,635.565,823.463],[0.5,-0.5,0.5,0.5],[1,0,-1,1],[9E+09,9E+09,9E+09,9E+09,9E+09,9E+09]], v200, z50, toolSprayGun;
MoveL [[380.729,635.774,823.45],[0.5,-0.5,0.5,0.5],[1,0,-1,1],[9E+09,9E+09,9E+09,9E+09,9E+09,9E+09]], v200, z50, toolSprayGun;
ENDPROC
ENDMODULE
