MODULE MainModule
PROC main()
MoveL [[279.173,659.297,800.967],[0.5,-0.5,0.5,0.5],[1,0,-1,1],[9E+09,9E+09,9E+09,9E+09,9E+09,9E+09]], v200, z50, toolSprayGun;
MoveL [[279.656,659.572,800.774],[0.5,-0.5,0.5,0.5],[1,0,-1,1],[9E+09,9E+09,9E+09,9E+09,9E+09,9E+09]], v200, z50, toolSprayGun;
MoveL [[280.029,659.769,800.562],[0.5,-0.5,0.5,0.5],[1,0,-1,1],[9E+09,9E+09,9E+09,9E+09,9E+09,9E+09]], v200, z50, toolSprayGun;
MoveL [[280.108,659.982,800.396],[0.5,-0.5,0.5,0.5],[1,0,-1,1],[9E+09,9E+09,9E+09,9E+09,9E+09,9E+09]], v200, z50, toolSprayGun;
MoveL [[280.123,659.923,800.27],[0.5,-0.5,0.5,0.5],[1,0,-1,1],[9E+09,9E+09,9E+09,9E+09,9E+09,9E+09]], v200, z50, toolSprayGun;
MoveL [[280.13,660.05,800.58],[0.5,-0.5,0.5,0.5],[1,0,-1,1],[9E+09,9E+09,9E+09,9E+09,9E+09,9E+09]], v200, z50, toolSprayGun;
MoveL [[280.064,660.12,800.726],[0.5,-0.5,0.5,0.5],[1,0,-1,1],[9E+09,9E+09,9E+09,9E+09,9E+09,9E+09]], v200, z50, toolSprayGun;
MoveL [[280.227,660.046,800.645],[0.5,-0.5,0.5,0.5],[1,0,-1,1],[9E+09,9E+09,9E+09,9E+09,9E+09,9E+09]], v200, z50, toolSprayGun;
MoveL [[280.362,661.39,800.19],[0.5,-0.5,0.5,0.5],[1,0,-1,1],[9E+09,9E+09,9E+09,9E+09,9E+09,9E+09]], v200, z50, toolSprayGun;
MoveL [[280.46,660.943,799.476],[0.5,-0.5,0.5,0.5],[1,0,-1,1],[9E+09,9E+09,9E+09,9E+09,9E+09,9E+09]], v200, z50, toolSprayGun;
MoveL [[280.685,661.497,799.802],[0.5,-0.5,0.5,0.5],[1,0,-1,1],[9E+09,9E+09,9E+09,9E+09,9E+09,9E+09]], v200, z50, toolSprayGun;
MoveL [[281.123,661.898,799.946],[0.5,-0.5,0.5,0.5],[1,0,-1,1],[9E+09,9E+09,9E+09,9E+09,9E+09,9E+09]], v200, z50, toolSprayGun;
MoveL [[281.733,662.54,799.709],[0.5,-0.5,0.5,0.5],[1,0,-1,1],[9E+09,9E+09,9E+09,9E+09,9E+09,9E+09]], v200, z50, toolSprayGun;
MoveL [[282.519,663.012,798.544],[0.5,-0.5,0.5,0.5],[1,0,-1,1],[9E+09,9E+09,9E+09,9E+09,9E+09,9E+09]], v200, z50, toolSprayGun;
MoveL [[282.963,663.223,798.101],[0.5,-0.5,0.5,0.5],[1,0,-1,1],[9E+09,9E+09,9E+09,9E+09,9E+09,9E+09]], v200, z50, toolSprayGun;
MoveL [[283.351,663.615,796.445],[0.5,-0.5,0.5,0.5],[1,0,-1,1],[9E+09,9E+09,9E+09,9E+09,9E+09,9E+09]], v200, z50, toolSprayGun;
MoveL [[284.24,663.944,795.089],[0.5,-0.5,0.5,0.5],[1,0,-1,1],[9E+09,9E+09,9E+09,9E+09,9E+09,9E+09]], v200, z50, toolSprayGun;
MoveL [[284.812,663.741,793.06],[0.5,-0.5,0.5,0.5],[1,0,-1,1],[9E+09,9E+09,9E+09,9E+09,9E+09,9E+09]], v200, z50, toolSprayGun;
MoveL [[285.329,664.401,791.243],[0.5,-0.5,0.5,0.5],[1,0,-1,1],[9E+09,9E+09,9E+09,9E+09,9E+09,9E+09]], v200, z50, toolSprayGun;
MoveL [[286.194,664.659,789.732],[0.5,-0.5,0.5,0.5],[1,0,-1,1],[9E+09,9E+09,9E+09,9E+09,9E+09,9E+09]], v200, z50, toolSprayGun;
MoveL [[287.72,665.679,785.798],[0.5,-0.5,0.5,0.5],[1,0,-1,1],[9E+09,9E+09,9E+09,9E+09,9E+09,9E+09]], v200, z50, toolSprayGun;
MoveL [[288.825,666.296,784.022],[0.5,-0.5,0.5,0.5],[1,0,-1,1],[9E+09,9E+09,9E+09,9E+09,9E+09,9E+09]], v200, z50, toolSprayGun;
MoveL [[290.33,666.122,781.566],[0.5,-0.5,0.5,0.5],[1,0,-1,1],[9E+09,9E+09,9E+09,9E+09,9E+09,9E+09]], v200, z50, toolSprayGun;
MoveL [[292.518,666.752,778.821],[0.5,-0.5,0.5,0.5],[1,0,-1,1],[9E+09,9E+09,9E+09,9E+09,9E+09,9E+09]], v200, z50, toolSprayGun;
MoveL [[293.754,667.729,776.682],[0.5,-0.5,0.5,0.5],[1,0,-1,1],[9E+09,9E+09,9E+09,9E+09,9E+09,9E+09]], v200, z50, toolSprayGun;
MoveL [[296.535,668.058,773.348],[0.5,-0.5,0.5,0.5],[1,0,-1,1],[9E+09,9E+09,9E+09,9E+09,9E+09,9E+09]], v200, z50, toolSprayGun;
MoveL [[299.283,668.836,771.075],[0.5,-0.5,0.5,0.5],[1,0,-1,1],[9E+09,9E+09,9E+09,9E+09,9E+09,9E+09]], v200, z50, toolSprayGun;
MoveL [[302.722,668.913,768.233],[0.5,-0.5,0.5,0.5],[1,0,-1,1],[9E+09,9E+09,9E+09,9E+09,9E+09,9E+09]], v200, z50, toolSprayGun;
MoveL [[304.75,670.306,765.971],[0.5,-0.5,0.5,0.5],[1,0,-1,1],[9E+09,9E+09,9E+09,9E+09,9E+09,9E+09]], v200, z50, toolSprayGun;
MoveL [[308.378,671.289,762.357],[0.5,-0.5,0.5,0.5],[1,0,-1,1],[9E+09,9E+09,9E+09,9E+09,9E+09,9E+09]], v200, z50, toolSprayGun;
MoveL [[311.478,671.361,759.602],[0.5,-0.5,0.5,0.5],[1,0,-1,1],[9E+09,9E+09,9E+09,9E+09,9E+09,9E+09]], v200, z50, toolSprayGun;
MoveL [[314.931,672.084,755.397],[0.5,-0.5,0.5,0.5],[1,0,-1,1],[9E+09,9E+09,9E+09,9E+09,9E+09,9E+09]], v200, z50, toolSprayGun;
MoveL [[317.975,672.349,751.562],[0.5,-0.5,0.5,0.5],[1,0,-1,1],[9E+09,9E+09,9E+09,9E+09,9E+09,9E+09]], v200, z50, toolSprayGun;
MoveL [[320.866,672.065,746.522],[0.5,-0.5,0.5,0.5],[1,0,-1,1],[9E+09,9E+09,9E+09,9E+09,9E+09,9E+09]], v200, z50, toolSprayGun;
MoveL [[323.971,672.89,742.069],[0.5,-0.5,0.5,0.5],[1,0,-1,1],[9E+09,9E+09,9E+09,9E+09,9E+09,9E+09]], v200, z50, toolSprayGun;
MoveL [[326.257,672.948,738.387],[0.5,-0.5,0.5,0.5],[1,0,-1,1],[9E+09,9E+09,9E+09,9E+09,9E+09,9E+09]], v200, z50, toolSprayGun;
MoveL [[329.71,672.418,733.055],[0.5,-0.5,0.5,0.5],[1,0,-1,1],[9E+09,9E+09,9E+09,9E+09,9E+09,9E+09]], v200, z50, toolSprayGun;
MoveL [[333.517,672.706,727.803],[0.5,-0.5,0.5,0.5],[1,0,-1,1],[9E+09,9E+09,9E+09,9E+09,9E+09,9E+09]], v200, z50, toolSprayGun;
MoveL [[336.946,672.346,723.807],[0.5,-0.5,0.5,0.5],[1,0,-1,1],[9E+09,9E+09,9E+09,9E+09,9E+09,9E+09]], v200, z50, toolSprayGun;
MoveL [[340.387,673.152,719.675],[0.5,-0.5,0.5,0.5],[1,0,-1,1],[9E+09,9E+09,9E+09,9E+09,9E+09,9E+09]], v200, z50, toolSprayGun;
MoveL [[342.764,673.827,715.316],[0.5,-0.5,0.5,0.5],[1,0,-1,1],[9E+09,9E+09,9E+09,9E+09,9E+09,9E+09]], v200, z50, toolSprayGun;
MoveL [[346.203,672.654,709.456],[0.5,-0.5,0.5,0.5],[1,0,-1,1],[9E+09,9E+09,9E+09,9E+09,9E+09,9E+09]], v200, z50, toolSprayGun;
MoveL [[348.897,672.961,705.022],[0.5,-0.5,0.5,0.5],[1,0,-1,1],[9E+09,9E+09,9E+09,9E+09,9E+09,9E+09]], v200, z50, toolSprayGun;
MoveL [[352.898,672.515,699.848],[0.5,-0.5,0.5,0.5],[1,0,-1,1],[9E+09,9E+09,9E+09,9E+09,9E+09,9E+09]], v200, z50, toolSprayGun;
MoveL [[356.345,671.897,694.669],[0.5,-0.5,0.5,0.5],[1,0,-1,1],[9E+09,9E+09,9E+09,9E+09,9E+09,9E+09]], v200, z50, toolSprayGun;
MoveL [[359.818,672.617,689.383],[0.5,-0.5,0.5,0.5],[1,0,-1,1],[9E+09,9E+09,9E+09,9E+09,9E+09,9E+09]], v200, z50, toolSprayGun;
MoveL [[363.772,673.126,684.302],[0.5,-0.5,0.5,0.5],[1,0,-1,1],[9E+09,9E+09,9E+09,9E+09,9E+09,9E+09]], v200, z50, toolSprayGun;
MoveL [[367.664,673.474,678.617],[0.5,-0.5,0.5,0.5],[1,0,-1,1],[9E+09,9E+09,9E+09,9E+09,9E+09,9E+09]], v200, z50, toolSprayGun;
MoveL [[371.452,674.505,672.957],[0.5,-0.5,0.5,0.5],[1,0,-1,1],[9E+09,9E+09,9E+09,9E+09,9E+09,9E+09]], v200, z50, toolSprayGun;
MoveL [[375.211,672.77,668.092],[0.5,-0.5,0.5,0.5],[1,0,-1,1],[9E+09,9E+09,9E+09,9E+09,9E+09,9E+09]], v200, z50, toolSprayGun;
MoveL [[380.078,672.922,663.647],[0.5,-0.5,0.5,0.5],[1,0,-1,1],[9E+09,9E+09,9E+09,9E+09,9E+09,9E+09]], v200, z50, toolSprayGun;
MoveL [[384.435,672.535,658.351],[0.5,-0.5,0.5,0.5],[1,0,-1,1],[9E+09,9E+09,9E+09,9E+09,9E+09,9E+09]], v200, z50, toolSprayGun;
MoveL [[388.325,670.852,654.032],[0.5,-0.5,0.5,0.5],[1,0,-1,1],[9E+09,9E+09,9E+09,9E+09,9E+09,9E+09]], v200, z50, toolSprayGun;
MoveL [[393.942,668.145,648.877],[0.5,-0.5,0.5,0.5],[1,0,-1,1],[9E+09,9E+09,9E+09,9E+09,9E+09,9E+09]], v200, z50, toolSprayGun;
MoveL [[398.228,667.106,644.146],[0.5,-0.5,0.5,0.5],[1,0,-1,1],[9E+09,9E+09,9E+09,9E+09,9E+09,9E+09]], v200, z50, toolSprayGun;
MoveL [[402.65,665.899,636.661],[0.5,-0.5,0.5,0.5],[1,0,-1,1],[9E+09,9E+09,9E+09,9E+09,9E+09,9E+09]], v200, z50, toolSprayGun;
MoveL [[406.709,665.39,630.601],[0.5,-0.5,0.5,0.5],[1,0,-1,1],[9E+09,9E+09,9E+09,9E+09,9E+09,9E+09]], v200, z50, toolSprayGun;
MoveL [[413.075,666.407,623.579],[0.5,-0.5,0.5,0.5],[1,0,-1,1],[9E+09,9E+09,9E+09,9E+09,9E+09,9E+09]], v200, z50, toolSprayGun;
MoveL [[417.863,666.616,617.32],[0.5,-0.5,0.5,0.5],[1,0,-1,1],[9E+09,9E+09,9E+09,9E+09,9E+09,9E+09]], v200, z50, toolSprayGun;
MoveL [[423.887,666.388,609.675],[0.5,-0.5,0.5,0.5],[1,0,-1,1],[9E+09,9E+09,9E+09,9E+09,9E+09,9E+09]], v200, z50, toolSprayGun;
MoveL [[427.922,666.893,603.861],[0.5,-0.5,0.5,0.5],[1,0,-1,1],[9E+09,9E+09,9E+09,9E+09,9E+09,9E+09]], v200, z50, toolSprayGun;
MoveL [[433.776,666.717,595.49],[0.5,-0.5,0.5,0.5],[1,0,-1,1],[9E+09,9E+09,9E+09,9E+09,9E+09,9E+09]], v200, z50, toolSprayGun;
MoveL [[439.119,667.707,588.857],[0.5,-0.5,0.5,0.5],[1,0,-1,1],[9E+09,9E+09,9E+09,9E+09,9E+09,9E+09]], v200, z50, toolSprayGun;
MoveL [[444.973,666.173,580.915],[0.5,-0.5,0.5,0.5],[1,0,-1,1],[9E+09,9E+09,9E+09,9E+09,9E+09,9E+09]], v200, z50, toolSprayGun;
MoveL [[449.772,666.23,573.825],[0.5,-0.5,0.5,0.5],[1,0,-1,1],[9E+09,9E+09,9E+09,9E+09,9E+09,9E+09]], v200, z50, toolSprayGun;
MoveL [[454.891,667.553,568.277],[0.5,-0.5,0.5,0.5],[1,0,-1,1],[9E+09,9E+09,9E+09,9E+09,9E+09,9E+09]], v200, z50, toolSprayGun;
MoveL [[458.805,668.694,562.79],[0.5,-0.5,0.5,0.5],[1,0,-1,1],[9E+09,9E+09,9E+09,9E+09,9E+09,9E+09]], v200, z50, toolSprayGun;
MoveL [[464.716,669.974,557.445],[0.5,-0.5,0.5,0.5],[1,0,-1,1],[9E+09,9E+09,9E+09,9E+09,9E+09,9E+09]], v200, z50, toolSprayGun;
MoveL [[468.115,669.961,553.895],[0.5,-0.5,0.5,0.5],[1,0,-1,1],[9E+09,9E+09,9E+09,9E+09,9E+09,9E+09]], v200, z50, toolSprayGun;
MoveL [[472.736,669.059,548.301],[0.5,-0.5,0.5,0.5],[1,0,-1,1],[9E+09,9E+09,9E+09,9E+09,9E+09,9E+09]], v200, z50, toolSprayGun;
MoveL [[474.686,668.816,543.945],[0.5,-0.5,0.5,0.5],[1,0,-1,1],[9E+09,9E+09,9E+09,9E+09,9E+09,9E+09]], v200, z50, toolSprayGun;
MoveL [[477.612,669.764,539.209],[0.5,-0.5,0.5,0.5],[1,0,-1,1],[9E+09,9E+09,9E+09,9E+09,9E+09,9E+09]], v200, z50, toolSprayGun;
MoveL [[480.722,670.185,535.43],[0.5,-0.5,0.5,0.5],[1,0,-1,1],[9E+09,9E+09,9E+09,9E+09,9E+09,9E+09]], v200, z50, toolSprayGun;
MoveL [[484.49,670.389,529.911],[0.5,-0.5,0.5,0.5],[1,0,-1,1],[9E+09,9E+09,9E+09,9E+09,9E+09,9E+09]], v200, z50, toolSprayGun;
MoveL [[487.833,670.386,526.275],[0.5,-0.5,0.5,0.5],[1,0,-1,1],[9E+09,9E+09,9E+09,9E+09,9E+09,9E+09]], v200, z50, toolSprayGun;
MoveL [[490.221,670.672,523.085],[0.5,-0.5,0.5,0.5],[1,0,-1,1],[9E+09,9E+09,9E+09,9E+09,9E+09,9E+09]], v200, z50, toolSprayGun;
MoveL [[492.274,670.711,520.792],[0.5,-0.5,0.5,0.5],[1,0,-1,1],[9E+09,9E+09,9E+09,9E+09,9E+09,9E+09]], v200, z50, toolSprayGun;
MoveL [[492.81,671.687,517.982],[0.5,-0.5,0.5,0.5],[1,0,-1,1],[9E+09,9E+09,9E+09,9E+09,9E+09,9E+09]], v200, z50, toolSprayGun;
MoveL [[493.903,671.707,515.729],[0.5,-0.5,0.5,0.5],[1,0,-1,1],[9E+09,9E+09,9E+09,9E+09,9E+09,9E+09]], v200, z50, toolSprayGun;
MoveL [[493.748,670.13,515.559],[0.5,-0.5,0.5,0.5],[1,0,-1,1],[9E+09,9E+09,9E+09,9E+09,9E+09,9E+09]], v200, z50, toolSprayGun;
MoveL [[493.587,670.689,514.601],[0.5,-0.5,0.5,0.5],[1,0,-1,1],[9E+09,9E+09,9E+09,9E+09,9E+09,9E+09]], v200, z50, toolSprayGun;
MoveL [[491.472,670.066,514.274],[0.5,-0.5,0.5,0.5],[1,0,-1,1],[9E+09,9E+09,9E+09,9E+09,9E+09,9E+09]], v200, z50, toolSprayGun;
MoveL [[490.357,670.389,513.782],[0.5,-0.5,0.5,0.5],[1,0,-1,1],[9E+09,9E+09,9E+09,9E+09,9E+09,9E+09]], v200, z50, toolSprayGun;
MoveL [[485.693,670.918,514.456],[0.5,-0.5,0.5,0.5],[1,0,-1,1],[9E+09,9E+09,9E+09,9E+09,9E+09,9E+09]], v200, z50, toolSprayGun;
MoveL [[481.795,671.8,514.217],[0.5,-0.5,0.5,0.5],[1,0,-1,1],[9E+09,9E+09,9E+09,9E+09,9E+09,9E+09]], v200, z50, toolSprayGun;
MoveL [[478.802,669.23,515.463],[0.5,-0.5,0.5,0.5],[1,0,-1,1],[9E+09,9E+09,9E+09,9E+09,9E+09,9E+09]], v200, z50, toolSprayGun;
MoveL [[474.591,670.066,515.815],[0.5,-0.5,0.5,0.5],[1,0,-1,1],[9E+09,9E+09,9E+09,9E+09,9E+09,9E+09]], v200, z50, toolSprayGun;
MoveL [[467.589,669.562,516.725],[0.5,-0.5,0.5,0.5],[1,0,-1,1],[9E+09,9E+09,9E+09,9E+09,9E+09,9E+09]], v200, z50, toolSprayGun;
MoveL [[462.907,668.01,516.999],[0.5,-0.5,0.5,0.5],[1,0,-1,1],[9E+09,9E+09,9E+09,9E+09,9E+09,9E+09]], v200, z50, toolSprayGun;
MoveL [[454.917,666.272,517.759],[0.5,-0.5,0.5,0.5],[1,0,-1,1],[9E+09,9E+09,9E+09,9E+09,9E+09,9E+09]], v200, z50, toolSprayGun;
MoveL [[448.104,666.483,518.994],[0.5,-0.5,0.5,0.5],[1,0,-1,1],[9E+09,9E+09,9E+09,9E+09,9E+09,9E+09]], v200, z50, toolSprayGun;
MoveL [[438.681,665.877,519.479],[0.5,-0.5,0.5,0.5],[1,0,-1,1],[9E+09,9E+09,9E+09,9E+09,9E+09,9E+09]], v200, z50, toolSprayGun;
MoveL [[430.322,665.12,520.931],[0.5,-0.5,0.5,0.5],[1,0,-1,1],[9E+09,9E+09,9E+09,9E+09,9E+09,9E+09]], v200, z50, toolSprayGun;
MoveL [[421.856,663.856,521.411],[0.5,-0.5,0.5,0.5],[1,0,-1,1],[9E+09,9E+09,9E+09,9E+09,9E+09,9E+09]], v200, z50, toolSprayGun;
MoveL [[415.146,663.301,521.151],[0.5,-0.5,0.5,0.5],[1,0,-1,1],[9E+09,9E+09,9E+09,9E+09,9E+09,9E+09]], v200, z50, toolSprayGun;
MoveL [[404.227,663.392,521.798],[0.5,-0.5,0.5,0.5],[1,0,-1,1],[9E+09,9E+09,9E+09,9E+09,9E+09,9E+09]], v200, z50, toolSprayGun;
MoveL [[396.143,664.84,522.356],[0.5,-0.5,0.5,0.5],[1,0,-1,1],[9E+09,9E+09,9E+09,9E+09,9E+09,9E+09]], v200, z50, toolSprayGun;
MoveL [[385.373,664.683,522.595],[0.5,-0.5,0.5,0.5],[1,0,-1,1],[9E+09,9E+09,9E+09,9E+09,9E+09,9E+09]], v200, z50, toolSprayGun;
MoveL [[378.386,664.074,523.776],[0.5,-0.5,0.5,0.5],[1,0,-1,1],[9E+09,9E+09,9E+09,9E+09,9E+09,9E+09]], v200, z50, toolSprayGun;
MoveL [[369.158,661.723,524.418],[0.5,-0.5,0.5,0.5],[1,0,-1,1],[9E+09,9E+09,9E+09,9E+09,9E+09,9E+09]], v200, z50, toolSprayGun;
MoveL [[361.226,661.646,525.698],[0.5,-0.5,0.5,0.5],[1,0,-1,1],[9E+09,9E+09,9E+09,9E+09,9E+09,9E+09]], v200, z50, toolSprayGun;
MoveL [[352.477,661.036,527.142],[0.5,-0.5,0.5,0.5],[1,0,-1,1],[9E+09,9E+09,9E+09,9E+09,9E+09,9E+09]], v200, z50, toolSprayGun;
MoveL [[344.675,660.878,528.159],[0.5,-0.5,0.5,0.5],[1,0,-1,1],[9E+09,9E+09,9E+09,9E+09,9E+09,9E+09]], v200, z50, toolSprayGun;
MoveL [[333.972,659.243,528.89],[0.5,-0.5,0.5,0.5],[1,0,-1,1],[9E+09,9E+09,9E+09,9E+09,9E+09,9E+09]], v200, z50, toolSprayGun;
MoveL [[325.595,659.229,529.352],[0.5,-0.5,0.5,0.5],[1,0,-1,1],[9E+09,9E+09,9E+09,9E+09,9E+09,9E+09]], v200, z50, toolSprayGun;
MoveL [[315.074,659.785,528.331],[0.5,-0.5,0.5,0.5],[1,0,-1,1],[9E+09,9E+09,9E+09,9E+09,9E+09,9E+09]], v200, z50, toolSprayGun;
MoveL [[306.633,660.497,529.79],[0.5,-0.5,0.5,0.5],[1,0,-1,1],[9E+09,9E+09,9E+09,9E+09,9E+09,9E+09]], v200, z50, toolSprayGun;
MoveL [[297.845,659.046,530.688],[0.5,-0.5,0.5,0.5],[1,0,-1,1],[9E+09,9E+09,9E+09,9E+09,9E+09,9E+09]], v200, z50, toolSprayGun;
MoveL [[290.17,658.897,531.64],[0.5,-0.5,0.5,0.5],[1,0,-1,1],[9E+09,9E+09,9E+09,9E+09,9E+09,9E+09]], v200, z50, toolSprayGun;
MoveL [[280.206,658.484,532.576],[0.5,-0.5,0.5,0.5],[1,0,-1,1],[9E+09,9E+09,9E+09,9E+09,9E+09,9E+09]], v200, z50, toolSprayGun;
MoveL [[270.402,659.309,533.302],[0.5,-0.5,0.5,0.5],[1,0,-1,1],[9E+09,9E+09,9E+09,9E+09,9E+09,9E+09]], v200, z50, toolSprayGun;
MoveL [[260.999,660.326,535.903],[0.5,-0.5,0.5,0.5],[1,0,-1,1],[9E+09,9E+09,9E+09,9E+09,9E+09,9E+09]], v200, z50, toolSprayGun;
MoveL [[252.998,659.253,536.691],[0.5,-0.5,0.5,0.5],[1,0,-1,1],[9E+09,9E+09,9E+09,9E+09,9E+09,9E+09]], v200, z50, toolSprayGun;
MoveL [[243.388,658.113,538.046],[0.5,-0.5,0.5,0.5],[1,0,-1,1],[9E+09,9E+09,9E+09,9E+09,9E+09,9E+09]], v200, z50, toolSprayGun;
MoveL [[234.684,657.601,538.73],[0.5,-0.5,0.5,0.5],[1,0,-1,1],[9E+09,9E+09,9E+09,9E+09,9E+09,9E+09]], v200, z50, toolSprayGun;
MoveL [[223.64,657.297,539.524],[0.5,-0.5,0.5,0.5],[1,0,-1,1],[9E+09,9E+09,9E+09,9E+09,9E+09,9E+09]], v200, z50, toolSprayGun;
MoveL [[215.814,655.545,539.836],[0.5,-0.5,0.5,0.5],[1,0,-1,1],[9E+09,9E+09,9E+09,9E+09,9E+09,9E+09]], v200, z50, toolSprayGun;
MoveL [[205.901,656.896,543.651],[0.5,-0.5,0.5,0.5],[1,0,-1,1],[9E+09,9E+09,9E+09,9E+09,9E+09,9E+09]], v200, z50, toolSprayGun;
MoveL [[198.549,656.272,544.516],[0.5,-0.5,0.5,0.5],[1,0,-1,1],[9E+09,9E+09,9E+09,9E+09,9E+09,9E+09]], v200, z50, toolSprayGun;
MoveL [[187.322,654.803,545.171],[0.5,-0.5,0.5,0.5],[1,0,-1,1],[9E+09,9E+09,9E+09,9E+09,9E+09,9E+09]], v200, z50, toolSprayGun;
MoveL [[176.895,655.199,546.982],[0.5,-0.5,0.5,0.5],[1,0,-1,1],[9E+09,9E+09,9E+09,9E+09,9E+09,9E+09]], v200, z50, toolSprayGun;
MoveL [[163.271,658.413,548.216],[0.5,-0.5,0.5,0.5],[1,0,-1,1],[9E+09,9E+09,9E+09,9E+09,9E+09,9E+09]], v200, z50, toolSprayGun;
MoveL [[153.93,659.254,549.171],[0.5,-0.5,0.5,0.5],[1,0,-1,1],[9E+09,9E+09,9E+09,9E+09,9E+09,9E+09]], v200, z50, toolSprayGun;
MoveL [[143.839,656.674,549.91],[0.5,-0.5,0.5,0.5],[1,0,-1,1],[9E+09,9E+09,9E+09,9E+09,9E+09,9E+09]], v200, z50, toolSprayGun;
MoveL [[133.767,656.03,550.361],[0.5,-0.5,0.5,0.5],[1,0,-1,1],[9E+09,9E+09,9E+09,9E+09,9E+09,9E+09]], v200, z50, toolSprayGun;
MoveL [[119.305,655.511,549.952],[0.5,-0.5,0.5,0.5],[1,0,-1,1],[9E+09,9E+09,9E+09,9E+09,9E+09,9E+09]], v200, z50, toolSprayGun;
MoveL [[109.514,654.704,549.745],[0.5,-0.5,0.5,0.5],[1,0,-1,1],[9E+09,9E+09,9E+09,9E+09,9E+09,9E+09]], v200, z50, toolSprayGun;
MoveL [[97.8027,656.619,550.42],[0.5,-0.5,0.5,0.5],[1,0,-1,1],[9E+09,9E+09,9E+09,9E+09,9E+09,9E+09]], v200, z50, toolSprayGun;
MoveL [[87.5435,656.187,549.69],[0.5,-0.5,0.5,0.5],[1,0,-1,1],[9E+09,9E+09,9E+09,9E+09,9E+09,9E+09]], v200, z50, toolSprayGun;
MoveL [[75.5686,658.101,549.636],[0.5,-0.5,0.5,0.5],[1,0,-1,1],[9E+09,9E+09,9E+09,9E+09,9E+09,9E+09]], v200, z50, toolSprayGun;
MoveL [[65.5209,658.014,549.861],[0.5,-0.5,0.5,0.5],[1,0,-1,1],[9E+09,9E+09,9E+09,9E+09,9E+09,9E+09]], v200, z50, toolSprayGun;
MoveL [[55.1313,658.333,550.521],[0.5,-0.5,0.5,0.5],[1,0,-1,1],[9E+09,9E+09,9E+09,9E+09,9E+09,9E+09]], v200, z50, toolSprayGun;
MoveL [[45.4471,659.626,551.503],[0.5,-0.5,0.5,0.5],[1,0,-1,1],[9E+09,9E+09,9E+09,9E+09,9E+09,9E+09]], v200, z50, toolSprayGun;
MoveL [[35.6213,662.335,554.114],[0.5,-0.5,0.5,0.5],[1,0,-1,1],[9E+09,9E+09,9E+09,9E+09,9E+09,9E+09]], v200, z50, toolSprayGun;
MoveL [[24.7321,665.06,555.484],[0.5,-0.5,0.5,0.5],[1,0,-1,1],[9E+09,9E+09,9E+09,9E+09,9E+09,9E+09]], v200, z50, toolSprayGun;
MoveL [[17.3135,673.738,556.77],[0.5,-0.5,0.5,0.5],[1,0,-1,1],[9E+09,9E+09,9E+09,9E+09,9E+09,9E+09]], v200, z50, toolSprayGun;
MoveL [[9.52858,676.243,556.759],[0.5,-0.5,0.5,0.5],[1,0,-1,1],[9E+09,9E+09,9E+09,9E+09,9E+09,9E+09]], v200, z50, toolSprayGun;
MoveL [[1.25826,671.996,558.1],[0.5,-0.5,0.5,0.5],[1,0,-1,1],[9E+09,9E+09,9E+09,9E+09,9E+09,9E+09]], v200, z50, toolSprayGun;
MoveL [[-6.21847,671.694,559.331],[0.5,-0.5,0.5,0.5],[1,0,-1,1],[9E+09,9E+09,9E+09,9E+09,9E+09,9E+09]], v200, z50, toolSprayGun;
MoveL [[-13.3816,670.699,559.402],[0.5,-0.5,0.5,0.5],[1,0,-1,1],[9E+09,9E+09,9E+09,9E+09,9E+09,9E+09]], v200, z50, toolSprayGun;
MoveL [[-20.739,670.665,558.811],[0.5,-0.5,0.5,0.5],[1,0,-1,1],[9E+09,9E+09,9E+09,9E+09,9E+09,9E+09]], v200, z50, toolSprayGun;
MoveL [[-28.3103,676.189,556.441],[0.5,-0.5,0.5,0.5],[1,0,-1,1],[9E+09,9E+09,9E+09,9E+09,9E+09,9E+09]], v200, z50, toolSprayGun;
MoveL [[-35.2766,676.778,555.382],[0.5,-0.5,0.5,0.5],[1,0,-1,1],[9E+09,9E+09,9E+09,9E+09,9E+09,9E+09]], v200, z50, toolSprayGun;
MoveL [[-44.8852,676.351,553.978],[0.5,-0.5,0.5,0.5],[1,0,-1,1],[9E+09,9E+09,9E+09,9E+09,9E+09,9E+09]], v200, z50, toolSprayGun;
MoveL [[-52.0029,677.11,553.376],[0.5,-0.5,0.5,0.5],[1,0,-1,1],[9E+09,9E+09,9E+09,9E+09,9E+09,9E+09]], v200, z50, toolSprayGun;
MoveL [[-60.3485,678.895,552.63],[0.5,-0.5,0.5,0.5],[1,0,-1,1],[9E+09,9E+09,9E+09,9E+09,9E+09,9E+09]], v200, z50, toolSprayGun;
MoveL [[-64.5729,679.816,553.241],[0.5,-0.5,0.5,0.5],[1,0,-1,1],[9E+09,9E+09,9E+09,9E+09,9E+09,9E+09]], v200, z50, toolSprayGun;
MoveL [[-68.9498,679.856,554.58],[0.5,-0.5,0.5,0.5],[1,0,-1,1],[9E+09,9E+09,9E+09,9E+09,9E+09,9E+09]], v200, z50, toolSprayGun;
MoveL [[-72.171,681.031,555.352],[0.5,-0.5,0.5,0.5],[1,0,-1,1],[9E+09,9E+09,9E+09,9E+09,9E+09,9E+09]], v200, z50, toolSprayGun;
MoveL [[-70.9597,683.749,557.504],[0.5,-0.5,0.5,0.5],[1,0,-1,1],[9E+09,9E+09,9E+09,9E+09,9E+09,9E+09]], v200, z50, toolSprayGun;
MoveL [[-70.4792,684.384,559.209],[0.5,-0.5,0.5,0.5],[1,0,-1,1],[9E+09,9E+09,9E+09,9E+09,9E+09,9E+09]], v200, z50, toolSprayGun;
MoveL [[-67.1314,681.986,563.02],[0.5,-0.5,0.5,0.5],[1,0,-1,1],[9E+09,9E+09,9E+09,9E+09,9E+09,9E+09]], v200, z50, toolSprayGun;
MoveL [[-65.5612,680.838,565.838],[0.5,-0.5,0.5,0.5],[1,0,-1,1],[9E+09,9E+09,9E+09,9E+09,9E+09,9E+09]], v200, z50, toolSprayGun;
MoveL [[-58.8693,680.233,569.491],[0.5,-0.5,0.5,0.5],[1,0,-1,1],[9E+09,9E+09,9E+09,9E+09,9E+09,9E+09]], v200, z50, toolSprayGun;
MoveL [[-55.054,679.216,572.149],[0.5,-0.5,0.5,0.5],[1,0,-1,1],[9E+09,9E+09,9E+09,9E+09,9E+09,9E+09]], v200, z50, toolSprayGun;
MoveL [[-46.5496,675.977,578.461],[0.5,-0.5,0.5,0.5],[1,0,-1,1],[9E+09,9E+09,9E+09,9E+09,9E+09,9E+09]], v200, z50, toolSprayGun;
MoveL [[-42.3594,670.408,582.422],[0.5,-0.5,0.5,0.5],[1,0,-1,1],[9E+09,9E+09,9E+09,9E+09,9E+09,9E+09]], v200, z50, toolSprayGun;
MoveL [[-34.1408,667.25,586.665],[0.5,-0.5,0.5,0.5],[1,0,-1,1],[9E+09,9E+09,9E+09,9E+09,9E+09,9E+09]], v200, z50, toolSprayGun;
MoveL [[-30.314,662.103,587.785],[0.5,-0.5,0.5,0.5],[1,0,-1,1],[9E+09,9E+09,9E+09,9E+09,9E+09,9E+09]], v200, z50, toolSprayGun;
MoveL [[-20.9019,659.895,591.972],[0.5,-0.5,0.5,0.5],[1,0,-1,1],[9E+09,9E+09,9E+09,9E+09,9E+09,9E+09]], v200, z50, toolSprayGun;
MoveL [[-14.7777,660.837,594.246],[0.5,-0.5,0.5,0.5],[1,0,-1,1],[9E+09,9E+09,9E+09,9E+09,9E+09,9E+09]], v200, z50, toolSprayGun;
MoveL [[-5.87728,656.803,599.76],[0.5,-0.5,0.5,0.5],[1,0,-1,1],[9E+09,9E+09,9E+09,9E+09,9E+09,9E+09]], v200, z50, toolSprayGun;
MoveL [[-0.943349,655.374,601.834],[0.5,-0.5,0.5,0.5],[1,0,-1,1],[9E+09,9E+09,9E+09,9E+09,9E+09,9E+09]], v200, z50, toolSprayGun;
MoveL [[6.67462,653.904,607.58],[0.5,-0.5,0.5,0.5],[1,0,-1,1],[9E+09,9E+09,9E+09,9E+09,9E+09,9E+09]], v200, z50, toolSprayGun;
MoveL [[12.4089,650.214,611.031],[0.5,-0.5,0.5,0.5],[1,0,-1,1],[9E+09,9E+09,9E+09,9E+09,9E+09,9E+09]], v200, z50, toolSprayGun;
MoveL [[23.5295,644.15,618.836],[0.5,-0.5,0.5,0.5],[1,0,-1,1],[9E+09,9E+09,9E+09,9E+09,9E+09,9E+09]], v200, z50, toolSprayGun;
MoveL [[26.1782,644.085,621.275],[0.5,-0.5,0.5,0.5],[1,0,-1,1],[9E+09,9E+09,9E+09,9E+09,9E+09,9E+09]], v200, z50, toolSprayGun;
MoveL [[36.4379,638.629,629.403],[0.5,-0.5,0.5,0.5],[1,0,-1,1],[9E+09,9E+09,9E+09,9E+09,9E+09,9E+09]], v200, z50, toolSprayGun;
MoveL [[43.4876,635.173,634.129],[0.5,-0.5,0.5,0.5],[1,0,-1,1],[9E+09,9E+09,9E+09,9E+09,9E+09,9E+09]], v200, z50, toolSprayGun;
MoveL [[50.3064,633.277,639.693],[0.5,-0.5,0.5,0.5],[1,0,-1,1],[9E+09,9E+09,9E+09,9E+09,9E+09,9E+09]], v200, z50, toolSprayGun;
MoveL [[60.1861,633.296,646.331],[0.5,-0.5,0.5,0.5],[1,0,-1,1],[9E+09,9E+09,9E+09,9E+09,9E+09,9E+09]], v200, z50, toolSprayGun;
MoveL [[73.4183,636.757,654.499],[0.5,-0.5,0.5,0.5],[1,0,-1,1],[9E+09,9E+09,9E+09,9E+09,9E+09,9E+09]], v200, z50, toolSprayGun;
MoveL [[84.2251,637.743,661.193],[0.5,-0.5,0.5,0.5],[1,0,-1,1],[9E+09,9E+09,9E+09,9E+09,9E+09,9E+09]], v200, z50, toolSprayGun;
MoveL [[94.5786,637.428,668.712],[0.5,-0.5,0.5,0.5],[1,0,-1,1],[9E+09,9E+09,9E+09,9E+09,9E+09,9E+09]], v200, z50, toolSprayGun;
MoveL [[101.408,636.288,674.789],[0.5,-0.5,0.5,0.5],[1,0,-1,1],[9E+09,9E+09,9E+09,9E+09,9E+09,9E+09]], v200, z50, toolSprayGun;
MoveL [[112.505,635.493,683.083],[0.5,-0.5,0.5,0.5],[1,0,-1,1],[9E+09,9E+09,9E+09,9E+09,9E+09,9E+09]], v200, z50, toolSprayGun;
MoveL [[118.699,636.126,687.427],[0.5,-0.5,0.5,0.5],[1,0,-1,1],[9E+09,9E+09,9E+09,9E+09,9E+09,9E+09]], v200, z50, toolSprayGun;
MoveL [[128.525,636.344,695.789],[0.5,-0.5,0.5,0.5],[1,0,-1,1],[9E+09,9E+09,9E+09,9E+09,9E+09,9E+09]], v200, z50, toolSprayGun;
MoveL [[135.06,636.406,700.759],[0.5,-0.5,0.5,0.5],[1,0,-1,1],[9E+09,9E+09,9E+09,9E+09,9E+09,9E+09]], v200, z50, toolSprayGun;
MoveL [[145.223,638.288,706.786],[0.5,-0.5,0.5,0.5],[1,0,-1,1],[9E+09,9E+09,9E+09,9E+09,9E+09,9E+09]], v200, z50, toolSprayGun;
MoveL [[152.148,637.499,712.719],[0.5,-0.5,0.5,0.5],[1,0,-1,1],[9E+09,9E+09,9E+09,9E+09,9E+09,9E+09]], v200, z50, toolSprayGun;
MoveL [[159.169,636.789,718.335],[0.5,-0.5,0.5,0.5],[1,0,-1,1],[9E+09,9E+09,9E+09,9E+09,9E+09,9E+09]], v200, z50, toolSprayGun;
MoveL [[167.643,635.161,725.621],[0.5,-0.5,0.5,0.5],[1,0,-1,1],[9E+09,9E+09,9E+09,9E+09,9E+09,9E+09]], v200, z50, toolSprayGun;
MoveL [[173.968,636.592,730.176],[0.5,-0.5,0.5,0.5],[1,0,-1,1],[9E+09,9E+09,9E+09,9E+09,9E+09,9E+09]], v200, z50, toolSprayGun;
MoveL [[180.888,638.92,735.429],[0.5,-0.5,0.5,0.5],[1,0,-1,1],[9E+09,9E+09,9E+09,9E+09,9E+09,9E+09]], v200, z50, toolSprayGun;
MoveL [[189.082,637.739,741.133],[0.5,-0.5,0.5,0.5],[1,0,-1,1],[9E+09,9E+09,9E+09,9E+09,9E+09,9E+09]], v200, z50, toolSprayGun;
MoveL [[196.064,638.25,745.881],[0.5,-0.5,0.5,0.5],[1,0,-1,1],[9E+09,9E+09,9E+09,9E+09,9E+09,9E+09]], v200, z50, toolSprayGun;
MoveL [[208.581,639.036,757.062],[0.5,-0.5,0.5,0.5],[1,0,-1,1],[9E+09,9E+09,9E+09,9E+09,9E+09,9E+09]], v200, z50, toolSprayGun;
MoveL [[214.237,640.623,760.521],[0.5,-0.5,0.5,0.5],[1,0,-1,1],[9E+09,9E+09,9E+09,9E+09,9E+09,9E+09]], v200, z50, toolSprayGun;
MoveL [[223.105,639.822,766.377],[0.5,-0.5,0.5,0.5],[1,0,-1,1],[9E+09,9E+09,9E+09,9E+09,9E+09,9E+09]], v200, z50, toolSprayGun;
MoveL [[228.737,639.371,768.68],[0.5,-0.5,0.5,0.5],[1,0,-1,1],[9E+09,9E+09,9E+09,9E+09,9E+09,9E+09]], v200, z50, toolSprayGun;
MoveL [[236.423,637.577,771.611],[0.5,-0.5,0.5,0.5],[1,0,-1,1],[9E+09,9E+09,9E+09,9E+09,9E+09,9E+09]], v200, z50, toolSprayGun;
MoveL [[244.464,639.878,776.866],[0.5,-0.5,0.5,0.5],[1,0,-1,1],[9E+09,9E+09,9E+09,9E+09,9E+09,9E+09]], v200, z50, toolSprayGun;
MoveL [[248.255,640.938,779.114],[0.5,-0.5,0.5,0.5],[1,0,-1,1],[9E+09,9E+09,9E+09,9E+09,9E+09,9E+09]], v200, z50, toolSprayGun;
MoveL [[254.359,642.808,783.837],[0.5,-0.5,0.5,0.5],[1,0,-1,1],[9E+09,9E+09,9E+09,9E+09,9E+09,9E+09]], v200, z50, toolSprayGun;
MoveL [[258.78,644.532,787.451],[0.5,-0.5,0.5,0.5],[1,0,-1,1],[9E+09,9E+09,9E+09,9E+09,9E+09,9E+09]], v200, z50, toolSprayGun;
MoveL [[262.472,645.68,789.731],[0.5,-0.5,0.5,0.5],[1,0,-1,1],[9E+09,9E+09,9E+09,9E+09,9E+09,9E+09]], v200, z50, toolSprayGun;
MoveL [[267.114,648.625,793.213],[0.5,-0.5,0.5,0.5],[1,0,-1,1],[9E+09,9E+09,9E+09,9E+09,9E+09,9E+09]], v200, z50, toolSprayGun;
MoveL [[271.082,649.997,797.939],[0.5,-0.5,0.5,0.5],[1,0,-1,1],[9E+09,9E+09,9E+09,9E+09,9E+09,9E+09]], v200, z50, toolSprayGun;
MoveL [[271.999,650.457,799.172],[0.5,-0.5,0.5,0.5],[1,0,-1,1],[9E+09,9E+09,9E+09,9E+09,9E+09,9E+09]], v200, z50, toolSprayGun;
MoveL [[275.306,652.62,804.031],[0.5,-0.5,0.5,0.5],[1,0,-1,1],[9E+09,9E+09,9E+09,9E+09,9E+09,9E+09]], v200, z50, toolSprayGun;
MoveL [[276.499,653.403,805.225],[0.5,-0.5,0.5,0.5],[1,0,-1,1],[9E+09,9E+09,9E+09,9E+09,9E+09,9E+09]], v200, z50, toolSprayGun;
MoveL [[276.676,654.254,806.233],[0.5,-0.5,0.5,0.5],[1,0,-1,1],[9E+09,9E+09,9E+09,9E+09,9E+09,9E+09]], v200, z50, toolSprayGun;
MoveL [[277.442,654.967,806.987],[0.5,-0.5,0.5,0.5],[1,0,-1,1],[9E+09,9E+09,9E+09,9E+09,9E+09,9E+09]], v200, z50, toolSprayGun;
MoveL [[278.019,655.38,807.715],[0.5,-0.5,0.5,0.5],[1,0,-1,1],[9E+09,9E+09,9E+09,9E+09,9E+09,9E+09]], v200, z50, toolSprayGun;
MoveL [[277.742,655.221,808.152],[0.5,-0.5,0.5,0.5],[1,0,-1,1],[9E+09,9E+09,9E+09,9E+09,9E+09,9E+09]], v200, z50, toolSprayGun;
MoveL [[277.857,656.114,808.82],[0.5,-0.5,0.5,0.5],[1,0,-1,1],[9E+09,9E+09,9E+09,9E+09,9E+09,9E+09]], v200, z50, toolSprayGun;
MoveL [[278.572,656.63,809.403],[0.5,-0.5,0.5,0.5],[1,0,-1,1],[9E+09,9E+09,9E+09,9E+09,9E+09,9E+09]], v200, z50, toolSprayGun;
MoveL [[278.766,656.741,809.557],[0.5,-0.5,0.5,0.5],[1,0,-1,1],[9E+09,9E+09,9E+09,9E+09,9E+09,9E+09]], v200, z50, toolSprayGun;
MoveL [[278.653,657.137,809.599],[0.5,-0.5,0.5,0.5],[1,0,-1,1],[9E+09,9E+09,9E+09,9E+09,9E+09,9E+09]], v200, z50, toolSprayGun;
MoveL [[279.441,657.613,810.392],[0.5,-0.5,0.5,0.5],[1,0,-1,1],[9E+09,9E+09,9E+09,9E+09,9E+09,9E+09]], v200, z50, toolSprayGun;
MoveL [[279.805,657.653,810.106],[0.5,-0.5,0.5,0.5],[1,0,-1,1],[9E+09,9E+09,9E+09,9E+09,9E+09,9E+09]], v200, z50, toolSprayGun;
MoveL [[279.976,658.144,809.61],[0.5,-0.5,0.5,0.5],[1,0,-1,1],[9E+09,9E+09,9E+09,9E+09,9E+09,9E+09]], v200, z50, toolSprayGun;
MoveL [[280.794,658.621,809.073],[0.5,-0.5,0.5,0.5],[1,0,-1,1],[9E+09,9E+09,9E+09,9E+09,9E+09,9E+09]], v200, z50, toolSprayGun;
MoveL [[281.382,659.243,807.88],[0.5,-0.5,0.5,0.5],[1,0,-1,1],[9E+09,9E+09,9E+09,9E+09,9E+09,9E+09]], v200, z50, toolSprayGun;
MoveL [[282.163,659.24,806.366],[0.5,-0.5,0.5,0.5],[1,0,-1,1],[9E+09,9E+09,9E+09,9E+09,9E+09,9E+09]], v200, z50, toolSprayGun;
MoveL [[282.867,658.965,805.874],[0.5,-0.5,0.5,0.5],[1,0,-1,1],[9E+09,9E+09,9E+09,9E+09,9E+09,9E+09]], v200, z50, toolSprayGun;
MoveL [[283.923,660.137,804.345],[0.5,-0.5,0.5,0.5],[1,0,-1,1],[9E+09,9E+09,9E+09,9E+09,9E+09,9E+09]], v200, z50, toolSprayGun;
MoveL [[284.501,660.07,803.919],[0.5,-0.5,0.5,0.5],[1,0,-1,1],[9E+09,9E+09,9E+09,9E+09,9E+09,9E+09]], v200, z50, toolSprayGun;
MoveL [[285.001,659.614,803.507],[0.5,-0.5,0.5,0.5],[1,0,-1,1],[9E+09,9E+09,9E+09,9E+09,9E+09,9E+09]], v200, z50, toolSprayGun;
MoveL [[285.37,659.351,803.383],[0.5,-0.5,0.5,0.5],[1,0,-1,1],[9E+09,9E+09,9E+09,9E+09,9E+09,9E+09]], v200, z50, toolSprayGun;
MoveL [[285.947,659.058,803.027],[0.5,-0.5,0.5,0.5],[1,0,-1,1],[9E+09,9E+09,9E+09,9E+09,9E+09,9E+09]], v200, z50, toolSprayGun;
MoveL [[286.222,659.4,802.521],[0.5,-0.5,0.5,0.5],[1,0,-1,1],[9E+09,9E+09,9E+09,9E+09,9E+09,9E+09]], v200, z50, toolSprayGun;
MoveL [[286.699,660.248,802.208],[0.5,-0.5,0.5,0.5],[1,0,-1,1],[9E+09,9E+09,9E+09,9E+09,9E+09,9E+09]], v200, z50, toolSprayGun;
ENDPROC
ENDMODULE
