MODULE MainModule
PROC main()
MoveL [[542.377,403.023,629.931],[0.5,-0.5,0.5,0.5],[1,0,-1,0],[9E+09,9E+09,9E+09,9E+09,9E+09,9E+09]], v200, z50, toolSprayGun;
MoveL [[542.634,402.962,630.121],[0.5,-0.5,0.5,0.5],[1,0,-1,0],[9E+09,9E+09,9E+09,9E+09,9E+09,9E+09]], v200, z50, toolSprayGun;
MoveL [[542.768,402.878,630.032],[0.5,-0.5,0.5,0.5],[1,0,-1,0],[9E+09,9E+09,9E+09,9E+09,9E+09,9E+09]], v200, z50, toolSprayGun;
MoveL [[542.872,402.472,630.375],[0.5,-0.5,0.5,0.5],[1,0,-1,0],[9E+09,9E+09,9E+09,9E+09,9E+09,9E+09]], v200, z50, toolSprayGun;
MoveL [[543.035,402.404,630.534],[0.5,-0.5,0.5,0.5],[1,0,-1,0],[9E+09,9E+09,9E+09,9E+09,9E+09,9E+09]], v200, z50, toolSprayGun;
MoveL [[543.243,402.081,630.973],[0.5,-0.5,0.5,0.5],[1,0,-1,0],[9E+09,9E+09,9E+09,9E+09,9E+09,9E+09]], v200, z50, toolSprayGun;
MoveL [[543.721,402.008,631.46],[0.5,-0.5,0.5,0.5],[1,0,-1,0],[9E+09,9E+09,9E+09,9E+09,9E+09,9E+09]], v200, z50, toolSprayGun;
MoveL [[543.421,401.924,631.486],[0.5,-0.5,0.5,0.5],[1,0,-1,0],[9E+09,9E+09,9E+09,9E+09,9E+09,9E+09]], v200, z50, toolSprayGun;
MoveL [[543.586,401.827,631.708],[0.5,-0.5,0.5,0.5],[1,0,-1,0],[9E+09,9E+09,9E+09,9E+09,9E+09,9E+09]], v200, z50, toolSprayGun;
MoveL [[543.527,401.589,631.734],[0.5,-0.5,0.5,0.5],[1,0,-1,0],[9E+09,9E+09,9E+09,9E+09,9E+09,9E+09]], v200, z50, toolSprayGun;
MoveL [[543.486,401.496,631.562],[0.5,-0.5,0.5,0.5],[1,0,-1,0],[9E+09,9E+09,9E+09,9E+09,9E+09,9E+09]], v200, z50, toolSprayGun;
MoveL [[543.484,401.475,631.69],[0.5,-0.5,0.5,0.5],[1,0,-1,0],[9E+09,9E+09,9E+09,9E+09,9E+09,9E+09]], v200, z50, toolSprayGun;
MoveL [[543.546,401.424,631.798],[0.5,-0.5,0.5,0.5],[1,0,-1,0],[9E+09,9E+09,9E+09,9E+09,9E+09,9E+09]], v200, z50, toolSprayGun;
MoveL [[543.353,401.334,632.061],[0.5,-0.5,0.5,0.5],[1,0,-1,0],[9E+09,9E+09,9E+09,9E+09,9E+09,9E+09]], v200, z50, toolSprayGun;
MoveL [[543.501,401.402,632.116],[0.5,-0.5,0.5,0.5],[1,0,-1,0],[9E+09,9E+09,9E+09,9E+09,9E+09,9E+09]], v200, z50, toolSprayGun;
MoveL [[543.568,401.348,632.432],[0.5,-0.5,0.5,0.5],[1,0,-1,0],[9E+09,9E+09,9E+09,9E+09,9E+09,9E+09]], v200, z50, toolSprayGun;
MoveL [[543.518,401.278,633.063],[0.5,-0.5,0.5,0.5],[1,0,-1,0],[9E+09,9E+09,9E+09,9E+09,9E+09,9E+09]], v200, z50, toolSprayGun;
MoveL [[543.489,401.267,633.416],[0.5,-0.5,0.5,0.5],[1,0,-1,0],[9E+09,9E+09,9E+09,9E+09,9E+09,9E+09]], v200, z50, toolSprayGun;
MoveL [[543.736,401.23,633.747],[0.5,-0.5,0.5,0.5],[1,0,-1,0],[9E+09,9E+09,9E+09,9E+09,9E+09,9E+09]], v200, z50, toolSprayGun;
MoveL [[543.811,401.139,633.993],[0.5,-0.5,0.5,0.5],[1,0,-1,0],[9E+09,9E+09,9E+09,9E+09,9E+09,9E+09]], v200, z50, toolSprayGun;
MoveL [[543.945,401.116,634.248],[0.5,-0.5,0.5,0.5],[1,0,-1,0],[9E+09,9E+09,9E+09,9E+09,9E+09,9E+09]], v200, z50, toolSprayGun;
MoveL [[543.994,401.327,634.575],[0.5,-0.5,0.5,0.5],[1,0,-1,0],[9E+09,9E+09,9E+09,9E+09,9E+09,9E+09]], v200, z50, toolSprayGun;
MoveL [[544.063,401.262,634.813],[0.5,-0.5,0.5,0.5],[1,0,-1,0],[9E+09,9E+09,9E+09,9E+09,9E+09,9E+09]], v200, z50, toolSprayGun;
MoveL [[543.946,401.248,635.146],[0.5,-0.5,0.5,0.5],[1,0,-1,0],[9E+09,9E+09,9E+09,9E+09,9E+09,9E+09]], v200, z50, toolSprayGun;
MoveL [[543.99,401.196,635.328],[0.5,-0.5,0.5,0.5],[1,0,-1,0],[9E+09,9E+09,9E+09,9E+09,9E+09,9E+09]], v200, z50, toolSprayGun;
MoveL [[543.965,401.249,635.565],[0.5,-0.5,0.5,0.5],[1,0,-1,0],[9E+09,9E+09,9E+09,9E+09,9E+09,9E+09]], v200, z50, toolSprayGun;
MoveL [[543.671,401.55,634.972],[0.5,-0.5,0.5,0.5],[1,0,-1,0],[9E+09,9E+09,9E+09,9E+09,9E+09,9E+09]], v200, z50, toolSprayGun;
MoveL [[543.463,401.869,634.167],[0.5,-0.5,0.5,0.5],[1,0,-1,0],[9E+09,9E+09,9E+09,9E+09,9E+09,9E+09]], v200, z50, toolSprayGun;
MoveL [[543.288,401.753,633.194],[0.5,-0.5,0.5,0.5],[1,0,-1,0],[9E+09,9E+09,9E+09,9E+09,9E+09,9E+09]], v200, z50, toolSprayGun;
MoveL [[543.333,401.682,633.406],[0.5,-0.5,0.5,0.5],[1,0,-1,0],[9E+09,9E+09,9E+09,9E+09,9E+09,9E+09]], v200, z50, toolSprayGun;
MoveL [[543.201,401.364,632.592],[0.5,-0.5,0.5,0.5],[1,0,-1,0],[9E+09,9E+09,9E+09,9E+09,9E+09,9E+09]], v200, z50, toolSprayGun;
MoveL [[543.409,400.973,632.302],[0.5,-0.5,0.5,0.5],[1,0,-1,0],[9E+09,9E+09,9E+09,9E+09,9E+09,9E+09]], v200, z50, toolSprayGun;
MoveL [[543.518,400.651,632.555],[0.5,-0.5,0.5,0.5],[1,0,-1,0],[9E+09,9E+09,9E+09,9E+09,9E+09,9E+09]], v200, z50, toolSprayGun;
MoveL [[543.557,400.585,632.754],[0.5,-0.5,0.5,0.5],[1,0,-1,0],[9E+09,9E+09,9E+09,9E+09,9E+09,9E+09]], v200, z50, toolSprayGun;
MoveL [[543.615,400.171,632.957],[0.5,-0.5,0.5,0.5],[1,0,-1,0],[9E+09,9E+09,9E+09,9E+09,9E+09,9E+09]], v200, z50, toolSprayGun;
MoveL [[543.7,399.446,632.36],[0.5,-0.5,0.5,0.5],[1,0,-1,0],[9E+09,9E+09,9E+09,9E+09,9E+09,9E+09]], v200, z50, toolSprayGun;
MoveL [[544.085,398.284,632.422],[0.5,-0.5,0.5,0.5],[1,0,-1,0],[9E+09,9E+09,9E+09,9E+09,9E+09,9E+09]], v200, z50, toolSprayGun;
MoveL [[544.156,398.077,632.866],[0.5,-0.5,0.5,0.5],[1,0,-1,0],[9E+09,9E+09,9E+09,9E+09,9E+09,9E+09]], v200, z50, toolSprayGun;
MoveL [[544.722,397.107,632.729],[0.5,-0.5,0.5,0.5],[1,0,-1,0],[9E+09,9E+09,9E+09,9E+09,9E+09,9E+09]], v200, z50, toolSprayGun;
MoveL [[545.045,395.969,632.488],[0.5,-0.5,0.5,0.5],[1,0,-1,0],[9E+09,9E+09,9E+09,9E+09,9E+09,9E+09]], v200, z50, toolSprayGun;
MoveL [[545.692,394.793,633.195],[0.5,-0.5,0.5,0.5],[1,0,-1,0],[9E+09,9E+09,9E+09,9E+09,9E+09,9E+09]], v200, z50, toolSprayGun;
MoveL [[545.723,394.708,633.316],[0.5,-0.5,0.5,0.5],[1,0,-1,0],[9E+09,9E+09,9E+09,9E+09,9E+09,9E+09]], v200, z50, toolSprayGun;
MoveL [[546.515,393.247,633.92],[0.5,-0.5,0.5,0.5],[1,0,-1,0],[9E+09,9E+09,9E+09,9E+09,9E+09,9E+09]], v200, z50, toolSprayGun;
MoveL [[547.122,391.7,634.552],[0.5,-0.5,0.5,0.5],[1,0,-1,0],[9E+09,9E+09,9E+09,9E+09,9E+09,9E+09]], v200, z50, toolSprayGun;
MoveL [[547.582,389.35,634.721],[0.5,-0.5,0.5,0.5],[1,0,-1,0],[9E+09,9E+09,9E+09,9E+09,9E+09,9E+09]], v200, z50, toolSprayGun;
MoveL [[547.707,388.898,635.139],[0.5,-0.5,0.5,0.5],[1,0,-1,0],[9E+09,9E+09,9E+09,9E+09,9E+09,9E+09]], v200, z50, toolSprayGun;
MoveL [[548.227,386.649,634.966],[0.5,-0.5,0.5,0.5],[1,0,-1,0],[9E+09,9E+09,9E+09,9E+09,9E+09,9E+09]], v200, z50, toolSprayGun;
MoveL [[548.722,384.631,635.046],[0.5,-0.5,0.5,0.5],[1,0,-1,0],[9E+09,9E+09,9E+09,9E+09,9E+09,9E+09]], v200, z50, toolSprayGun;
MoveL [[549.885,383.023,634.859],[0.5,-0.5,0.5,0.5],[1,0,-1,0],[9E+09,9E+09,9E+09,9E+09,9E+09,9E+09]], v200, z50, toolSprayGun;
MoveL [[550.109,382.113,635.428],[0.5,-0.5,0.5,0.5],[1,0,-1,0],[9E+09,9E+09,9E+09,9E+09,9E+09,9E+09]], v200, z50, toolSprayGun;
MoveL [[551.174,379.454,635.549],[0.5,-0.5,0.5,0.5],[1,0,-1,0],[9E+09,9E+09,9E+09,9E+09,9E+09,9E+09]], v200, z50, toolSprayGun;
MoveL [[551.539,376.762,636.017],[0.5,-0.5,0.5,0.5],[1,0,-1,0],[9E+09,9E+09,9E+09,9E+09,9E+09,9E+09]], v200, z50, toolSprayGun;
MoveL [[551.608,374.629,635.777],[0.5,-0.5,0.5,0.5],[1,0,-1,0],[9E+09,9E+09,9E+09,9E+09,9E+09,9E+09]], v200, z50, toolSprayGun;
MoveL [[551.808,373.6,636.208],[0.5,-0.5,0.5,0.5],[1,0,-1,0],[9E+09,9E+09,9E+09,9E+09,9E+09,9E+09]], v200, z50, toolSprayGun;
MoveL [[551.965,371.327,636.237],[0.5,-0.5,0.5,0.5],[1,0,-1,0],[9E+09,9E+09,9E+09,9E+09,9E+09,9E+09]], v200, z50, toolSprayGun;
MoveL [[551.945,368.756,636.38],[0.5,-0.5,0.5,0.5],[1,0,-1,0],[9E+09,9E+09,9E+09,9E+09,9E+09,9E+09]], v200, z50, toolSprayGun;
MoveL [[552.366,366.952,636.471],[0.5,-0.5,0.5,0.5],[1,0,-1,0],[9E+09,9E+09,9E+09,9E+09,9E+09,9E+09]], v200, z50, toolSprayGun;
MoveL [[552.683,365.137,636.327],[0.5,-0.5,0.5,0.5],[1,0,-1,0],[9E+09,9E+09,9E+09,9E+09,9E+09,9E+09]], v200, z50, toolSprayGun;
MoveL [[552.834,363.935,636.701],[0.5,-0.5,0.5,0.5],[1,0,-1,0],[9E+09,9E+09,9E+09,9E+09,9E+09,9E+09]], v200, z50, toolSprayGun;
MoveL [[552.466,361.25,637.1],[0.5,-0.5,0.5,0.5],[1,0,-1,0],[9E+09,9E+09,9E+09,9E+09,9E+09,9E+09]], v200, z50, toolSprayGun;
MoveL [[552.127,358.405,636.784],[0.5,-0.5,0.5,0.5],[1,0,-1,0],[9E+09,9E+09,9E+09,9E+09,9E+09,9E+09]], v200, z50, toolSprayGun;
MoveL [[552.35,355.929,636.326],[0.5,-0.5,0.5,0.5],[1,0,-1,0],[9E+09,9E+09,9E+09,9E+09,9E+09,9E+09]], v200, z50, toolSprayGun;
MoveL [[552.465,354.299,636.595],[0.5,-0.5,0.5,0.5],[1,0,-1,0],[9E+09,9E+09,9E+09,9E+09,9E+09,9E+09]], v200, z50, toolSprayGun;
MoveL [[552.497,351.691,636.686],[0.5,-0.5,0.5,0.5],[1,0,-1,0],[9E+09,9E+09,9E+09,9E+09,9E+09,9E+09]], v200, z50, toolSprayGun;
MoveL [[552.133,348.234,636.793],[0.5,-0.5,0.5,0.5],[1,0,-1,0],[9E+09,9E+09,9E+09,9E+09,9E+09,9E+09]], v200, z50, toolSprayGun;
MoveL [[551.83,346.504,636.566],[0.5,-0.5,0.5,0.5],[1,0,-1,0],[9E+09,9E+09,9E+09,9E+09,9E+09,9E+09]], v200, z50, toolSprayGun;
MoveL [[551.865,345.445,636.776],[0.5,-0.5,0.5,0.5],[1,0,-1,0],[9E+09,9E+09,9E+09,9E+09,9E+09,9E+09]], v200, z50, toolSprayGun;
MoveL [[551.556,341.314,637.013],[0.5,-0.5,0.5,0.5],[1,0,-1,0],[9E+09,9E+09,9E+09,9E+09,9E+09,9E+09]], v200, z50, toolSprayGun;
MoveL [[551.884,337.121,637.494],[0.5,-0.5,0.5,0.5],[1,0,-1,0],[9E+09,9E+09,9E+09,9E+09,9E+09,9E+09]], v200, z50, toolSprayGun;
MoveL [[552.221,334.058,637.383],[0.5,-0.5,0.5,0.5],[1,0,-1,0],[9E+09,9E+09,9E+09,9E+09,9E+09,9E+09]], v200, z50, toolSprayGun;
MoveL [[552.247,331.881,637.758],[0.5,-0.5,0.5,0.5],[1,0,-1,0],[9E+09,9E+09,9E+09,9E+09,9E+09,9E+09]], v200, z50, toolSprayGun;
MoveL [[552.471,328.059,637.815],[0.5,-0.5,0.5,0.5],[1,0,-1,0],[9E+09,9E+09,9E+09,9E+09,9E+09,9E+09]], v200, z50, toolSprayGun;
MoveL [[552.974,325.16,637.504],[0.5,-0.5,0.5,0.5],[1,0,-1,0],[9E+09,9E+09,9E+09,9E+09,9E+09,9E+09]], v200, z50, toolSprayGun;
MoveL [[553.26,321.901,637.13],[0.5,-0.5,0.5,0.5],[1,0,-1,0],[9E+09,9E+09,9E+09,9E+09,9E+09,9E+09]], v200, z50, toolSprayGun;
MoveL [[553.165,318.202,637.097],[0.5,-0.5,0.5,0.5],[1,0,-1,0],[9E+09,9E+09,9E+09,9E+09,9E+09,9E+09]], v200, z50, toolSprayGun;
MoveL [[553.34,313.221,637.488],[0.5,-0.5,0.5,0.5],[1,0,-1,0],[9E+09,9E+09,9E+09,9E+09,9E+09,9E+09]], v200, z50, toolSprayGun;
MoveL [[553.344,310.202,638.071],[0.5,-0.5,0.5,0.5],[1,0,-1,0],[9E+09,9E+09,9E+09,9E+09,9E+09,9E+09]], v200, z50, toolSprayGun;
MoveL [[553.158,307.467,637.917],[0.5,-0.5,0.5,0.5],[1,0,-1,0],[9E+09,9E+09,9E+09,9E+09,9E+09,9E+09]], v200, z50, toolSprayGun;
MoveL [[553.068,303.792,638.048],[0.5,-0.5,0.5,0.5],[1,0,-1,0],[9E+09,9E+09,9E+09,9E+09,9E+09,9E+09]], v200, z50, toolSprayGun;
MoveL [[553.036,302.047,638.352],[0.5,-0.5,0.5,0.5],[1,0,-1,0],[9E+09,9E+09,9E+09,9E+09,9E+09,9E+09]], v200, z50, toolSprayGun;
MoveL [[553.549,297.831,638.408],[0.5,-0.5,0.5,0.5],[1,0,-1,0],[9E+09,9E+09,9E+09,9E+09,9E+09,9E+09]], v200, z50, toolSprayGun;
MoveL [[553.679,294.024,637.938],[0.5,-0.5,0.5,0.5],[1,0,-1,0],[9E+09,9E+09,9E+09,9E+09,9E+09,9E+09]], v200, z50, toolSprayGun;
MoveL [[553.71,290.929,638.466],[0.5,-0.5,0.5,0.5],[1,0,-1,0],[9E+09,9E+09,9E+09,9E+09,9E+09,9E+09]], v200, z50, toolSprayGun;
MoveL [[554.163,287.388,638.081],[0.5,-0.5,0.5,0.5],[1,0,-1,0],[9E+09,9E+09,9E+09,9E+09,9E+09,9E+09]], v200, z50, toolSprayGun;
MoveL [[554.694,284.262,638.058],[0.5,-0.5,0.5,0.5],[1,0,-1,0],[9E+09,9E+09,9E+09,9E+09,9E+09,9E+09]], v200, z50, toolSprayGun;
MoveL [[554.821,280.878,638.155],[0.5,-0.5,0.5,0.5],[1,0,-1,0],[9E+09,9E+09,9E+09,9E+09,9E+09,9E+09]], v200, z50, toolSprayGun;
MoveL [[554.645,277.056,638.088],[0.5,-0.5,0.5,0.5],[1,0,-1,0],[9E+09,9E+09,9E+09,9E+09,9E+09,9E+09]], v200, z50, toolSprayGun;
MoveL [[554.705,274.699,638.518],[0.5,-0.5,0.5,0.5],[1,0,-1,0],[9E+09,9E+09,9E+09,9E+09,9E+09,9E+09]], v200, z50, toolSprayGun;
MoveL [[554.953,271.232,638.946],[0.5,-0.5,0.5,0.5],[1,0,-1,0],[9E+09,9E+09,9E+09,9E+09,9E+09,9E+09]], v200, z50, toolSprayGun;
MoveL [[555.033,266.898,638.912],[0.5,-0.5,0.5,0.5],[1,0,-1,0],[9E+09,9E+09,9E+09,9E+09,9E+09,9E+09]], v200, z50, toolSprayGun;
MoveL [[554.803,264.42,638.918],[0.5,-0.5,0.5,0.5],[1,0,-1,0],[9E+09,9E+09,9E+09,9E+09,9E+09,9E+09]], v200, z50, toolSprayGun;
MoveL [[554.918,261.135,639.611],[0.5,-0.5,0.5,0.5],[1,0,-1,0],[9E+09,9E+09,9E+09,9E+09,9E+09,9E+09]], v200, z50, toolSprayGun;
MoveL [[554.819,258.455,639.475],[0.5,-0.5,0.5,0.5],[1,0,-1,0],[9E+09,9E+09,9E+09,9E+09,9E+09,9E+09]], v200, z50, toolSprayGun;
MoveL [[554.89,255.686,639.677],[0.5,-0.5,0.5,0.5],[1,0,-1,0],[9E+09,9E+09,9E+09,9E+09,9E+09,9E+09]], v200, z50, toolSprayGun;
MoveL [[554.77,252.698,639.707],[0.5,-0.5,0.5,0.5],[1,0,-1,0],[9E+09,9E+09,9E+09,9E+09,9E+09,9E+09]], v200, z50, toolSprayGun;
MoveL [[554.881,249.411,640.361],[0.5,-0.5,0.5,0.5],[1,0,-1,0],[9E+09,9E+09,9E+09,9E+09,9E+09,9E+09]], v200, z50, toolSprayGun;
MoveL [[554.74,247.026,640.505],[0.5,-0.5,0.5,0.5],[1,0,-1,0],[9E+09,9E+09,9E+09,9E+09,9E+09,9E+09]], v200, z50, toolSprayGun;
MoveL [[554.62,242.586,641.074],[0.5,-0.5,0.5,0.5],[1,0,-1,0],[9E+09,9E+09,9E+09,9E+09,9E+09,9E+09]], v200, z50, toolSprayGun;
MoveL [[554.428,239.086,641.333],[0.5,-0.5,0.5,0.5],[1,0,-1,0],[9E+09,9E+09,9E+09,9E+09,9E+09,9E+09]], v200, z50, toolSprayGun;
MoveL [[554.455,237.54,641.642],[0.5,-0.5,0.5,0.5],[1,0,-1,0],[9E+09,9E+09,9E+09,9E+09,9E+09,9E+09]], v200, z50, toolSprayGun;
MoveL [[554.473,233.401,641.923],[0.5,-0.5,0.5,0.5],[1,0,-1,0],[9E+09,9E+09,9E+09,9E+09,9E+09,9E+09]], v200, z50, toolSprayGun;
MoveL [[554.717,229.872,641.782],[0.5,-0.5,0.5,0.5],[1,0,-1,0],[9E+09,9E+09,9E+09,9E+09,9E+09,9E+09]], v200, z50, toolSprayGun;
MoveL [[554.95,226.764,641.793],[0.5,-0.5,0.5,0.5],[1,0,-1,0],[9E+09,9E+09,9E+09,9E+09,9E+09,9E+09]], v200, z50, toolSprayGun;
MoveL [[555.06,224.186,642.355],[0.5,-0.5,0.5,0.5],[1,0,-1,0],[9E+09,9E+09,9E+09,9E+09,9E+09,9E+09]], v200, z50, toolSprayGun;
MoveL [[554.741,219.614,642.6],[0.5,-0.5,0.5,0.5],[1,0,-1,0],[9E+09,9E+09,9E+09,9E+09,9E+09,9E+09]], v200, z50, toolSprayGun;
MoveL [[554.512,216.557,642.452],[0.5,-0.5,0.5,0.5],[1,0,-1,0],[9E+09,9E+09,9E+09,9E+09,9E+09,9E+09]], v200, z50, toolSprayGun;
MoveL [[554.612,212.386,643.046],[0.5,-0.5,0.5,0.5],[1,0,-1,0],[9E+09,9E+09,9E+09,9E+09,9E+09,9E+09]], v200, z50, toolSprayGun;
MoveL [[554.409,210.072,643.151],[0.5,-0.5,0.5,0.5],[1,0,-1,0],[9E+09,9E+09,9E+09,9E+09,9E+09,9E+09]], v200, z50, toolSprayGun;
MoveL [[554.395,207.386,643.728],[0.5,-0.5,0.5,0.5],[1,0,-1,0],[9E+09,9E+09,9E+09,9E+09,9E+09,9E+09]], v200, z50, toolSprayGun;
MoveL [[554.957,204.255,643.71],[0.5,-0.5,0.5,0.5],[1,0,-1,0],[9E+09,9E+09,9E+09,9E+09,9E+09,9E+09]], v200, z50, toolSprayGun;
MoveL [[555.15,200.277,643.388],[0.5,-0.5,0.5,0.5],[1,0,-1,0],[9E+09,9E+09,9E+09,9E+09,9E+09,9E+09]], v200, z50, toolSprayGun;
MoveL [[555.25,198.146,643.825],[0.5,-0.5,0.5,0.5],[1,0,-1,0],[9E+09,9E+09,9E+09,9E+09,9E+09,9E+09]], v200, z50, toolSprayGun;
MoveL [[554.876,195.272,643.231],[0.5,-0.5,0.5,0.5],[1,0,-1,0],[9E+09,9E+09,9E+09,9E+09,9E+09,9E+09]], v200, z50, toolSprayGun;
MoveL [[554.735,191.6,643.469],[0.5,-0.5,0.5,0.5],[1,0,-1,0],[9E+09,9E+09,9E+09,9E+09,9E+09,9E+09]], v200, z50, toolSprayGun;
MoveL [[554.51,188.752,643.6],[0.5,-0.5,0.5,0.5],[1,0,-1,0],[9E+09,9E+09,9E+09,9E+09,9E+09,9E+09]], v200, z50, toolSprayGun;
MoveL [[554.553,187.199,643.897],[0.5,-0.5,0.5,0.5],[1,0,-1,0],[9E+09,9E+09,9E+09,9E+09,9E+09,9E+09]], v200, z50, toolSprayGun;
MoveL [[554.346,183.766,644.18],[0.5,-0.5,0.5,0.5],[1,0,-1,0],[9E+09,9E+09,9E+09,9E+09,9E+09,9E+09]], v200, z50, toolSprayGun;
MoveL [[554.166,180.937,644.574],[0.5,-0.5,0.5,0.5],[1,0,-1,0],[9E+09,9E+09,9E+09,9E+09,9E+09,9E+09]], v200, z50, toolSprayGun;
MoveL [[554.315,177.272,645.085],[0.5,-0.5,0.5,0.5],[1,0,-1,0],[9E+09,9E+09,9E+09,9E+09,9E+09,9E+09]], v200, z50, toolSprayGun;
MoveL [[554.423,174.595,644.946],[0.5,-0.5,0.5,0.5],[1,0,-1,0],[9E+09,9E+09,9E+09,9E+09,9E+09,9E+09]], v200, z50, toolSprayGun;
MoveL [[554.427,173.026,645.258],[0.5,-0.5,0.5,0.5],[1,0,-1,0],[9E+09,9E+09,9E+09,9E+09,9E+09,9E+09]], v200, z50, toolSprayGun;
MoveL [[554.051,169.717,645.348],[0.5,-0.5,0.5,0.5],[1,0,-1,0],[9E+09,9E+09,9E+09,9E+09,9E+09,9E+09]], v200, z50, toolSprayGun;
MoveL [[553.959,166.279,645.741],[0.5,-0.5,0.5,0.5],[1,0,-1,0],[9E+09,9E+09,9E+09,9E+09,9E+09,9E+09]], v200, z50, toolSprayGun;
MoveL [[553.78,162.809,645.269],[0.5,-0.5,0.5,0.5],[1,0,-1,0],[9E+09,9E+09,9E+09,9E+09,9E+09,9E+09]], v200, z50, toolSprayGun;
MoveL [[553.726,161.26,645.536],[0.5,-0.5,0.5,0.5],[1,0,-1,0],[9E+09,9E+09,9E+09,9E+09,9E+09,9E+09]], v200, z50, toolSprayGun;
MoveL [[554.284,157.986,645.43],[0.5,-0.5,0.5,0.5],[1,0,-1,0],[9E+09,9E+09,9E+09,9E+09,9E+09,9E+09]], v200, z50, toolSprayGun;
MoveL [[554.639,155.975,645.123],[0.5,-0.5,0.5,0.5],[1,0,-1,0],[9E+09,9E+09,9E+09,9E+09,9E+09,9E+09]], v200, z50, toolSprayGun;
MoveL [[554.571,152.059,645.51],[0.5,-0.5,0.5,0.5],[1,0,-1,0],[9E+09,9E+09,9E+09,9E+09,9E+09,9E+09]], v200, z50, toolSprayGun;
MoveL [[554.581,149.85,645.931],[0.5,-0.5,0.5,0.5],[1,0,-1,0],[9E+09,9E+09,9E+09,9E+09,9E+09,9E+09]], v200, z50, toolSprayGun;
MoveL [[554.354,147.402,646.005],[0.5,-0.5,0.5,0.5],[1,0,-1,0],[9E+09,9E+09,9E+09,9E+09,9E+09,9E+09]], v200, z50, toolSprayGun;
MoveL [[554.243,143.399,646.72],[0.5,-0.5,0.5,0.5],[1,0,-1,0],[9E+09,9E+09,9E+09,9E+09,9E+09,9E+09]], v200, z50, toolSprayGun;
MoveL [[554.522,141.765,646.632],[0.5,-0.5,0.5,0.5],[1,0,-1,0],[9E+09,9E+09,9E+09,9E+09,9E+09,9E+09]], v200, z50, toolSprayGun;
MoveL [[554.453,139.023,646.982],[0.5,-0.5,0.5,0.5],[1,0,-1,0],[9E+09,9E+09,9E+09,9E+09,9E+09,9E+09]], v200, z50, toolSprayGun;
MoveL [[554.468,136.983,647.37],[0.5,-0.5,0.5,0.5],[1,0,-1,0],[9E+09,9E+09,9E+09,9E+09,9E+09,9E+09]], v200, z50, toolSprayGun;
MoveL [[554.904,133.867,647.898],[0.5,-0.5,0.5,0.5],[1,0,-1,0],[9E+09,9E+09,9E+09,9E+09,9E+09,9E+09]], v200, z50, toolSprayGun;
MoveL [[555.158,132.036,647.614],[0.5,-0.5,0.5,0.5],[1,0,-1,0],[9E+09,9E+09,9E+09,9E+09,9E+09,9E+09]], v200, z50, toolSprayGun;
MoveL [[555.207,130.265,647.966],[0.5,-0.5,0.5,0.5],[1,0,-1,0],[9E+09,9E+09,9E+09,9E+09,9E+09,9E+09]], v200, z50, toolSprayGun;
MoveL [[555.611,127.548,648.377],[0.5,-0.5,0.5,0.5],[1,0,-1,0],[9E+09,9E+09,9E+09,9E+09,9E+09,9E+09]], v200, z50, toolSprayGun;
MoveL [[555.467,126.199,648.491],[0.5,-0.5,0.5,0.5],[1,0,-1,0],[9E+09,9E+09,9E+09,9E+09,9E+09,9E+09]], v200, z50, toolSprayGun;
MoveL [[555.595,122.85,648.874],[0.5,-0.5,0.5,0.5],[1,0,-1,0],[9E+09,9E+09,9E+09,9E+09,9E+09,9E+09]], v200, z50, toolSprayGun;
MoveL [[555.601,120.867,649.251],[0.5,-0.5,0.5,0.5],[1,0,-1,0],[9E+09,9E+09,9E+09,9E+09,9E+09,9E+09]], v200, z50, toolSprayGun;
MoveL [[555.849,119.137,649.152],[0.5,-0.5,0.5,0.5],[1,0,-1,0],[9E+09,9E+09,9E+09,9E+09,9E+09,9E+09]], v200, z50, toolSprayGun;
MoveL [[556.562,115.522,649.356],[0.5,-0.5,0.5,0.5],[1,0,-1,0],[9E+09,9E+09,9E+09,9E+09,9E+09,9E+09]], v200, z50, toolSprayGun;
MoveL [[556.874,114.397,649.495],[0.5,-0.5,0.5,0.5],[1,0,-1,0],[9E+09,9E+09,9E+09,9E+09,9E+09,9E+09]], v200, z50, toolSprayGun;
MoveL [[556.921,112.611,649.765],[0.5,-0.5,0.5,0.5],[1,0,-1,0],[9E+09,9E+09,9E+09,9E+09,9E+09,9E+09]], v200, z50, toolSprayGun;
MoveL [[557.218,110.17,649.587],[0.5,-0.5,0.5,0.5],[1,0,-1,0],[9E+09,9E+09,9E+09,9E+09,9E+09,9E+09]], v200, z50, toolSprayGun;
MoveL [[556.886,107.269,649.417],[0.5,-0.5,0.5,0.5],[1,0,-1,0],[9E+09,9E+09,9E+09,9E+09,9E+09,9E+09]], v200, z50, toolSprayGun;
MoveL [[556.686,105.322,649.336],[0.5,-0.5,0.5,0.5],[1,0,-1,0],[9E+09,9E+09,9E+09,9E+09,9E+09,9E+09]], v200, z50, toolSprayGun;
MoveL [[556.633,104.1,649.141],[0.5,-0.5,0.5,0.5],[1,0,-1,0],[9E+09,9E+09,9E+09,9E+09,9E+09,9E+09]], v200, z50, toolSprayGun;
MoveL [[556.75,101.67,649.531],[0.5,-0.5,0.5,0.5],[1,0,-1,0],[9E+09,9E+09,9E+09,9E+09,9E+09,9E+09]], v200, z50, toolSprayGun;
MoveL [[556.932,99.3988,649.596],[0.5,-0.5,0.5,0.5],[1,0,-1,0],[9E+09,9E+09,9E+09,9E+09,9E+09,9E+09]], v200, z50, toolSprayGun;
MoveL [[557.198,97.5431,649.869],[0.5,-0.5,0.5,0.5],[1,0,-1,0],[9E+09,9E+09,9E+09,9E+09,9E+09,9E+09]], v200, z50, toolSprayGun;
MoveL [[557.51,95.9839,650.309],[0.5,-0.5,0.5,0.5],[1,0,-1,0],[9E+09,9E+09,9E+09,9E+09,9E+09,9E+09]], v200, z50, toolSprayGun;
MoveL [[557.58,94.1748,650.504],[0.5,-0.5,0.5,0.5],[1,0,-1,0],[9E+09,9E+09,9E+09,9E+09,9E+09,9E+09]], v200, z50, toolSprayGun;
MoveL [[557.801,91.0187,650.973],[0.5,-0.5,0.5,0.5],[1,0,-1,0],[9E+09,9E+09,9E+09,9E+09,9E+09,9E+09]], v200, z50, toolSprayGun;
MoveL [[557.171,90.1551,651.403],[0.5,-0.5,0.5,0.5],[1,0,-1,0],[9E+09,9E+09,9E+09,9E+09,9E+09,9E+09]], v200, z50, toolSprayGun;
MoveL [[556.574,88.9938,651.531],[0.5,-0.5,0.5,0.5],[1,0,-1,0],[9E+09,9E+09,9E+09,9E+09,9E+09,9E+09]], v200, z50, toolSprayGun;
MoveL [[556.34,85.1179,651.943],[0.5,-0.5,0.5,0.5],[1,0,-1,0],[9E+09,9E+09,9E+09,9E+09,9E+09,9E+09]], v200, z50, toolSprayGun;
MoveL [[556.308,83.898,652.124],[0.5,-0.5,0.5,0.5],[1,0,-1,0],[9E+09,9E+09,9E+09,9E+09,9E+09,9E+09]], v200, z50, toolSprayGun;
MoveL [[556.208,81.8831,651.944],[0.5,-0.5,0.5,0.5],[1,0,-1,0],[9E+09,9E+09,9E+09,9E+09,9E+09,9E+09]], v200, z50, toolSprayGun;
MoveL [[555.77,79.3198,651.625],[0.5,-0.5,0.5,0.5],[1,0,-1,0],[9E+09,9E+09,9E+09,9E+09,9E+09,9E+09]], v200, z50, toolSprayGun;
MoveL [[555.741,78.2783,651.776],[0.5,-0.5,0.5,0.5],[1,0,-1,0],[9E+09,9E+09,9E+09,9E+09,9E+09,9E+09]], v200, z50, toolSprayGun;
MoveL [[555.222,76.6591,651.338],[0.5,-0.5,0.5,0.5],[1,0,-1,0],[9E+09,9E+09,9E+09,9E+09,9E+09,9E+09]], v200, z50, toolSprayGun;
MoveL [[554.968,73.1049,651.397],[0.5,-0.5,0.5,0.5],[1,0,-1,0],[9E+09,9E+09,9E+09,9E+09,9E+09,9E+09]], v200, z50, toolSprayGun;
MoveL [[554.47,71.021,651.515],[0.5,-0.5,0.5,0.5],[1,0,-1,0],[9E+09,9E+09,9E+09,9E+09,9E+09,9E+09]], v200, z50, toolSprayGun;
MoveL [[554.325,69.3214,651.735],[0.5,-0.5,0.5,0.5],[1,0,-1,0],[9E+09,9E+09,9E+09,9E+09,9E+09,9E+09]], v200, z50, toolSprayGun;
MoveL [[554.35,67.4258,651.659],[0.5,-0.5,0.5,0.5],[1,0,-1,0],[9E+09,9E+09,9E+09,9E+09,9E+09,9E+09]], v200, z50, toolSprayGun;
MoveL [[554.319,64.9729,651.405],[0.5,-0.5,0.5,0.5],[1,0,-1,0],[9E+09,9E+09,9E+09,9E+09,9E+09,9E+09]], v200, z50, toolSprayGun;
MoveL [[554.491,63.0664,650.9],[0.5,-0.5,0.5,0.5],[1,0,-1,0],[9E+09,9E+09,9E+09,9E+09,9E+09,9E+09]], v200, z50, toolSprayGun;
MoveL [[554.369,60.9966,651.141],[0.5,-0.5,0.5,0.5],[1,0,-1,0],[9E+09,9E+09,9E+09,9E+09,9E+09,9E+09]], v200, z50, toolSprayGun;
MoveL [[554.951,58.8341,650.748],[0.5,-0.5,0.5,0.5],[1,0,-1,0],[9E+09,9E+09,9E+09,9E+09,9E+09,9E+09]], v200, z50, toolSprayGun;
MoveL [[555.417,56.4826,650.644],[0.5,-0.5,0.5,0.5],[1,0,-1,0],[9E+09,9E+09,9E+09,9E+09,9E+09,9E+09]], v200, z50, toolSprayGun;
MoveL [[555.774,54.1942,650.685],[0.5,-0.5,0.5,0.5],[1,0,-1,0],[9E+09,9E+09,9E+09,9E+09,9E+09,9E+09]], v200, z50, toolSprayGun;
MoveL [[555.801,52.7792,650.882],[0.5,-0.5,0.5,0.5],[1,0,-1,0],[9E+09,9E+09,9E+09,9E+09,9E+09,9E+09]], v200, z50, toolSprayGun;
MoveL [[556.383,52.0241,650.893],[0.5,-0.5,0.5,0.5],[1,0,-1,0],[9E+09,9E+09,9E+09,9E+09,9E+09,9E+09]], v200, z50, toolSprayGun;
MoveL [[557.264,49.8819,651.037],[0.5,-0.5,0.5,0.5],[1,0,-1,0],[9E+09,9E+09,9E+09,9E+09,9E+09,9E+09]], v200, z50, toolSprayGun;
MoveL [[557.885,48.2233,650.949],[0.5,-0.5,0.5,0.5],[1,0,-1,0],[9E+09,9E+09,9E+09,9E+09,9E+09,9E+09]], v200, z50, toolSprayGun;
MoveL [[558.215,47.0841,650.938],[0.5,-0.5,0.5,0.5],[1,0,-1,0],[9E+09,9E+09,9E+09,9E+09,9E+09,9E+09]], v200, z50, toolSprayGun;
MoveL [[558.311,46.2375,651.04],[0.5,-0.5,0.5,0.5],[1,0,-1,0],[9E+09,9E+09,9E+09,9E+09,9E+09,9E+09]], v200, z50, toolSprayGun;
MoveL [[558.729,45.1349,651.308],[0.5,-0.5,0.5,0.5],[1,0,-1,0],[9E+09,9E+09,9E+09,9E+09,9E+09,9E+09]], v200, z50, toolSprayGun;
MoveL [[558.964,44.5706,651.47],[0.5,-0.5,0.5,0.5],[1,0,-1,0],[9E+09,9E+09,9E+09,9E+09,9E+09,9E+09]], v200, z50, toolSprayGun;
MoveL [[559.161,43.4284,651.798],[0.5,-0.5,0.5,0.5],[1,0,-1,0],[9E+09,9E+09,9E+09,9E+09,9E+09,9E+09]], v200, z50, toolSprayGun;
MoveL [[559.307,42.3221,651.95],[0.5,-0.5,0.5,0.5],[1,0,-1,0],[9E+09,9E+09,9E+09,9E+09,9E+09,9E+09]], v200, z50, toolSprayGun;
MoveL [[559.45,41.1981,652.286],[0.5,-0.5,0.5,0.5],[1,0,-1,0],[9E+09,9E+09,9E+09,9E+09,9E+09,9E+09]], v200, z50, toolSprayGun;
MoveL [[559.54,40.5087,652.385],[0.5,-0.5,0.5,0.5],[1,0,-1,0],[9E+09,9E+09,9E+09,9E+09,9E+09,9E+09]], v200, z50, toolSprayGun;
MoveL [[559.751,40.1364,652.268],[0.5,-0.5,0.5,0.5],[1,0,-1,0],[9E+09,9E+09,9E+09,9E+09,9E+09,9E+09]], v200, z50, toolSprayGun;
MoveL [[559.8,39.7884,652.316],[0.5,-0.5,0.5,0.5],[1,0,-1,0],[9E+09,9E+09,9E+09,9E+09,9E+09,9E+09]], v200, z50, toolSprayGun;
MoveL [[560.006,38.7919,652.207],[0.5,-0.5,0.5,0.5],[1,0,-1,0],[9E+09,9E+09,9E+09,9E+09,9E+09,9E+09]], v200, z50, toolSprayGun;
MoveL [[560.006,38.5267,652.197],[0.5,-0.5,0.5,0.5],[1,0,-1,0],[9E+09,9E+09,9E+09,9E+09,9E+09,9E+09]], v200, z50, toolSprayGun;
MoveL [[559.542,38.654,652.162],[0.5,-0.5,0.5,0.5],[1,0,-1,0],[9E+09,9E+09,9E+09,9E+09,9E+09,9E+09]], v200, z50, toolSprayGun;
MoveL [[559.647,37.6607,652.262],[0.5,-0.5,0.5,0.5],[1,0,-1,0],[9E+09,9E+09,9E+09,9E+09,9E+09,9E+09]], v200, z50, toolSprayGun;
MoveL [[559.239,37.3234,652.36],[0.5,-0.5,0.5,0.5],[1,0,-1,0],[9E+09,9E+09,9E+09,9E+09,9E+09,9E+09]], v200, z50, toolSprayGun;
MoveL [[558.769,37.1975,652.511],[0.5,-0.5,0.5,0.5],[1,0,-1,0],[9E+09,9E+09,9E+09,9E+09,9E+09,9E+09]], v200, z50, toolSprayGun;
MoveL [[558.365,37.4382,652.674],[0.5,-0.5,0.5,0.5],[1,0,-1,0],[9E+09,9E+09,9E+09,9E+09,9E+09,9E+09]], v200, z50, toolSprayGun;
MoveL [[558.365,36.5865,652.748],[0.5,-0.5,0.5,0.5],[1,0,-1,0],[9E+09,9E+09,9E+09,9E+09,9E+09,9E+09]], v200, z50, toolSprayGun;
MoveL [[557.471,36.5607,653.178],[0.5,-0.5,0.5,0.5],[1,0,-1,0],[9E+09,9E+09,9E+09,9E+09,9E+09,9E+09]], v200, z50, toolSprayGun;
MoveL [[556.279,36.9982,652.998],[0.5,-0.5,0.5,0.5],[1,0,-1,0],[9E+09,9E+09,9E+09,9E+09,9E+09,9E+09]], v200, z50, toolSprayGun;
MoveL [[555.571,37.0244,653.022],[0.5,-0.5,0.5,0.5],[1,0,-1,0],[9E+09,9E+09,9E+09,9E+09,9E+09,9E+09]], v200, z50, toolSprayGun;
MoveL [[554.725,36.6506,652.781],[0.5,-0.5,0.5,0.5],[1,0,-1,0],[9E+09,9E+09,9E+09,9E+09,9E+09,9E+09]], v200, z50, toolSprayGun;
MoveL [[554.59,36.1991,652.813],[0.5,-0.5,0.5,0.5],[1,0,-1,0],[9E+09,9E+09,9E+09,9E+09,9E+09,9E+09]], v200, z50, toolSprayGun;
MoveL [[553.669,36.3645,652.346],[0.5,-0.5,0.5,0.5],[1,0,-1,0],[9E+09,9E+09,9E+09,9E+09,9E+09,9E+09]], v200, z50, toolSprayGun;
MoveL [[552.563,36.5424,652.106],[0.5,-0.5,0.5,0.5],[1,0,-1,0],[9E+09,9E+09,9E+09,9E+09,9E+09,9E+09]], v200, z50, toolSprayGun;
MoveL [[551.588,36.3526,652.05],[0.5,-0.5,0.5,0.5],[1,0,-1,0],[9E+09,9E+09,9E+09,9E+09,9E+09,9E+09]], v200, z50, toolSprayGun;
MoveL [[551.304,35.9488,652.051],[0.5,-0.5,0.5,0.5],[1,0,-1,0],[9E+09,9E+09,9E+09,9E+09,9E+09,9E+09]], v200, z50, toolSprayGun;
MoveL [[550.735,36.2893,652.013],[0.5,-0.5,0.5,0.5],[1,0,-1,0],[9E+09,9E+09,9E+09,9E+09,9E+09,9E+09]], v200, z50, toolSprayGun;
MoveL [[549.474,36.2848,652.025],[0.5,-0.5,0.5,0.5],[1,0,-1,0],[9E+09,9E+09,9E+09,9E+09,9E+09,9E+09]], v200, z50, toolSprayGun;
MoveL [[547.981,36.1149,652.18],[0.5,-0.5,0.5,0.5],[1,0,-1,0],[9E+09,9E+09,9E+09,9E+09,9E+09,9E+09]], v200, z50, toolSprayGun;
MoveL [[547.837,35.9919,652.192],[0.5,-0.5,0.5,0.5],[1,0,-1,0],[9E+09,9E+09,9E+09,9E+09,9E+09,9E+09]], v200, z50, toolSprayGun;
MoveL [[545.558,36.329,652.526],[0.5,-0.5,0.5,0.5],[1,0,-1,0],[9E+09,9E+09,9E+09,9E+09,9E+09,9E+09]], v200, z50, toolSprayGun;
MoveL [[543.865,36.479,652.937],[0.5,-0.5,0.5,0.5],[1,0,-1,0],[9E+09,9E+09,9E+09,9E+09,9E+09,9E+09]], v200, z50, toolSprayGun;
MoveL [[543.375,36.2406,653.019],[0.5,-0.5,0.5,0.5],[1,0,-1,0],[9E+09,9E+09,9E+09,9E+09,9E+09,9E+09]], v200, z50, toolSprayGun;
MoveL [[541.764,36.4576,653.528],[0.5,-0.5,0.5,0.5],[1,0,-1,0],[9E+09,9E+09,9E+09,9E+09,9E+09,9E+09]], v200, z50, toolSprayGun;
MoveL [[540.177,36.5302,653.913],[0.5,-0.5,0.5,0.5],[1,0,-1,0],[9E+09,9E+09,9E+09,9E+09,9E+09,9E+09]], v200, z50, toolSprayGun;
MoveL [[539.299,36.5401,654.064],[0.5,-0.5,0.5,0.5],[1,0,-1,0],[9E+09,9E+09,9E+09,9E+09,9E+09,9E+09]], v200, z50, toolSprayGun;
MoveL [[537.383,36.5737,654.006],[0.5,-0.5,0.5,0.5],[1,0,-1,0],[9E+09,9E+09,9E+09,9E+09,9E+09,9E+09]], v200, z50, toolSprayGun;
MoveL [[535.229,36.5193,654.274],[0.5,-0.5,0.5,0.5],[1,0,-1,0],[9E+09,9E+09,9E+09,9E+09,9E+09,9E+09]], v200, z50, toolSprayGun;
MoveL [[534.643,36.3718,654.369],[0.5,-0.5,0.5,0.5],[1,0,-1,0],[9E+09,9E+09,9E+09,9E+09,9E+09,9E+09]], v200, z50, toolSprayGun;
MoveL [[533.031,36.6773,654.714],[0.5,-0.5,0.5,0.5],[1,0,-1,0],[9E+09,9E+09,9E+09,9E+09,9E+09,9E+09]], v200, z50, toolSprayGun;
MoveL [[531.14,36.8952,654.843],[0.5,-0.5,0.5,0.5],[1,0,-1,0],[9E+09,9E+09,9E+09,9E+09,9E+09,9E+09]], v200, z50, toolSprayGun;
MoveL [[530.821,36.8413,654.893],[0.5,-0.5,0.5,0.5],[1,0,-1,0],[9E+09,9E+09,9E+09,9E+09,9E+09,9E+09]], v200, z50, toolSprayGun;
MoveL [[528.826,36.8768,655.049],[0.5,-0.5,0.5,0.5],[1,0,-1,0],[9E+09,9E+09,9E+09,9E+09,9E+09,9E+09]], v200, z50, toolSprayGun;
MoveL [[526.294,36.953,655.298],[0.5,-0.5,0.5,0.5],[1,0,-1,0],[9E+09,9E+09,9E+09,9E+09,9E+09,9E+09]], v200, z50, toolSprayGun;
MoveL [[524.844,37.1807,655.16],[0.5,-0.5,0.5,0.5],[1,0,-1,0],[9E+09,9E+09,9E+09,9E+09,9E+09,9E+09]], v200, z50, toolSprayGun;
MoveL [[521.481,36.9631,655.736],[0.5,-0.5,0.5,0.5],[1,0,-1,0],[9E+09,9E+09,9E+09,9E+09,9E+09,9E+09]], v200, z50, toolSprayGun;
MoveL [[520.645,36.9088,655.969],[0.5,-0.5,0.5,0.5],[1,0,-1,0],[9E+09,9E+09,9E+09,9E+09,9E+09,9E+09]], v200, z50, toolSprayGun;
MoveL [[519.317,36.7218,656.002],[0.5,-0.5,0.5,0.5],[1,0,-1,0],[9E+09,9E+09,9E+09,9E+09,9E+09,9E+09]], v200, z50, toolSprayGun;
MoveL [[516.58,36.1844,656.045],[0.5,-0.5,0.5,0.5],[1,0,-1,0],[9E+09,9E+09,9E+09,9E+09,9E+09,9E+09]], v200, z50, toolSprayGun;
MoveL [[514.779,36.0313,656.575],[0.5,-0.5,0.5,0.5],[1,0,-1,0],[9E+09,9E+09,9E+09,9E+09,9E+09,9E+09]], v200, z50, toolSprayGun;
MoveL [[513.245,35.6997,656.131],[0.5,-0.5,0.5,0.5],[1,0,-1,0],[9E+09,9E+09,9E+09,9E+09,9E+09,9E+09]], v200, z50, toolSprayGun;
MoveL [[509.904,35.6353,656.06],[0.5,-0.5,0.5,0.5],[1,0,-1,0],[9E+09,9E+09,9E+09,9E+09,9E+09,9E+09]], v200, z50, toolSprayGun;
MoveL [[507.721,35.513,655.825],[0.5,-0.5,0.5,0.5],[1,0,-1,0],[9E+09,9E+09,9E+09,9E+09,9E+09,9E+09]], v200, z50, toolSprayGun;
MoveL [[506.725,35.447,656.094],[0.5,-0.5,0.5,0.5],[1,0,-1,0],[9E+09,9E+09,9E+09,9E+09,9E+09,9E+09]], v200, z50, toolSprayGun;
MoveL [[504.117,35.118,656.307],[0.5,-0.5,0.5,0.5],[1,0,-1,0],[9E+09,9E+09,9E+09,9E+09,9E+09,9E+09]], v200, z50, toolSprayGun;
MoveL [[501.565,34.7392,656.372],[0.5,-0.5,0.5,0.5],[1,0,-1,0],[9E+09,9E+09,9E+09,9E+09,9E+09,9E+09]], v200, z50, toolSprayGun;
MoveL [[498.922,34.3026,656.873],[0.5,-0.5,0.5,0.5],[1,0,-1,0],[9E+09,9E+09,9E+09,9E+09,9E+09,9E+09]], v200, z50, toolSprayGun;
MoveL [[498.047,34.255,657.139],[0.5,-0.5,0.5,0.5],[1,0,-1,0],[9E+09,9E+09,9E+09,9E+09,9E+09,9E+09]], v200, z50, toolSprayGun;
MoveL [[495.57,33.9168,657.122],[0.5,-0.5,0.5,0.5],[1,0,-1,0],[9E+09,9E+09,9E+09,9E+09,9E+09,9E+09]], v200, z50, toolSprayGun;
MoveL [[494.188,33.9154,656.611],[0.5,-0.5,0.5,0.5],[1,0,-1,0],[9E+09,9E+09,9E+09,9E+09,9E+09,9E+09]], v200, z50, toolSprayGun;
MoveL [[492.117,33.5173,656.659],[0.5,-0.5,0.5,0.5],[1,0,-1,0],[9E+09,9E+09,9E+09,9E+09,9E+09,9E+09]], v200, z50, toolSprayGun;
MoveL [[490.308,33.4868,657.229],[0.5,-0.5,0.5,0.5],[1,0,-1,0],[9E+09,9E+09,9E+09,9E+09,9E+09,9E+09]], v200, z50, toolSprayGun;
MoveL [[488.315,33.2802,657.577],[0.5,-0.5,0.5,0.5],[1,0,-1,0],[9E+09,9E+09,9E+09,9E+09,9E+09,9E+09]], v200, z50, toolSprayGun;
MoveL [[484.994,33.2964,658.126],[0.5,-0.5,0.5,0.5],[1,0,-1,0],[9E+09,9E+09,9E+09,9E+09,9E+09,9E+09]], v200, z50, toolSprayGun;
MoveL [[483.024,33.6464,657.885],[0.5,-0.5,0.5,0.5],[1,0,-1,0],[9E+09,9E+09,9E+09,9E+09,9E+09,9E+09]], v200, z50, toolSprayGun;
MoveL [[480.216,33.6547,658.187],[0.5,-0.5,0.5,0.5],[1,0,-1,0],[9E+09,9E+09,9E+09,9E+09,9E+09,9E+09]], v200, z50, toolSprayGun;
MoveL [[479.214,33.6786,658.568],[0.5,-0.5,0.5,0.5],[1,0,-1,0],[9E+09,9E+09,9E+09,9E+09,9E+09,9E+09]], v200, z50, toolSprayGun;
MoveL [[477.025,33.6334,658.708],[0.5,-0.5,0.5,0.5],[1,0,-1,0],[9E+09,9E+09,9E+09,9E+09,9E+09,9E+09]], v200, z50, toolSprayGun;
MoveL [[475.142,33.207,658.638],[0.5,-0.5,0.5,0.5],[1,0,-1,0],[9E+09,9E+09,9E+09,9E+09,9E+09,9E+09]], v200, z50, toolSprayGun;
MoveL [[472.603,33.2752,659.69],[0.5,-0.5,0.5,0.5],[1,0,-1,0],[9E+09,9E+09,9E+09,9E+09,9E+09,9E+09]], v200, z50, toolSprayGun;
MoveL [[470.5,33.354,659.812],[0.5,-0.5,0.5,0.5],[1,0,-1,0],[9E+09,9E+09,9E+09,9E+09,9E+09,9E+09]], v200, z50, toolSprayGun;
MoveL [[467.72,33.624,660.612],[0.5,-0.5,0.5,0.5],[1,0,-1,0],[9E+09,9E+09,9E+09,9E+09,9E+09,9E+09]], v200, z50, toolSprayGun;
MoveL [[465.892,33.9165,661.001],[0.5,-0.5,0.5,0.5],[1,0,-1,0],[9E+09,9E+09,9E+09,9E+09,9E+09,9E+09]], v200, z50, toolSprayGun;
MoveL [[463.47,34.1148,662.062],[0.5,-0.5,0.5,0.5],[1,0,-1,0],[9E+09,9E+09,9E+09,9E+09,9E+09,9E+09]], v200, z50, toolSprayGun;
MoveL [[460.27,34.2893,662.806],[0.5,-0.5,0.5,0.5],[1,0,-1,0],[9E+09,9E+09,9E+09,9E+09,9E+09,9E+09]], v200, z50, toolSprayGun;
MoveL [[458.529,33.9642,663.107],[0.5,-0.5,0.5,0.5],[1,0,-1,0],[9E+09,9E+09,9E+09,9E+09,9E+09,9E+09]], v200, z50, toolSprayGun;
MoveL [[455.913,33.4647,663.615],[0.5,-0.5,0.5,0.5],[1,0,-1,0],[9E+09,9E+09,9E+09,9E+09,9E+09,9E+09]], v200, z50, toolSprayGun;
MoveL [[452.501,33.7694,664.213],[0.5,-0.5,0.5,0.5],[1,0,-1,0],[9E+09,9E+09,9E+09,9E+09,9E+09,9E+09]], v200, z50, toolSprayGun;
MoveL [[450.222,33.7872,664.539],[0.5,-0.5,0.5,0.5],[1,0,-1,0],[9E+09,9E+09,9E+09,9E+09,9E+09,9E+09]], v200, z50, toolSprayGun;
MoveL [[449.222,33.8948,665.028],[0.5,-0.5,0.5,0.5],[1,0,-1,0],[9E+09,9E+09,9E+09,9E+09,9E+09,9E+09]], v200, z50, toolSprayGun;
MoveL [[446.617,33.7588,665.68],[0.5,-0.5,0.5,0.5],[1,0,-1,0],[9E+09,9E+09,9E+09,9E+09,9E+09,9E+09]], v200, z50, toolSprayGun;
MoveL [[444.192,33.9834,665.864],[0.5,-0.5,0.5,0.5],[1,0,-1,0],[9E+09,9E+09,9E+09,9E+09,9E+09,9E+09]], v200, z50, toolSprayGun;
MoveL [[443.195,34.0917,666.366],[0.5,-0.5,0.5,0.5],[1,0,-1,0],[9E+09,9E+09,9E+09,9E+09,9E+09,9E+09]], v200, z50, toolSprayGun;
MoveL [[439.633,34.2804,667.299],[0.5,-0.5,0.5,0.5],[1,0,-1,0],[9E+09,9E+09,9E+09,9E+09,9E+09,9E+09]], v200, z50, toolSprayGun;
MoveL [[436.796,34.9823,667.013],[0.5,-0.5,0.5,0.5],[1,0,-1,0],[9E+09,9E+09,9E+09,9E+09,9E+09,9E+09]], v200, z50, toolSprayGun;
MoveL [[433.533,35.9961,667.683],[0.5,-0.5,0.5,0.5],[1,0,-1,0],[9E+09,9E+09,9E+09,9E+09,9E+09,9E+09]], v200, z50, toolSprayGun;
MoveL [[431.771,36.2569,668.572],[0.5,-0.5,0.5,0.5],[1,0,-1,0],[9E+09,9E+09,9E+09,9E+09,9E+09,9E+09]], v200, z50, toolSprayGun;
MoveL [[429.353,36.592,669.602],[0.5,-0.5,0.5,0.5],[1,0,-1,0],[9E+09,9E+09,9E+09,9E+09,9E+09,9E+09]], v200, z50, toolSprayGun;
MoveL [[426.993,36.6889,670.367],[0.5,-0.5,0.5,0.5],[1,0,-1,0],[9E+09,9E+09,9E+09,9E+09,9E+09,9E+09]], v200, z50, toolSprayGun;
MoveL [[425.104,37.0332,670.764],[0.5,-0.5,0.5,0.5],[1,0,-1,0],[9E+09,9E+09,9E+09,9E+09,9E+09,9E+09]], v200, z50, toolSprayGun;
MoveL [[423.434,37.2989,671.588],[0.5,-0.5,0.5,0.5],[1,0,-1,0],[9E+09,9E+09,9E+09,9E+09,9E+09,9E+09]], v200, z50, toolSprayGun;
MoveL [[420.212,37.2867,672.093],[0.5,-0.5,0.5,0.5],[1,0,-1,0],[9E+09,9E+09,9E+09,9E+09,9E+09,9E+09]], v200, z50, toolSprayGun;
MoveL [[417.885,36.9165,672.745],[0.5,-0.5,0.5,0.5],[1,0,-1,0],[9E+09,9E+09,9E+09,9E+09,9E+09,9E+09]], v200, z50, toolSprayGun;
MoveL [[415.076,36.9219,673.369],[0.5,-0.5,0.5,0.5],[1,0,-1,0],[9E+09,9E+09,9E+09,9E+09,9E+09,9E+09]], v200, z50, toolSprayGun;
MoveL [[413.911,37.1139,673.917],[0.5,-0.5,0.5,0.5],[1,0,-1,0],[9E+09,9E+09,9E+09,9E+09,9E+09,9E+09]], v200, z50, toolSprayGun;
MoveL [[411.884,36.7407,674.026],[0.5,-0.5,0.5,0.5],[1,0,-1,0],[9E+09,9E+09,9E+09,9E+09,9E+09,9E+09]], v200, z50, toolSprayGun;
MoveL [[408.278,36.7007,674.525],[0.5,-0.5,0.5,0.5],[1,0,-1,0],[9E+09,9E+09,9E+09,9E+09,9E+09,9E+09]], v200, z50, toolSprayGun;
MoveL [[405.244,36.6528,675.19],[0.5,-0.5,0.5,0.5],[1,0,-1,0],[9E+09,9E+09,9E+09,9E+09,9E+09,9E+09]], v200, z50, toolSprayGun;
MoveL [[403.449,36.9269,676.129],[0.5,-0.5,0.5,0.5],[1,0,-1,0],[9E+09,9E+09,9E+09,9E+09,9E+09,9E+09]], v200, z50, toolSprayGun;
MoveL [[400.069,35.8767,678.678],[0.5,-0.5,0.5,0.5],[1,0,-1,0],[9E+09,9E+09,9E+09,9E+09,9E+09,9E+09]], v200, z50, toolSprayGun;
MoveL [[397.505,35.0459,678.417],[0.5,-0.5,0.5,0.5],[1,0,-1,0],[9E+09,9E+09,9E+09,9E+09,9E+09,9E+09]], v200, z50, toolSprayGun;
MoveL [[395.984,34.8099,678.092],[0.5,-0.5,0.5,0.5],[1,0,-1,0],[9E+09,9E+09,9E+09,9E+09,9E+09,9E+09]], v200, z50, toolSprayGun;
MoveL [[391.936,35.0949,679.395],[0.5,-0.5,0.5,0.5],[1,0,-1,0],[9E+09,9E+09,9E+09,9E+09,9E+09,9E+09]], v200, z50, toolSprayGun;
MoveL [[390.579,35.2631,680.081],[0.5,-0.5,0.5,0.5],[1,0,-1,0],[9E+09,9E+09,9E+09,9E+09,9E+09,9E+09]], v200, z50, toolSprayGun;
MoveL [[389.062,34.9395,679.751],[0.5,-0.5,0.5,0.5],[1,0,-1,0],[9E+09,9E+09,9E+09,9E+09,9E+09,9E+09]], v200, z50, toolSprayGun;
MoveL [[386.621,34.8553,680.261],[0.5,-0.5,0.5,0.5],[1,0,-1,0],[9E+09,9E+09,9E+09,9E+09,9E+09,9E+09]], v200, z50, toolSprayGun;
MoveL [[383.485,35.6534,680.904],[0.5,-0.5,0.5,0.5],[1,0,-1,0],[9E+09,9E+09,9E+09,9E+09,9E+09,9E+09]], v200, z50, toolSprayGun;
MoveL [[382.123,36.3975,680.32],[0.5,-0.5,0.5,0.5],[1,0,-1,0],[9E+09,9E+09,9E+09,9E+09,9E+09,9E+09]], v200, z50, toolSprayGun;
MoveL [[378.994,36.4379,681.235],[0.5,-0.5,0.5,0.5],[1,0,-1,0],[9E+09,9E+09,9E+09,9E+09,9E+09,9E+09]], v200, z50, toolSprayGun;
MoveL [[375.196,36.4987,682.265],[0.5,-0.5,0.5,0.5],[1,0,-1,0],[9E+09,9E+09,9E+09,9E+09,9E+09,9E+09]], v200, z50, toolSprayGun;
MoveL [[372.215,36.9426,682.668],[0.5,-0.5,0.5,0.5],[1,0,-1,0],[9E+09,9E+09,9E+09,9E+09,9E+09,9E+09]], v200, z50, toolSprayGun;
MoveL [[369.59,37.3398,684.093],[0.5,-0.5,0.5,0.5],[1,0,-1,0],[9E+09,9E+09,9E+09,9E+09,9E+09,9E+09]], v200, z50, toolSprayGun;
MoveL [[366.791,37.6645,684.481],[0.5,-0.5,0.5,0.5],[1,0,-1,0],[9E+09,9E+09,9E+09,9E+09,9E+09,9E+09]], v200, z50, toolSprayGun;
MoveL [[363.569,37.4573,684.593],[0.5,-0.5,0.5,0.5],[1,0,-1,0],[9E+09,9E+09,9E+09,9E+09,9E+09,9E+09]], v200, z50, toolSprayGun;
MoveL [[359.659,37.5152,685.768],[0.5,-0.5,0.5,0.5],[1,0,-1,0],[9E+09,9E+09,9E+09,9E+09,9E+09,9E+09]], v200, z50, toolSprayGun;
MoveL [[358.023,37.7415,686.547],[0.5,-0.5,0.5,0.5],[1,0,-1,0],[9E+09,9E+09,9E+09,9E+09,9E+09,9E+09]], v200, z50, toolSprayGun;
MoveL [[355.554,38.1347,687.023],[0.5,-0.5,0.5,0.5],[1,0,-1,0],[9E+09,9E+09,9E+09,9E+09,9E+09,9E+09]], v200, z50, toolSprayGun;
MoveL [[352.285,38.4568,689.042],[0.5,-0.5,0.5,0.5],[1,0,-1,0],[9E+09,9E+09,9E+09,9E+09,9E+09,9E+09]], v200, z50, toolSprayGun;
MoveL [[350.407,38.9431,689.923],[0.5,-0.5,0.5,0.5],[1,0,-1,0],[9E+09,9E+09,9E+09,9E+09,9E+09,9E+09]], v200, z50, toolSprayGun;
MoveL [[349.009,39.2115,690.739],[0.5,-0.5,0.5,0.5],[1,0,-1,0],[9E+09,9E+09,9E+09,9E+09,9E+09,9E+09]], v200, z50, toolSprayGun;
MoveL [[345.986,39.8572,691.968],[0.5,-0.5,0.5,0.5],[1,0,-1,0],[9E+09,9E+09,9E+09,9E+09,9E+09,9E+09]], v200, z50, toolSprayGun;
MoveL [[343.185,40.6658,693.597],[0.5,-0.5,0.5,0.5],[1,0,-1,0],[9E+09,9E+09,9E+09,9E+09,9E+09,9E+09]], v200, z50, toolSprayGun;
MoveL [[342.327,40.6678,693.936],[0.5,-0.5,0.5,0.5],[1,0,-1,0],[9E+09,9E+09,9E+09,9E+09,9E+09,9E+09]], v200, z50, toolSprayGun;
MoveL [[339.843,41.3284,695.578],[0.5,-0.5,0.5,0.5],[1,0,-1,0],[9E+09,9E+09,9E+09,9E+09,9E+09,9E+09]], v200, z50, toolSprayGun;
MoveL [[338.184,41.6305,696.082],[0.5,-0.5,0.5,0.5],[1,0,-1,0],[9E+09,9E+09,9E+09,9E+09,9E+09,9E+09]], v200, z50, toolSprayGun;
MoveL [[335.877,41.9086,697.184],[0.5,-0.5,0.5,0.5],[1,0,-1,0],[9E+09,9E+09,9E+09,9E+09,9E+09,9E+09]], v200, z50, toolSprayGun;
MoveL [[334.627,41.8956,697.455],[0.5,-0.5,0.5,0.5],[1,0,-1,0],[9E+09,9E+09,9E+09,9E+09,9E+09,9E+09]], v200, z50, toolSprayGun;
MoveL [[332.529,42.4048,698.783],[0.5,-0.5,0.5,0.5],[1,0,-1,0],[9E+09,9E+09,9E+09,9E+09,9E+09,9E+09]], v200, z50, toolSprayGun;
MoveL [[332.006,42.1203,699.205],[0.5,-0.5,0.5,0.5],[1,0,-1,0],[9E+09,9E+09,9E+09,9E+09,9E+09,9E+09]], v200, z50, toolSprayGun;
MoveL [[330.385,42.73,700.001],[0.5,-0.5,0.5,0.5],[1,0,-1,0],[9E+09,9E+09,9E+09,9E+09,9E+09,9E+09]], v200, z50, toolSprayGun;
MoveL [[328.166,43.5159,700.916],[0.5,-0.5,0.5,0.5],[1,0,-1,0],[9E+09,9E+09,9E+09,9E+09,9E+09,9E+09]], v200, z50, toolSprayGun;
MoveL [[326.825,43.7867,700.946],[0.5,-0.5,0.5,0.5],[1,0,-1,0],[9E+09,9E+09,9E+09,9E+09,9E+09,9E+09]], v200, z50, toolSprayGun;
MoveL [[325.007,44.3777,702.226],[0.5,-0.5,0.5,0.5],[1,0,-1,0],[9E+09,9E+09,9E+09,9E+09,9E+09,9E+09]], v200, z50, toolSprayGun;
MoveL [[322.821,44.6364,703.102],[0.5,-0.5,0.5,0.5],[1,0,-1,0],[9E+09,9E+09,9E+09,9E+09,9E+09,9E+09]], v200, z50, toolSprayGun;
MoveL [[319.462,44.8927,704.258],[0.5,-0.5,0.5,0.5],[1,0,-1,0],[9E+09,9E+09,9E+09,9E+09,9E+09,9E+09]], v200, z50, toolSprayGun;
MoveL [[317.672,45.1785,704.165],[0.5,-0.5,0.5,0.5],[1,0,-1,0],[9E+09,9E+09,9E+09,9E+09,9E+09,9E+09]], v200, z50, toolSprayGun;
MoveL [[315.366,45.6414,704.54],[0.5,-0.5,0.5,0.5],[1,0,-1,0],[9E+09,9E+09,9E+09,9E+09,9E+09,9E+09]], v200, z50, toolSprayGun;
MoveL [[314.29,45.9869,705.162],[0.5,-0.5,0.5,0.5],[1,0,-1,0],[9E+09,9E+09,9E+09,9E+09,9E+09,9E+09]], v200, z50, toolSprayGun;
MoveL [[311.25,45.6283,706.011],[0.5,-0.5,0.5,0.5],[1,0,-1,0],[9E+09,9E+09,9E+09,9E+09,9E+09,9E+09]], v200, z50, toolSprayGun;
MoveL [[309.076,44.5556,705.783],[0.5,-0.5,0.5,0.5],[1,0,-1,0],[9E+09,9E+09,9E+09,9E+09,9E+09,9E+09]], v200, z50, toolSprayGun;
MoveL [[308.065,44.8349,706.396],[0.5,-0.5,0.5,0.5],[1,0,-1,0],[9E+09,9E+09,9E+09,9E+09,9E+09,9E+09]], v200, z50, toolSprayGun;
MoveL [[304.499,44.0705,706.835],[0.5,-0.5,0.5,0.5],[1,0,-1,0],[9E+09,9E+09,9E+09,9E+09,9E+09,9E+09]], v200, z50, toolSprayGun;
MoveL [[301.568,43.8592,707.344],[0.5,-0.5,0.5,0.5],[1,0,-1,0],[9E+09,9E+09,9E+09,9E+09,9E+09,9E+09]], v200, z50, toolSprayGun;
MoveL [[298.853,43.4296,707.149],[0.5,-0.5,0.5,0.5],[1,0,-1,0],[9E+09,9E+09,9E+09,9E+09,9E+09,9E+09]], v200, z50, toolSprayGun;
MoveL [[297.102,43.7812,708.08],[0.5,-0.5,0.5,0.5],[1,0,-1,0],[9E+09,9E+09,9E+09,9E+09,9E+09,9E+09]], v200, z50, toolSprayGun;
MoveL [[293.61,42.9686,708.087],[0.5,-0.5,0.5,0.5],[1,0,-1,0],[9E+09,9E+09,9E+09,9E+09,9E+09,9E+09]], v200, z50, toolSprayGun;
MoveL [[290.182,42.6868,707.781],[0.5,-0.5,0.5,0.5],[1,0,-1,0],[9E+09,9E+09,9E+09,9E+09,9E+09,9E+09]], v200, z50, toolSprayGun;
MoveL [[288.289,42.0456,706.886],[0.5,-0.5,0.5,0.5],[1,0,-1,0],[9E+09,9E+09,9E+09,9E+09,9E+09,9E+09]], v200, z50, toolSprayGun;
MoveL [[286.123,42.4417,707.848],[0.5,-0.5,0.5,0.5],[1,0,-1,0],[9E+09,9E+09,9E+09,9E+09,9E+09,9E+09]], v200, z50, toolSprayGun;
MoveL [[283.398,41.8627,707.985],[0.5,-0.5,0.5,0.5],[1,0,-1,0],[9E+09,9E+09,9E+09,9E+09,9E+09,9E+09]], v200, z50, toolSprayGun;
MoveL [[281.617,41.088,707.663],[0.5,-0.5,0.5,0.5],[1,0,-1,0],[9E+09,9E+09,9E+09,9E+09,9E+09,9E+09]], v200, z50, toolSprayGun;
MoveL [[278.924,40.9084,707.332],[0.5,-0.5,0.5,0.5],[1,0,-1,0],[9E+09,9E+09,9E+09,9E+09,9E+09,9E+09]], v200, z50, toolSprayGun;
MoveL [[277.304,41.1301,707.926],[0.5,-0.5,0.5,0.5],[1,0,-1,0],[9E+09,9E+09,9E+09,9E+09,9E+09,9E+09]], v200, z50, toolSprayGun;
MoveL [[274.947,40.8448,707.381],[0.5,-0.5,0.5,0.5],[1,0,-1,0],[9E+09,9E+09,9E+09,9E+09,9E+09,9E+09]], v200, z50, toolSprayGun;
MoveL [[272.395,41.0856,707.658],[0.5,-0.5,0.5,0.5],[1,0,-1,0],[9E+09,9E+09,9E+09,9E+09,9E+09,9E+09]], v200, z50, toolSprayGun;
MoveL [[270.112,40.8009,708.03],[0.5,-0.5,0.5,0.5],[1,0,-1,0],[9E+09,9E+09,9E+09,9E+09,9E+09,9E+09]], v200, z50, toolSprayGun;
MoveL [[268.478,41.0278,708.513],[0.5,-0.5,0.5,0.5],[1,0,-1,0],[9E+09,9E+09,9E+09,9E+09,9E+09,9E+09]], v200, z50, toolSprayGun;
MoveL [[265.306,41.2496,708.024],[0.5,-0.5,0.5,0.5],[1,0,-1,0],[9E+09,9E+09,9E+09,9E+09,9E+09,9E+09]], v200, z50, toolSprayGun;
MoveL [[262.86,40.9478,706.99],[0.5,-0.5,0.5,0.5],[1,0,-1,0],[9E+09,9E+09,9E+09,9E+09,9E+09,9E+09]], v200, z50, toolSprayGun;
MoveL [[260.079,40.5116,706.791],[0.5,-0.5,0.5,0.5],[1,0,-1,0],[9E+09,9E+09,9E+09,9E+09,9E+09,9E+09]], v200, z50, toolSprayGun;
MoveL [[258.403,40.7372,707.087],[0.5,-0.5,0.5,0.5],[1,0,-1,0],[9E+09,9E+09,9E+09,9E+09,9E+09,9E+09]], v200, z50, toolSprayGun;
MoveL [[256.444,40.3871,706.714],[0.5,-0.5,0.5,0.5],[1,0,-1,0],[9E+09,9E+09,9E+09,9E+09,9E+09,9E+09]], v200, z50, toolSprayGun;
MoveL [[254.379,40.6471,706.887],[0.5,-0.5,0.5,0.5],[1,0,-1,0],[9E+09,9E+09,9E+09,9E+09,9E+09,9E+09]], v200, z50, toolSprayGun;
MoveL [[251.914,40.9548,707.59],[0.5,-0.5,0.5,0.5],[1,0,-1,0],[9E+09,9E+09,9E+09,9E+09,9E+09,9E+09]], v200, z50, toolSprayGun;
MoveL [[250.355,41.1591,707.577],[0.5,-0.5,0.5,0.5],[1,0,-1,0],[9E+09,9E+09,9E+09,9E+09,9E+09,9E+09]], v200, z50, toolSprayGun;
MoveL [[248.097,41.5247,708.062],[0.5,-0.5,0.5,0.5],[1,0,-1,0],[9E+09,9E+09,9E+09,9E+09,9E+09,9E+09]], v200, z50, toolSprayGun;
MoveL [[245.982,41.3393,707.425],[0.5,-0.5,0.5,0.5],[1,0,-1,0],[9E+09,9E+09,9E+09,9E+09,9E+09,9E+09]], v200, z50, toolSprayGun;
MoveL [[243.368,41.6413,708.656],[0.5,-0.5,0.5,0.5],[1,0,-1,0],[9E+09,9E+09,9E+09,9E+09,9E+09,9E+09]], v200, z50, toolSprayGun;
MoveL [[241.863,42.1665,708.03],[0.5,-0.5,0.5,0.5],[1,0,-1,0],[9E+09,9E+09,9E+09,9E+09,9E+09,9E+09]], v200, z50, toolSprayGun;
MoveL [[239.579,42.5151,708.328],[0.5,-0.5,0.5,0.5],[1,0,-1,0],[9E+09,9E+09,9E+09,9E+09,9E+09,9E+09]], v200, z50, toolSprayGun;
MoveL [[237.945,43.0701,707.516],[0.5,-0.5,0.5,0.5],[1,0,-1,0],[9E+09,9E+09,9E+09,9E+09,9E+09,9E+09]], v200, z50, toolSprayGun;
MoveL [[234.26,43.6422,707.488],[0.5,-0.5,0.5,0.5],[1,0,-1,0],[9E+09,9E+09,9E+09,9E+09,9E+09,9E+09]], v200, z50, toolSprayGun;
MoveL [[231.005,44.3854,707.733],[0.5,-0.5,0.5,0.5],[1,0,-1,0],[9E+09,9E+09,9E+09,9E+09,9E+09,9E+09]], v200, z50, toolSprayGun;
MoveL [[229.125,44.9535,707.947],[0.5,-0.5,0.5,0.5],[1,0,-1,0],[9E+09,9E+09,9E+09,9E+09,9E+09,9E+09]], v200, z50, toolSprayGun;
MoveL [[226.308,44.7717,707.865],[0.5,-0.5,0.5,0.5],[1,0,-1,0],[9E+09,9E+09,9E+09,9E+09,9E+09,9E+09]], v200, z50, toolSprayGun;
MoveL [[222.576,45.062,707.874],[0.5,-0.5,0.5,0.5],[1,0,-1,0],[9E+09,9E+09,9E+09,9E+09,9E+09,9E+09]], v200, z50, toolSprayGun;
MoveL [[221.221,44.8796,707.843],[0.5,-0.5,0.5,0.5],[1,0,-1,0],[9E+09,9E+09,9E+09,9E+09,9E+09,9E+09]], v200, z50, toolSprayGun;
MoveL [[219.707,45.3756,708.084],[0.5,-0.5,0.5,0.5],[1,0,-1,0],[9E+09,9E+09,9E+09,9E+09,9E+09,9E+09]], v200, z50, toolSprayGun;
MoveL [[216.496,45.6906,709.13],[0.5,-0.5,0.5,0.5],[1,0,-1,0],[9E+09,9E+09,9E+09,9E+09,9E+09,9E+09]], v200, z50, toolSprayGun;
MoveL [[215.127,45.8884,710.25],[0.5,-0.5,0.5,0.5],[1,0,-1,0],[9E+09,9E+09,9E+09,9E+09,9E+09,9E+09]], v200, z50, toolSprayGun;
MoveL [[212.602,45.985,711.346],[0.5,-0.5,0.5,0.5],[1,0,-1,0],[9E+09,9E+09,9E+09,9E+09,9E+09,9E+09]], v200, z50, toolSprayGun;
MoveL [[210.76,46.5794,711.91],[0.5,-0.5,0.5,0.5],[1,0,-1,0],[9E+09,9E+09,9E+09,9E+09,9E+09,9E+09]], v200, z50, toolSprayGun;
MoveL [[209.916,46.3164,713.02],[0.5,-0.5,0.5,0.5],[1,0,-1,0],[9E+09,9E+09,9E+09,9E+09,9E+09,9E+09]], v200, z50, toolSprayGun;
MoveL [[208.108,46.2437,713.35],[0.5,-0.5,0.5,0.5],[1,0,-1,0],[9E+09,9E+09,9E+09,9E+09,9E+09,9E+09]], v200, z50, toolSprayGun;
MoveL [[207.131,46.0711,713.482],[0.5,-0.5,0.5,0.5],[1,0,-1,0],[9E+09,9E+09,9E+09,9E+09,9E+09,9E+09]], v200, z50, toolSprayGun;
MoveL [[205.423,46.3793,714.05],[0.5,-0.5,0.5,0.5],[1,0,-1,0],[9E+09,9E+09,9E+09,9E+09,9E+09,9E+09]], v200, z50, toolSprayGun;
MoveL [[204.629,46.5905,714.324],[0.5,-0.5,0.5,0.5],[1,0,-1,0],[9E+09,9E+09,9E+09,9E+09,9E+09,9E+09]], v200, z50, toolSprayGun;
MoveL [[204.094,45.9705,714.677],[0.5,-0.5,0.5,0.5],[1,0,-1,0],[9E+09,9E+09,9E+09,9E+09,9E+09,9E+09]], v200, z50, toolSprayGun;
MoveL [[202.959,46.2027,715.088],[0.5,-0.5,0.5,0.5],[1,0,-1,0],[9E+09,9E+09,9E+09,9E+09,9E+09,9E+09]], v200, z50, toolSprayGun;
MoveL [[202.723,46.1955,715.221],[0.5,-0.5,0.5,0.5],[1,0,-1,0],[9E+09,9E+09,9E+09,9E+09,9E+09,9E+09]], v200, z50, toolSprayGun;
MoveL [[202.529,45.7783,716.059],[0.5,-0.5,0.5,0.5],[1,0,-1,0],[9E+09,9E+09,9E+09,9E+09,9E+09,9E+09]], v200, z50, toolSprayGun;
MoveL [[201.863,45.9125,716.377],[0.5,-0.5,0.5,0.5],[1,0,-1,0],[9E+09,9E+09,9E+09,9E+09,9E+09,9E+09]], v200, z50, toolSprayGun;
MoveL [[201.574,45.6228,717.184],[0.5,-0.5,0.5,0.5],[1,0,-1,0],[9E+09,9E+09,9E+09,9E+09,9E+09,9E+09]], v200, z50, toolSprayGun;
MoveL [[201.788,45.6645,717.142],[0.5,-0.5,0.5,0.5],[1,0,-1,0],[9E+09,9E+09,9E+09,9E+09,9E+09,9E+09]], v200, z50, toolSprayGun;
MoveL [[201.275,45.7854,717.469],[0.5,-0.5,0.5,0.5],[1,0,-1,0],[9E+09,9E+09,9E+09,9E+09,9E+09,9E+09]], v200, z50, toolSprayGun;
MoveL [[200.987,45.98,717.378],[0.5,-0.5,0.5,0.5],[1,0,-1,0],[9E+09,9E+09,9E+09,9E+09,9E+09,9E+09]], v200, z50, toolSprayGun;
MoveL [[201.068,46.0544,717.517],[0.5,-0.5,0.5,0.5],[1,0,-1,0],[9E+09,9E+09,9E+09,9E+09,9E+09,9E+09]], v200, z50, toolSprayGun;
MoveL [[201.297,46.085,718.015],[0.5,-0.5,0.5,0.5],[1,0,-1,0],[9E+09,9E+09,9E+09,9E+09,9E+09,9E+09]], v200, z50, toolSprayGun;
MoveL [[201.641,46.213,718.38],[0.5,-0.5,0.5,0.5],[1,0,-1,0],[9E+09,9E+09,9E+09,9E+09,9E+09,9E+09]], v200, z50, toolSprayGun;
MoveL [[201.14,46.4014,718.733],[0.5,-0.5,0.5,0.5],[1,0,-1,0],[9E+09,9E+09,9E+09,9E+09,9E+09,9E+09]], v200, z50, toolSprayGun;
MoveL [[201.588,46.4854,718.976],[0.5,-0.5,0.5,0.5],[1,0,-1,0],[9E+09,9E+09,9E+09,9E+09,9E+09,9E+09]], v200, z50, toolSprayGun;
MoveL [[201.909,47.0704,719.08],[0.5,-0.5,0.5,0.5],[1,0,-1,0],[9E+09,9E+09,9E+09,9E+09,9E+09,9E+09]], v200, z50, toolSprayGun;
MoveL [[201.688,47.2024,719.295],[0.5,-0.5,0.5,0.5],[1,0,-1,0],[9E+09,9E+09,9E+09,9E+09,9E+09,9E+09]], v200, z50, toolSprayGun;
MoveL [[202.615,47.7658,719.017],[0.5,-0.5,0.5,0.5],[1,0,-1,0],[9E+09,9E+09,9E+09,9E+09,9E+09,9E+09]], v200, z50, toolSprayGun;
MoveL [[202.739,48.2802,718.574],[0.5,-0.5,0.5,0.5],[1,0,-1,0],[9E+09,9E+09,9E+09,9E+09,9E+09,9E+09]], v200, z50, toolSprayGun;
MoveL [[202.621,48.3907,718.689],[0.5,-0.5,0.5,0.5],[1,0,-1,0],[9E+09,9E+09,9E+09,9E+09,9E+09,9E+09]], v200, z50, toolSprayGun;
MoveL [[202.929,49.2976,718.333],[0.5,-0.5,0.5,0.5],[1,0,-1,0],[9E+09,9E+09,9E+09,9E+09,9E+09,9E+09]], v200, z50, toolSprayGun;
MoveL [[203.193,50.3043,717.862],[0.5,-0.5,0.5,0.5],[1,0,-1,0],[9E+09,9E+09,9E+09,9E+09,9E+09,9E+09]], v200, z50, toolSprayGun;
MoveL [[203.05,51.2547,717.498],[0.5,-0.5,0.5,0.5],[1,0,-1,0],[9E+09,9E+09,9E+09,9E+09,9E+09,9E+09]], v200, z50, toolSprayGun;
MoveL [[203.335,52.3407,716.79],[0.5,-0.5,0.5,0.5],[1,0,-1,0],[9E+09,9E+09,9E+09,9E+09,9E+09,9E+09]], v200, z50, toolSprayGun;
MoveL [[203.137,53.0892,716.957],[0.5,-0.5,0.5,0.5],[1,0,-1,0],[9E+09,9E+09,9E+09,9E+09,9E+09,9E+09]], v200, z50, toolSprayGun;
MoveL [[203.001,53.9032,716.44],[0.5,-0.5,0.5,0.5],[1,0,-1,0],[9E+09,9E+09,9E+09,9E+09,9E+09,9E+09]], v200, z50, toolSprayGun;
MoveL [[203.48,54.4193,715.348],[0.5,-0.5,0.5,0.5],[1,0,-1,0],[9E+09,9E+09,9E+09,9E+09,9E+09,9E+09]], v200, z50, toolSprayGun;
MoveL [[204.387,56.4228,714.34],[0.5,-0.5,0.5,0.5],[1,0,-1,0],[9E+09,9E+09,9E+09,9E+09,9E+09,9E+09]], v200, z50, toolSprayGun;
MoveL [[204.401,57.3829,714.256],[0.5,-0.5,0.5,0.5],[1,0,-1,0],[9E+09,9E+09,9E+09,9E+09,9E+09,9E+09]], v200, z50, toolSprayGun;
MoveL [[204.743,59.1086,713.354],[0.5,-0.5,0.5,0.5],[1,0,-1,0],[9E+09,9E+09,9E+09,9E+09,9E+09,9E+09]], v200, z50, toolSprayGun;
MoveL [[204.713,61.2967,712.905],[0.5,-0.5,0.5,0.5],[1,0,-1,0],[9E+09,9E+09,9E+09,9E+09,9E+09,9E+09]], v200, z50, toolSprayGun;
MoveL [[204.625,64.247,711.888],[0.5,-0.5,0.5,0.5],[1,0,-1,0],[9E+09,9E+09,9E+09,9E+09,9E+09,9E+09]], v200, z50, toolSprayGun;
MoveL [[204.654,65.4151,711.609],[0.5,-0.5,0.5,0.5],[1,0,-1,0],[9E+09,9E+09,9E+09,9E+09,9E+09,9E+09]], v200, z50, toolSprayGun;
MoveL [[204.853,68.5911,710.709],[0.5,-0.5,0.5,0.5],[1,0,-1,0],[9E+09,9E+09,9E+09,9E+09,9E+09,9E+09]], v200, z50, toolSprayGun;
MoveL [[204.547,70.9138,710.143],[0.5,-0.5,0.5,0.5],[1,0,-1,0],[9E+09,9E+09,9E+09,9E+09,9E+09,9E+09]], v200, z50, toolSprayGun;
MoveL [[204.693,73.3141,709.765],[0.5,-0.5,0.5,0.5],[1,0,-1,0],[9E+09,9E+09,9E+09,9E+09,9E+09,9E+09]], v200, z50, toolSprayGun;
MoveL [[204.746,75.6955,709.117],[0.5,-0.5,0.5,0.5],[1,0,-1,0],[9E+09,9E+09,9E+09,9E+09,9E+09,9E+09]], v200, z50, toolSprayGun;
MoveL [[204.987,79.7026,707.312],[0.5,-0.5,0.5,0.5],[1,0,-1,0],[9E+09,9E+09,9E+09,9E+09,9E+09,9E+09]], v200, z50, toolSprayGun;
MoveL [[204.694,83.094,705.89],[0.5,-0.5,0.5,0.5],[1,0,-1,0],[9E+09,9E+09,9E+09,9E+09,9E+09,9E+09]], v200, z50, toolSprayGun;
MoveL [[204.091,85.6872,705.601],[0.5,-0.5,0.5,0.5],[1,0,-1,0],[9E+09,9E+09,9E+09,9E+09,9E+09,9E+09]], v200, z50, toolSprayGun;
MoveL [[204.136,87.916,704.891],[0.5,-0.5,0.5,0.5],[1,0,-1,0],[9E+09,9E+09,9E+09,9E+09,9E+09,9E+09]], v200, z50, toolSprayGun;
MoveL [[203.347,91.5648,704.239],[0.5,-0.5,0.5,0.5],[1,0,-1,0],[9E+09,9E+09,9E+09,9E+09,9E+09,9E+09]], v200, z50, toolSprayGun;
MoveL [[203.285,94.4521,703.008],[0.5,-0.5,0.5,0.5],[1,0,-1,0],[9E+09,9E+09,9E+09,9E+09,9E+09,9E+09]], v200, z50, toolSprayGun;
MoveL [[202.837,96.7501,702.127],[0.5,-0.5,0.5,0.5],[1,0,-1,0],[9E+09,9E+09,9E+09,9E+09,9E+09,9E+09]], v200, z50, toolSprayGun;
MoveL [[203.015,99.8364,701.208],[0.5,-0.5,0.5,0.5],[1,0,-1,0],[9E+09,9E+09,9E+09,9E+09,9E+09,9E+09]], v200, z50, toolSprayGun;
MoveL [[202.744,104.4,700.275],[0.5,-0.5,0.5,0.5],[1,0,-1,0],[9E+09,9E+09,9E+09,9E+09,9E+09,9E+09]], v200, z50, toolSprayGun;
MoveL [[202.191,107.522,699.463],[0.5,-0.5,0.5,0.5],[1,0,-1,0],[9E+09,9E+09,9E+09,9E+09,9E+09,9E+09]], v200, z50, toolSprayGun;
MoveL [[202.663,110.314,698.761],[0.5,-0.5,0.5,0.5],[1,0,-1,0],[9E+09,9E+09,9E+09,9E+09,9E+09,9E+09]], v200, z50, toolSprayGun;
MoveL [[203.063,115.896,698.057],[0.5,-0.5,0.5,0.5],[1,0,-1,0],[9E+09,9E+09,9E+09,9E+09,9E+09,9E+09]], v200, z50, toolSprayGun;
MoveL [[202.985,117.982,697.4],[0.5,-0.5,0.5,0.5],[1,0,-1,0],[9E+09,9E+09,9E+09,9E+09,9E+09,9E+09]], v200, z50, toolSprayGun;
MoveL [[203.13,121.839,696.956],[0.5,-0.5,0.5,0.5],[1,0,-1,0],[9E+09,9E+09,9E+09,9E+09,9E+09,9E+09]], v200, z50, toolSprayGun;
MoveL [[203.05,125.443,696.699],[0.5,-0.5,0.5,0.5],[1,0,-1,0],[9E+09,9E+09,9E+09,9E+09,9E+09,9E+09]], v200, z50, toolSprayGun;
MoveL [[202.967,130.477,695.959],[0.5,-0.5,0.5,0.5],[1,0,-1,0],[9E+09,9E+09,9E+09,9E+09,9E+09,9E+09]], v200, z50, toolSprayGun;
MoveL [[202.866,132.013,695.501],[0.5,-0.5,0.5,0.5],[1,0,-1,0],[9E+09,9E+09,9E+09,9E+09,9E+09,9E+09]], v200, z50, toolSprayGun;
MoveL [[203.325,137.475,694.864],[0.5,-0.5,0.5,0.5],[1,0,-1,0],[9E+09,9E+09,9E+09,9E+09,9E+09,9E+09]], v200, z50, toolSprayGun;
MoveL [[203.639,141.988,694.867],[0.5,-0.5,0.5,0.5],[1,0,-1,0],[9E+09,9E+09,9E+09,9E+09,9E+09,9E+09]], v200, z50, toolSprayGun;
MoveL [[204.116,144.797,693.523],[0.5,-0.5,0.5,0.5],[1,0,-1,0],[9E+09,9E+09,9E+09,9E+09,9E+09,9E+09]], v200, z50, toolSprayGun;
MoveL [[204.098,148.478,692.413],[0.5,-0.5,0.5,0.5],[1,0,-1,0],[9E+09,9E+09,9E+09,9E+09,9E+09,9E+09]], v200, z50, toolSprayGun;
MoveL [[203.875,151.92,691.543],[0.5,-0.5,0.5,0.5],[1,0,-1,0],[9E+09,9E+09,9E+09,9E+09,9E+09,9E+09]], v200, z50, toolSprayGun;
MoveL [[203.761,155.933,690.324],[0.5,-0.5,0.5,0.5],[1,0,-1,0],[9E+09,9E+09,9E+09,9E+09,9E+09,9E+09]], v200, z50, toolSprayGun;
MoveL [[203.186,159.392,689.793],[0.5,-0.5,0.5,0.5],[1,0,-1,0],[9E+09,9E+09,9E+09,9E+09,9E+09,9E+09]], v200, z50, toolSprayGun;
MoveL [[203.081,162.466,688.821],[0.5,-0.5,0.5,0.5],[1,0,-1,0],[9E+09,9E+09,9E+09,9E+09,9E+09,9E+09]], v200, z50, toolSprayGun;
MoveL [[202.75,165.978,688.4],[0.5,-0.5,0.5,0.5],[1,0,-1,0],[9E+09,9E+09,9E+09,9E+09,9E+09,9E+09]], v200, z50, toolSprayGun;
MoveL [[202.401,171.282,687.58],[0.5,-0.5,0.5,0.5],[1,0,-1,0],[9E+09,9E+09,9E+09,9E+09,9E+09,9E+09]], v200, z50, toolSprayGun;
MoveL [[202.509,176.132,686.61],[0.5,-0.5,0.5,0.5],[1,0,-1,0],[9E+09,9E+09,9E+09,9E+09,9E+09,9E+09]], v200, z50, toolSprayGun;
MoveL [[202.39,178.657,685.882],[0.5,-0.5,0.5,0.5],[1,0,-1,0],[9E+09,9E+09,9E+09,9E+09,9E+09,9E+09]], v200, z50, toolSprayGun;
MoveL [[202.262,184.109,685.769],[0.5,-0.5,0.5,0.5],[1,0,-1,0],[9E+09,9E+09,9E+09,9E+09,9E+09,9E+09]], v200, z50, toolSprayGun;
MoveL [[201.977,188.114,686.611],[0.5,-0.5,0.5,0.5],[1,0,-1,0],[9E+09,9E+09,9E+09,9E+09,9E+09,9E+09]], v200, z50, toolSprayGun;
MoveL [[201.811,192.363,686.935],[0.5,-0.5,0.5,0.5],[1,0,-1,0],[9E+09,9E+09,9E+09,9E+09,9E+09,9E+09]], v200, z50, toolSprayGun;
MoveL [[201.593,194.177,686.485],[0.5,-0.5,0.5,0.5],[1,0,-1,0],[9E+09,9E+09,9E+09,9E+09,9E+09,9E+09]], v200, z50, toolSprayGun;
MoveL [[201.252,199.166,685.979],[0.5,-0.5,0.5,0.5],[1,0,-1,0],[9E+09,9E+09,9E+09,9E+09,9E+09,9E+09]], v200, z50, toolSprayGun;
MoveL [[200.976,200.583,685.964],[0.5,-0.5,0.5,0.5],[1,0,-1,0],[9E+09,9E+09,9E+09,9E+09,9E+09,9E+09]], v200, z50, toolSprayGun;
MoveL [[199.765,206.811,686.166],[0.5,-0.5,0.5,0.5],[1,0,-1,0],[9E+09,9E+09,9E+09,9E+09,9E+09,9E+09]], v200, z50, toolSprayGun;
MoveL [[199.473,209.565,685.537],[0.5,-0.5,0.5,0.5],[1,0,-1,0],[9E+09,9E+09,9E+09,9E+09,9E+09,9E+09]], v200, z50, toolSprayGun;
MoveL [[198.894,212.72,685],[0.5,-0.5,0.5,0.5],[1,0,-1,0],[9E+09,9E+09,9E+09,9E+09,9E+09,9E+09]], v200, z50, toolSprayGun;
MoveL [[198.125,220.376,684.133],[0.5,-0.5,0.5,0.5],[1,0,-1,0],[9E+09,9E+09,9E+09,9E+09,9E+09,9E+09]], v200, z50, toolSprayGun;
MoveL [[197.502,222.578,683.856],[0.5,-0.5,0.5,0.5],[1,0,-1,0],[9E+09,9E+09,9E+09,9E+09,9E+09,9E+09]], v200, z50, toolSprayGun;
MoveL [[196.745,227.463,683.919],[0.5,-0.5,0.5,0.5],[1,0,-1,0],[9E+09,9E+09,9E+09,9E+09,9E+09,9E+09]], v200, z50, toolSprayGun;
MoveL [[196.748,232.699,683.826],[0.5,-0.5,0.5,0.5],[1,0,-1,0],[9E+09,9E+09,9E+09,9E+09,9E+09,9E+09]], v200, z50, toolSprayGun;
MoveL [[196.289,236.083,683.055],[0.5,-0.5,0.5,0.5],[1,0,-1,0],[9E+09,9E+09,9E+09,9E+09,9E+09,9E+09]], v200, z50, toolSprayGun;
MoveL [[196.016,238.088,682.597],[0.5,-0.5,0.5,0.5],[1,0,-1,0],[9E+09,9E+09,9E+09,9E+09,9E+09,9E+09]], v200, z50, toolSprayGun;
MoveL [[195.891,241.48,683.563],[0.5,-0.5,0.5,0.5],[1,0,-1,0],[9E+09,9E+09,9E+09,9E+09,9E+09,9E+09]], v200, z50, toolSprayGun;
MoveL [[195.448,245.452,682.829],[0.5,-0.5,0.5,0.5],[1,0,-1,0],[9E+09,9E+09,9E+09,9E+09,9E+09,9E+09]], v200, z50, toolSprayGun;
MoveL [[195.46,249.425,681.664],[0.5,-0.5,0.5,0.5],[1,0,-1,0],[9E+09,9E+09,9E+09,9E+09,9E+09,9E+09]], v200, z50, toolSprayGun;
MoveL [[193.723,253.348,681.748],[0.5,-0.5,0.5,0.5],[1,0,-1,0],[9E+09,9E+09,9E+09,9E+09,9E+09,9E+09]], v200, z50, toolSprayGun;
MoveL [[193.484,257.748,681.047],[0.5,-0.5,0.5,0.5],[1,0,-1,0],[9E+09,9E+09,9E+09,9E+09,9E+09,9E+09]], v200, z50, toolSprayGun;
MoveL [[192.184,259.784,681.244],[0.5,-0.5,0.5,0.5],[1,0,-1,0],[9E+09,9E+09,9E+09,9E+09,9E+09,9E+09]], v200, z50, toolSprayGun;
MoveL [[191.019,265.432,680.781],[0.5,-0.5,0.5,0.5],[1,0,-1,0],[9E+09,9E+09,9E+09,9E+09,9E+09,9E+09]], v200, z50, toolSprayGun;
MoveL [[190.746,268.837,680.376],[0.5,-0.5,0.5,0.5],[1,0,-1,0],[9E+09,9E+09,9E+09,9E+09,9E+09,9E+09]], v200, z50, toolSprayGun;
MoveL [[190.58,270.785,680.037],[0.5,-0.5,0.5,0.5],[1,0,-1,0],[9E+09,9E+09,9E+09,9E+09,9E+09,9E+09]], v200, z50, toolSprayGun;
MoveL [[189.083,277.11,679.537],[0.5,-0.5,0.5,0.5],[1,0,-1,0],[9E+09,9E+09,9E+09,9E+09,9E+09,9E+09]], v200, z50, toolSprayGun;
MoveL [[187.556,281.332,679.975],[0.5,-0.5,0.5,0.5],[1,0,-1,0],[9E+09,9E+09,9E+09,9E+09,9E+09,9E+09]], v200, z50, toolSprayGun;
MoveL [[186.002,286.56,680.297],[0.5,-0.5,0.5,0.5],[1,0,-1,0],[9E+09,9E+09,9E+09,9E+09,9E+09,9E+09]], v200, z50, toolSprayGun;
MoveL [[185.342,290.644,679.875],[0.5,-0.5,0.5,0.5],[1,0,-1,0],[9E+09,9E+09,9E+09,9E+09,9E+09,9E+09]], v200, z50, toolSprayGun;
MoveL [[184.909,294.649,679.353],[0.5,-0.5,0.5,0.5],[1,0,-1,0],[9E+09,9E+09,9E+09,9E+09,9E+09,9E+09]], v200, z50, toolSprayGun;
MoveL [[183.904,297.514,679.16],[0.5,-0.5,0.5,0.5],[1,0,-1,0],[9E+09,9E+09,9E+09,9E+09,9E+09,9E+09]], v200, z50, toolSprayGun;
MoveL [[183.682,302.677,678.569],[0.5,-0.5,0.5,0.5],[1,0,-1,0],[9E+09,9E+09,9E+09,9E+09,9E+09,9E+09]], v200, z50, toolSprayGun;
MoveL [[183.234,307.422,677.642],[0.5,-0.5,0.5,0.5],[1,0,-1,0],[9E+09,9E+09,9E+09,9E+09,9E+09,9E+09]], v200, z50, toolSprayGun;
MoveL [[183.072,309.537,677.274],[0.5,-0.5,0.5,0.5],[1,0,-1,0],[9E+09,9E+09,9E+09,9E+09,9E+09,9E+09]], v200, z50, toolSprayGun;
MoveL [[182.276,314.281,677.707],[0.5,-0.5,0.5,0.5],[1,0,-1,0],[9E+09,9E+09,9E+09,9E+09,9E+09,9E+09]], v200, z50, toolSprayGun;
MoveL [[182.674,319.394,677.79],[0.5,-0.5,0.5,0.5],[1,0,-1,0],[9E+09,9E+09,9E+09,9E+09,9E+09,9E+09]], v200, z50, toolSprayGun;
MoveL [[183.161,323.973,677.991],[0.5,-0.5,0.5,0.5],[1,0,-1,0],[9E+09,9E+09,9E+09,9E+09,9E+09,9E+09]], v200, z50, toolSprayGun;
MoveL [[183.179,326.744,677.663],[0.5,-0.5,0.5,0.5],[1,0,-1,0],[9E+09,9E+09,9E+09,9E+09,9E+09,9E+09]], v200, z50, toolSprayGun;
MoveL [[184.375,331.117,676.905],[0.5,-0.5,0.5,0.5],[1,0,-1,0],[9E+09,9E+09,9E+09,9E+09,9E+09,9E+09]], v200, z50, toolSprayGun;
MoveL [[184.434,333.789,677.3],[0.5,-0.5,0.5,0.5],[1,0,-1,0],[9E+09,9E+09,9E+09,9E+09,9E+09,9E+09]], v200, z50, toolSprayGun;
MoveL [[185.078,338.46,676.235],[0.5,-0.5,0.5,0.5],[1,0,-1,0],[9E+09,9E+09,9E+09,9E+09,9E+09,9E+09]], v200, z50, toolSprayGun;
MoveL [[185.262,342.285,675.583],[0.5,-0.5,0.5,0.5],[1,0,-1,0],[9E+09,9E+09,9E+09,9E+09,9E+09,9E+09]], v200, z50, toolSprayGun;
MoveL [[186.072,345.302,675.249],[0.5,-0.5,0.5,0.5],[1,0,-1,0],[9E+09,9E+09,9E+09,9E+09,9E+09,9E+09]], v200, z50, toolSprayGun;
MoveL [[187.367,349.346,674.319],[0.5,-0.5,0.5,0.5],[1,0,-1,0],[9E+09,9E+09,9E+09,9E+09,9E+09,9E+09]], v200, z50, toolSprayGun;
MoveL [[188.052,352.49,673.283],[0.5,-0.5,0.5,0.5],[1,0,-1,0],[9E+09,9E+09,9E+09,9E+09,9E+09,9E+09]], v200, z50, toolSprayGun;
MoveL [[188.354,355.247,672.649],[0.5,-0.5,0.5,0.5],[1,0,-1,0],[9E+09,9E+09,9E+09,9E+09,9E+09,9E+09]], v200, z50, toolSprayGun;
MoveL [[188.67,358.367,672.035],[0.5,-0.5,0.5,0.5],[1,0,-1,0],[9E+09,9E+09,9E+09,9E+09,9E+09,9E+09]], v200, z50, toolSprayGun;
MoveL [[189.061,361.568,672.492],[0.5,-0.5,0.5,0.5],[1,0,-1,0],[9E+09,9E+09,9E+09,9E+09,9E+09,9E+09]], v200, z50, toolSprayGun;
MoveL [[188.547,362.514,672.738],[0.5,-0.5,0.5,0.5],[1,0,-1,0],[9E+09,9E+09,9E+09,9E+09,9E+09,9E+09]], v200, z50, toolSprayGun;
MoveL [[188.792,365.676,671.946],[0.5,-0.5,0.5,0.5],[1,0,-1,0],[9E+09,9E+09,9E+09,9E+09,9E+09,9E+09]], v200, z50, toolSprayGun;
MoveL [[189.084,368.44,671.596],[0.5,-0.5,0.5,0.5],[1,0,-1,0],[9E+09,9E+09,9E+09,9E+09,9E+09,9E+09]], v200, z50, toolSprayGun;
MoveL [[189.427,370.469,671.77],[0.5,-0.5,0.5,0.5],[1,0,-1,0],[9E+09,9E+09,9E+09,9E+09,9E+09,9E+09]], v200, z50, toolSprayGun;
MoveL [[189.634,374.285,671.097],[0.5,-0.5,0.5,0.5],[1,0,-1,0],[9E+09,9E+09,9E+09,9E+09,9E+09,9E+09]], v200, z50, toolSprayGun;
MoveL [[189.643,376.353,672.012],[0.5,-0.5,0.5,0.5],[1,0,-1,0],[9E+09,9E+09,9E+09,9E+09,9E+09,9E+09]], v200, z50, toolSprayGun;
MoveL [[190.057,379.712,672.704],[0.5,-0.5,0.5,0.5],[1,0,-1,0],[9E+09,9E+09,9E+09,9E+09,9E+09,9E+09]], v200, z50, toolSprayGun;
MoveL [[190.387,383.517,671.991],[0.5,-0.5,0.5,0.5],[1,0,-1,0],[9E+09,9E+09,9E+09,9E+09,9E+09,9E+09]], v200, z50, toolSprayGun;
MoveL [[190.47,384.214,671.842],[0.5,-0.5,0.5,0.5],[1,0,-1,0],[9E+09,9E+09,9E+09,9E+09,9E+09,9E+09]], v200, z50, toolSprayGun;
MoveL [[190.562,387.386,671.48],[0.5,-0.5,0.5,0.5],[1,0,-1,0],[9E+09,9E+09,9E+09,9E+09,9E+09,9E+09]], v200, z50, toolSprayGun;
MoveL [[190.749,389.062,671.137],[0.5,-0.5,0.5,0.5],[1,0,-1,0],[9E+09,9E+09,9E+09,9E+09,9E+09,9E+09]], v200, z50, toolSprayGun;
MoveL [[191.145,391.763,670.696],[0.5,-0.5,0.5,0.5],[1,0,-1,0],[9E+09,9E+09,9E+09,9E+09,9E+09,9E+09]], v200, z50, toolSprayGun;
MoveL [[191.147,394.058,669.876],[0.5,-0.5,0.5,0.5],[1,0,-1,0],[9E+09,9E+09,9E+09,9E+09,9E+09,9E+09]], v200, z50, toolSprayGun;
MoveL [[190.726,397.105,670.415],[0.5,-0.5,0.5,0.5],[1,0,-1,0],[9E+09,9E+09,9E+09,9E+09,9E+09,9E+09]], v200, z50, toolSprayGun;
MoveL [[190.959,398.914,670.056],[0.5,-0.5,0.5,0.5],[1,0,-1,0],[9E+09,9E+09,9E+09,9E+09,9E+09,9E+09]], v200, z50, toolSprayGun;
MoveL [[191.082,402.599,669.485],[0.5,-0.5,0.5,0.5],[1,0,-1,0],[9E+09,9E+09,9E+09,9E+09,9E+09,9E+09]], v200, z50, toolSprayGun;
MoveL [[191.023,405.523,669.823],[0.5,-0.5,0.5,0.5],[1,0,-1,0],[9E+09,9E+09,9E+09,9E+09,9E+09,9E+09]], v200, z50, toolSprayGun;
MoveL [[190.735,410.517,669.685],[0.5,-0.5,0.5,0.5],[1,0,-1,0],[9E+09,9E+09,9E+09,9E+09,9E+09,9E+09]], v200, z50, toolSprayGun;
MoveL [[191.15,414.626,670.017],[0.5,-0.5,0.5,0.5],[1,0,-1,0],[9E+09,9E+09,9E+09,9E+09,9E+09,9E+09]], v200, z50, toolSprayGun;
MoveL [[191.466,418.726,670.006],[0.5,-0.5,0.5,0.5],[1,0,-1,0],[9E+09,9E+09,9E+09,9E+09,9E+09,9E+09]], v200, z50, toolSprayGun;
MoveL [[191.533,419.55,669.81],[0.5,-0.5,0.5,0.5],[1,0,-1,0],[9E+09,9E+09,9E+09,9E+09,9E+09,9E+09]], v200, z50, toolSprayGun;
MoveL [[191.977,423.818,670.485],[0.5,-0.5,0.5,0.5],[1,0,-1,0],[9E+09,9E+09,9E+09,9E+09,9E+09,9E+09]], v200, z50, toolSprayGun;
MoveL [[192.076,425.41,670.12],[0.5,-0.5,0.5,0.5],[1,0,-1,0],[9E+09,9E+09,9E+09,9E+09,9E+09,9E+09]], v200, z50, toolSprayGun;
MoveL [[192.105,428.055,670.505],[0.5,-0.5,0.5,0.5],[1,0,-1,0],[9E+09,9E+09,9E+09,9E+09,9E+09,9E+09]], v200, z50, toolSprayGun;
MoveL [[192.613,432.548,670.508],[0.5,-0.5,0.5,0.5],[1,0,-1,0],[9E+09,9E+09,9E+09,9E+09,9E+09,9E+09]], v200, z50, toolSprayGun;
MoveL [[191.912,435.416,671.023],[0.5,-0.5,0.5,0.5],[1,0,-1,0],[9E+09,9E+09,9E+09,9E+09,9E+09,9E+09]], v200, z50, toolSprayGun;
MoveL [[192.056,437.784,670.657],[0.5,-0.5,0.5,0.5],[1,0,-1,0],[9E+09,9E+09,9E+09,9E+09,9E+09,9E+09]], v200, z50, toolSprayGun;
MoveL [[191.86,441.639,670.19],[0.5,-0.5,0.5,0.5],[1,0,-1,0],[9E+09,9E+09,9E+09,9E+09,9E+09,9E+09]], v200, z50, toolSprayGun;
MoveL [[192.202,444.618,669.108],[0.5,-0.5,0.5,0.5],[1,0,-1,0],[9E+09,9E+09,9E+09,9E+09,9E+09,9E+09]], v200, z50, toolSprayGun;
MoveL [[190.921,448.728,668.491],[0.5,-0.5,0.5,0.5],[1,0,-1,0],[9E+09,9E+09,9E+09,9E+09,9E+09,9E+09]], v200, z50, toolSprayGun;
MoveL [[190.967,450.558,668.113],[0.5,-0.5,0.5,0.5],[1,0,-1,0],[9E+09,9E+09,9E+09,9E+09,9E+09,9E+09]], v200, z50, toolSprayGun;
MoveL [[190.668,455.38,667.354],[0.5,-0.5,0.5,0.5],[1,0,-1,0],[9E+09,9E+09,9E+09,9E+09,9E+09,9E+09]], v200, z50, toolSprayGun;
MoveL [[190.388,456.882,668.553],[0.5,-0.5,0.5,0.5],[1,0,-1,0],[9E+09,9E+09,9E+09,9E+09,9E+09,9E+09]], v200, z50, toolSprayGun;
MoveL [[190.395,458.888,669.721],[0.5,-0.5,0.5,0.5],[1,0,-1,0],[9E+09,9E+09,9E+09,9E+09,9E+09,9E+09]], v200, z50, toolSprayGun;
MoveL [[189.979,462.655,670.435],[0.5,-0.5,0.5,0.5],[1,0,-1,0],[9E+09,9E+09,9E+09,9E+09,9E+09,9E+09]], v200, z50, toolSprayGun;
MoveL [[190.012,465.036,670.191],[0.5,-0.5,0.5,0.5],[1,0,-1,0],[9E+09,9E+09,9E+09,9E+09,9E+09,9E+09]], v200, z50, toolSprayGun;
MoveL [[189.482,467.528,670.558],[0.5,-0.5,0.5,0.5],[1,0,-1,0],[9E+09,9E+09,9E+09,9E+09,9E+09,9E+09]], v200, z50, toolSprayGun;
MoveL [[188.937,469.718,670.146],[0.5,-0.5,0.5,0.5],[1,0,-1,0],[9E+09,9E+09,9E+09,9E+09,9E+09,9E+09]], v200, z50, toolSprayGun;
MoveL [[188.719,472.068,669.974],[0.5,-0.5,0.5,0.5],[1,0,-1,0],[9E+09,9E+09,9E+09,9E+09,9E+09,9E+09]], v200, z50, toolSprayGun;
MoveL [[188.664,473.847,669.83],[0.5,-0.5,0.5,0.5],[1,0,-1,0],[9E+09,9E+09,9E+09,9E+09,9E+09,9E+09]], v200, z50, toolSprayGun;
MoveL [[188.566,475.741,670.488],[0.5,-0.5,0.5,0.5],[1,0,-1,0],[9E+09,9E+09,9E+09,9E+09,9E+09,9E+09]], v200, z50, toolSprayGun;
MoveL [[188.15,478.096,671.579],[0.5,-0.5,0.5,0.5],[1,0,-1,0],[9E+09,9E+09,9E+09,9E+09,9E+09,9E+09]], v200, z50, toolSprayGun;
MoveL [[188.026,479.375,671.577],[0.5,-0.5,0.5,0.5],[1,0,-1,0],[9E+09,9E+09,9E+09,9E+09,9E+09,9E+09]], v200, z50, toolSprayGun;
MoveL [[187.249,481.82,672.047],[0.5,-0.5,0.5,0.5],[1,0,-1,0],[9E+09,9E+09,9E+09,9E+09,9E+09,9E+09]], v200, z50, toolSprayGun;
MoveL [[186.444,483.463,672.608],[0.5,-0.5,0.5,0.5],[1,0,-1,0],[9E+09,9E+09,9E+09,9E+09,9E+09,9E+09]], v200, z50, toolSprayGun;
MoveL [[185.559,484.294,672.458],[0.5,-0.5,0.5,0.5],[1,0,-1,0],[9E+09,9E+09,9E+09,9E+09,9E+09,9E+09]], v200, z50, toolSprayGun;
MoveL [[184.384,485.557,672.164],[0.5,-0.5,0.5,0.5],[1,0,-1,0],[9E+09,9E+09,9E+09,9E+09,9E+09,9E+09]], v200, z50, toolSprayGun;
MoveL [[184.166,487.31,672.219],[0.5,-0.5,0.5,0.5],[1,0,-1,0],[9E+09,9E+09,9E+09,9E+09,9E+09,9E+09]], v200, z50, toolSprayGun;
MoveL [[183.74,487.723,671.365],[0.5,-0.5,0.5,0.5],[1,0,-1,0],[9E+09,9E+09,9E+09,9E+09,9E+09,9E+09]], v200, z50, toolSprayGun;
MoveL [[183.026,488.581,670.18],[0.5,-0.5,0.5,0.5],[1,0,-1,0],[9E+09,9E+09,9E+09,9E+09,9E+09,9E+09]], v200, z50, toolSprayGun;
MoveL [[182.15,489.775,669.84],[0.5,-0.5,0.5,0.5],[1,0,-1,0],[9E+09,9E+09,9E+09,9E+09,9E+09,9E+09]], v200, z50, toolSprayGun;
MoveL [[182.016,490.652,669.741],[0.5,-0.5,0.5,0.5],[1,0,-1,0],[9E+09,9E+09,9E+09,9E+09,9E+09,9E+09]], v200, z50, toolSprayGun;
MoveL [[181.555,490.982,669.987],[0.5,-0.5,0.5,0.5],[1,0,-1,0],[9E+09,9E+09,9E+09,9E+09,9E+09,9E+09]], v200, z50, toolSprayGun;
MoveL [[181.267,491.356,669.671],[0.5,-0.5,0.5,0.5],[1,0,-1,0],[9E+09,9E+09,9E+09,9E+09,9E+09,9E+09]], v200, z50, toolSprayGun;
MoveL [[181.525,491.07,670.122],[0.5,-0.5,0.5,0.5],[1,0,-1,0],[9E+09,9E+09,9E+09,9E+09,9E+09,9E+09]], v200, z50, toolSprayGun;
MoveL [[181.325,492.104,670.019],[0.5,-0.5,0.5,0.5],[1,0,-1,0],[9E+09,9E+09,9E+09,9E+09,9E+09,9E+09]], v200, z50, toolSprayGun;
MoveL [[182.188,492.574,670.645],[0.5,-0.5,0.5,0.5],[1,0,-1,0],[9E+09,9E+09,9E+09,9E+09,9E+09,9E+09]], v200, z50, toolSprayGun;
MoveL [[183.579,493.259,670.758],[0.5,-0.5,0.5,0.5],[1,0,-1,0],[9E+09,9E+09,9E+09,9E+09,9E+09,9E+09]], v200, z50, toolSprayGun;
MoveL [[185.133,493.227,670.978],[0.5,-0.5,0.5,0.5],[1,0,-1,0],[9E+09,9E+09,9E+09,9E+09,9E+09,9E+09]], v200, z50, toolSprayGun;
MoveL [[185.077,494.192,670.768],[0.5,-0.5,0.5,0.5],[1,0,-1,0],[9E+09,9E+09,9E+09,9E+09,9E+09,9E+09]], v200, z50, toolSprayGun;
MoveL [[186.754,493.933,670.631],[0.5,-0.5,0.5,0.5],[1,0,-1,0],[9E+09,9E+09,9E+09,9E+09,9E+09,9E+09]], v200, z50, toolSprayGun;
MoveL [[189.362,493.944,670.622],[0.5,-0.5,0.5,0.5],[1,0,-1,0],[9E+09,9E+09,9E+09,9E+09,9E+09,9E+09]], v200, z50, toolSprayGun;
MoveL [[191.447,493.366,670.27],[0.5,-0.5,0.5,0.5],[1,0,-1,0],[9E+09,9E+09,9E+09,9E+09,9E+09,9E+09]], v200, z50, toolSprayGun;
MoveL [[191.682,493.918,669.967],[0.5,-0.5,0.5,0.5],[1,0,-1,0],[9E+09,9E+09,9E+09,9E+09,9E+09,9E+09]], v200, z50, toolSprayGun;
MoveL [[195.161,492.344,669.717],[0.5,-0.5,0.5,0.5],[1,0,-1,0],[9E+09,9E+09,9E+09,9E+09,9E+09,9E+09]], v200, z50, toolSprayGun;
MoveL [[198.267,491.482,669.393],[0.5,-0.5,0.5,0.5],[1,0,-1,0],[9E+09,9E+09,9E+09,9E+09,9E+09,9E+09]], v200, z50, toolSprayGun;
MoveL [[201.295,490.454,669.179],[0.5,-0.5,0.5,0.5],[1,0,-1,0],[9E+09,9E+09,9E+09,9E+09,9E+09,9E+09]], v200, z50, toolSprayGun;
MoveL [[204.683,489.214,668.467],[0.5,-0.5,0.5,0.5],[1,0,-1,0],[9E+09,9E+09,9E+09,9E+09,9E+09,9E+09]], v200, z50, toolSprayGun;
MoveL [[205.899,489.303,667.836],[0.5,-0.5,0.5,0.5],[1,0,-1,0],[9E+09,9E+09,9E+09,9E+09,9E+09,9E+09]], v200, z50, toolSprayGun;
MoveL [[209.974,487.792,667.11],[0.5,-0.5,0.5,0.5],[1,0,-1,0],[9E+09,9E+09,9E+09,9E+09,9E+09,9E+09]], v200, z50, toolSprayGun;
MoveL [[212.738,485.956,667.286],[0.5,-0.5,0.5,0.5],[1,0,-1,0],[9E+09,9E+09,9E+09,9E+09,9E+09,9E+09]], v200, z50, toolSprayGun;
MoveL [[216.425,484.874,666.497],[0.5,-0.5,0.5,0.5],[1,0,-1,0],[9E+09,9E+09,9E+09,9E+09,9E+09,9E+09]], v200, z50, toolSprayGun;
MoveL [[218.054,484.568,666.065],[0.5,-0.5,0.5,0.5],[1,0,-1,0],[9E+09,9E+09,9E+09,9E+09,9E+09,9E+09]], v200, z50, toolSprayGun;
MoveL [[221.832,483.436,664.833],[0.5,-0.5,0.5,0.5],[1,0,-1,0],[9E+09,9E+09,9E+09,9E+09,9E+09,9E+09]], v200, z50, toolSprayGun;
MoveL [[224.509,481.858,663.608],[0.5,-0.5,0.5,0.5],[1,0,-1,0],[9E+09,9E+09,9E+09,9E+09,9E+09,9E+09]], v200, z50, toolSprayGun;
MoveL [[225.688,481.533,663.228],[0.5,-0.5,0.5,0.5],[1,0,-1,0],[9E+09,9E+09,9E+09,9E+09,9E+09,9E+09]], v200, z50, toolSprayGun;
MoveL [[230.049,479.662,662.627],[0.5,-0.5,0.5,0.5],[1,0,-1,0],[9E+09,9E+09,9E+09,9E+09,9E+09,9E+09]], v200, z50, toolSprayGun;
MoveL [[237.967,477.08,658.95],[0.5,-0.5,0.5,0.5],[1,0,-1,0],[9E+09,9E+09,9E+09,9E+09,9E+09,9E+09]], v200, z50, toolSprayGun;
MoveL [[240.316,476.445,658.041],[0.5,-0.5,0.5,0.5],[1,0,-1,0],[9E+09,9E+09,9E+09,9E+09,9E+09,9E+09]], v200, z50, toolSprayGun;
MoveL [[242.25,475.618,656.619],[0.5,-0.5,0.5,0.5],[1,0,-1,0],[9E+09,9E+09,9E+09,9E+09,9E+09,9E+09]], v200, z50, toolSprayGun;
MoveL [[245.115,474.932,655.334],[0.5,-0.5,0.5,0.5],[1,0,-1,0],[9E+09,9E+09,9E+09,9E+09,9E+09,9E+09]], v200, z50, toolSprayGun;
MoveL [[249.056,473.62,653.316],[0.5,-0.5,0.5,0.5],[1,0,-1,0],[9E+09,9E+09,9E+09,9E+09,9E+09,9E+09]], v200, z50, toolSprayGun;
MoveL [[252.644,472.013,652.912],[0.5,-0.5,0.5,0.5],[1,0,-1,0],[9E+09,9E+09,9E+09,9E+09,9E+09,9E+09]], v200, z50, toolSprayGun;
MoveL [[256.393,470.558,651.173],[0.5,-0.5,0.5,0.5],[1,0,-1,0],[9E+09,9E+09,9E+09,9E+09,9E+09,9E+09]], v200, z50, toolSprayGun;
MoveL [[258.224,470.115,650.499],[0.5,-0.5,0.5,0.5],[1,0,-1,0],[9E+09,9E+09,9E+09,9E+09,9E+09,9E+09]], v200, z50, toolSprayGun;
MoveL [[261.362,469.691,650.164],[0.5,-0.5,0.5,0.5],[1,0,-1,0],[9E+09,9E+09,9E+09,9E+09,9E+09,9E+09]], v200, z50, toolSprayGun;
MoveL [[266.427,469.263,648.868],[0.5,-0.5,0.5,0.5],[1,0,-1,0],[9E+09,9E+09,9E+09,9E+09,9E+09,9E+09]], v200, z50, toolSprayGun;
MoveL [[270.142,468.171,648.66],[0.5,-0.5,0.5,0.5],[1,0,-1,0],[9E+09,9E+09,9E+09,9E+09,9E+09,9E+09]], v200, z50, toolSprayGun;
MoveL [[274.19,467.69,648.423],[0.5,-0.5,0.5,0.5],[1,0,-1,0],[9E+09,9E+09,9E+09,9E+09,9E+09,9E+09]], v200, z50, toolSprayGun;
MoveL [[276.897,467.169,647.569],[0.5,-0.5,0.5,0.5],[1,0,-1,0],[9E+09,9E+09,9E+09,9E+09,9E+09,9E+09]], v200, z50, toolSprayGun;
MoveL [[281.239,466.659,647.847],[0.5,-0.5,0.5,0.5],[1,0,-1,0],[9E+09,9E+09,9E+09,9E+09,9E+09,9E+09]], v200, z50, toolSprayGun;
MoveL [[286.542,466.036,647.815],[0.5,-0.5,0.5,0.5],[1,0,-1,0],[9E+09,9E+09,9E+09,9E+09,9E+09,9E+09]], v200, z50, toolSprayGun;
MoveL [[288.571,465.61,647.144],[0.5,-0.5,0.5,0.5],[1,0,-1,0],[9E+09,9E+09,9E+09,9E+09,9E+09,9E+09]], v200, z50, toolSprayGun;
MoveL [[294.118,466.63,646.281],[0.5,-0.5,0.5,0.5],[1,0,-1,0],[9E+09,9E+09,9E+09,9E+09,9E+09,9E+09]], v200, z50, toolSprayGun;
MoveL [[297.822,466.969,646.29],[0.5,-0.5,0.5,0.5],[1,0,-1,0],[9E+09,9E+09,9E+09,9E+09,9E+09,9E+09]], v200, z50, toolSprayGun;
MoveL [[302.934,466.779,646.054],[0.5,-0.5,0.5,0.5],[1,0,-1,0],[9E+09,9E+09,9E+09,9E+09,9E+09,9E+09]], v200, z50, toolSprayGun;
MoveL [[308.661,466.796,645.26],[0.5,-0.5,0.5,0.5],[1,0,-1,0],[9E+09,9E+09,9E+09,9E+09,9E+09,9E+09]], v200, z50, toolSprayGun;
MoveL [[310.771,466.648,644.772],[0.5,-0.5,0.5,0.5],[1,0,-1,0],[9E+09,9E+09,9E+09,9E+09,9E+09,9E+09]], v200, z50, toolSprayGun;
MoveL [[316.514,466.244,644.173],[0.5,-0.5,0.5,0.5],[1,0,-1,0],[9E+09,9E+09,9E+09,9E+09,9E+09,9E+09]], v200, z50, toolSprayGun;
MoveL [[322.269,466.113,643.461],[0.5,-0.5,0.5,0.5],[1,0,-1,0],[9E+09,9E+09,9E+09,9E+09,9E+09,9E+09]], v200, z50, toolSprayGun;
MoveL [[328.115,466.262,642.661],[0.5,-0.5,0.5,0.5],[1,0,-1,0],[9E+09,9E+09,9E+09,9E+09,9E+09,9E+09]], v200, z50, toolSprayGun;
MoveL [[331.688,466.07,641.7],[0.5,-0.5,0.5,0.5],[1,0,-1,0],[9E+09,9E+09,9E+09,9E+09,9E+09,9E+09]], v200, z50, toolSprayGun;
MoveL [[337.231,465.604,642.058],[0.5,-0.5,0.5,0.5],[1,0,-1,0],[9E+09,9E+09,9E+09,9E+09,9E+09,9E+09]], v200, z50, toolSprayGun;
MoveL [[342.648,464.794,642.099],[0.5,-0.5,0.5,0.5],[1,0,-1,0],[9E+09,9E+09,9E+09,9E+09,9E+09,9E+09]], v200, z50, toolSprayGun;
MoveL [[349.188,464.387,641.913],[0.5,-0.5,0.5,0.5],[1,0,-1,0],[9E+09,9E+09,9E+09,9E+09,9E+09,9E+09]], v200, z50, toolSprayGun;
MoveL [[351.955,464.155,641.269],[0.5,-0.5,0.5,0.5],[1,0,-1,0],[9E+09,9E+09,9E+09,9E+09,9E+09,9E+09]], v200, z50, toolSprayGun;
MoveL [[358.524,465.425,640.096],[0.5,-0.5,0.5,0.5],[1,0,-1,0],[9E+09,9E+09,9E+09,9E+09,9E+09,9E+09]], v200, z50, toolSprayGun;
MoveL [[363.849,465.717,639.05],[0.5,-0.5,0.5,0.5],[1,0,-1,0],[9E+09,9E+09,9E+09,9E+09,9E+09,9E+09]], v200, z50, toolSprayGun;
MoveL [[369.389,466.216,638.534],[0.5,-0.5,0.5,0.5],[1,0,-1,0],[9E+09,9E+09,9E+09,9E+09,9E+09,9E+09]], v200, z50, toolSprayGun;
MoveL [[371.743,466.23,638.033],[0.5,-0.5,0.5,0.5],[1,0,-1,0],[9E+09,9E+09,9E+09,9E+09,9E+09,9E+09]], v200, z50, toolSprayGun;
MoveL [[376.968,466.516,637.859],[0.5,-0.5,0.5,0.5],[1,0,-1,0],[9E+09,9E+09,9E+09,9E+09,9E+09,9E+09]], v200, z50, toolSprayGun;
MoveL [[379.653,466.028,637.654],[0.5,-0.5,0.5,0.5],[1,0,-1,0],[9E+09,9E+09,9E+09,9E+09,9E+09,9E+09]], v200, z50, toolSprayGun;
MoveL [[384.896,465.626,636.892],[0.5,-0.5,0.5,0.5],[1,0,-1,0],[9E+09,9E+09,9E+09,9E+09,9E+09,9E+09]], v200, z50, toolSprayGun;
MoveL [[389.281,465.638,636.03],[0.5,-0.5,0.5,0.5],[1,0,-1,0],[9E+09,9E+09,9E+09,9E+09,9E+09,9E+09]], v200, z50, toolSprayGun;
MoveL [[392.781,465.376,636.317],[0.5,-0.5,0.5,0.5],[1,0,-1,0],[9E+09,9E+09,9E+09,9E+09,9E+09,9E+09]], v200, z50, toolSprayGun;
MoveL [[397.634,465.277,636.621],[0.5,-0.5,0.5,0.5],[1,0,-1,0],[9E+09,9E+09,9E+09,9E+09,9E+09,9E+09]], v200, z50, toolSprayGun;
MoveL [[402.411,465.906,637.844],[0.5,-0.5,0.5,0.5],[1,0,-1,0],[9E+09,9E+09,9E+09,9E+09,9E+09,9E+09]], v200, z50, toolSprayGun;
MoveL [[405.544,465.867,637.276],[0.5,-0.5,0.5,0.5],[1,0,-1,0],[9E+09,9E+09,9E+09,9E+09,9E+09,9E+09]], v200, z50, toolSprayGun;
MoveL [[410.663,466.202,638.641],[0.5,-0.5,0.5,0.5],[1,0,-1,0],[9E+09,9E+09,9E+09,9E+09,9E+09,9E+09]], v200, z50, toolSprayGun;
MoveL [[416.863,466.955,639.052],[0.5,-0.5,0.5,0.5],[1,0,-1,0],[9E+09,9E+09,9E+09,9E+09,9E+09,9E+09]], v200, z50, toolSprayGun;
MoveL [[420.161,467.254,638.525],[0.5,-0.5,0.5,0.5],[1,0,-1,0],[9E+09,9E+09,9E+09,9E+09,9E+09,9E+09]], v200, z50, toolSprayGun;
MoveL [[425.083,467.51,637.611],[0.5,-0.5,0.5,0.5],[1,0,-1,0],[9E+09,9E+09,9E+09,9E+09,9E+09,9E+09]], v200, z50, toolSprayGun;
MoveL [[430.404,466.974,638.52],[0.5,-0.5,0.5,0.5],[1,0,-1,0],[9E+09,9E+09,9E+09,9E+09,9E+09,9E+09]], v200, z50, toolSprayGun;
MoveL [[434.29,466.933,639.523],[0.5,-0.5,0.5,0.5],[1,0,-1,0],[9E+09,9E+09,9E+09,9E+09,9E+09,9E+09]], v200, z50, toolSprayGun;
MoveL [[439.386,466.895,639.541],[0.5,-0.5,0.5,0.5],[1,0,-1,0],[9E+09,9E+09,9E+09,9E+09,9E+09,9E+09]], v200, z50, toolSprayGun;
MoveL [[443.533,466.855,638.789],[0.5,-0.5,0.5,0.5],[1,0,-1,0],[9E+09,9E+09,9E+09,9E+09,9E+09,9E+09]], v200, z50, toolSprayGun;
MoveL [[446.658,466.859,639.358],[0.5,-0.5,0.5,0.5],[1,0,-1,0],[9E+09,9E+09,9E+09,9E+09,9E+09,9E+09]], v200, z50, toolSprayGun;
MoveL [[452.564,467.662,639.587],[0.5,-0.5,0.5,0.5],[1,0,-1,0],[9E+09,9E+09,9E+09,9E+09,9E+09,9E+09]], v200, z50, toolSprayGun;
MoveL [[454.251,467.432,640.599],[0.5,-0.5,0.5,0.5],[1,0,-1,0],[9E+09,9E+09,9E+09,9E+09,9E+09,9E+09]], v200, z50, toolSprayGun;
MoveL [[456.61,467.414,640.384],[0.5,-0.5,0.5,0.5],[1,0,-1,0],[9E+09,9E+09,9E+09,9E+09,9E+09,9E+09]], v200, z50, toolSprayGun;
MoveL [[460.799,468.114,640.611],[0.5,-0.5,0.5,0.5],[1,0,-1,0],[9E+09,9E+09,9E+09,9E+09,9E+09,9E+09]], v200, z50, toolSprayGun;
MoveL [[464.342,468.074,641.198],[0.5,-0.5,0.5,0.5],[1,0,-1,0],[9E+09,9E+09,9E+09,9E+09,9E+09,9E+09]], v200, z50, toolSprayGun;
MoveL [[466.976,468.971,641.537],[0.5,-0.5,0.5,0.5],[1,0,-1,0],[9E+09,9E+09,9E+09,9E+09,9E+09,9E+09]], v200, z50, toolSprayGun;
MoveL [[469.503,469.344,641.143],[0.5,-0.5,0.5,0.5],[1,0,-1,0],[9E+09,9E+09,9E+09,9E+09,9E+09,9E+09]], v200, z50, toolSprayGun;
MoveL [[473.44,469.566,640.911],[0.5,-0.5,0.5,0.5],[1,0,-1,0],[9E+09,9E+09,9E+09,9E+09,9E+09,9E+09]], v200, z50, toolSprayGun;
MoveL [[475.198,469.422,641.642],[0.5,-0.5,0.5,0.5],[1,0,-1,0],[9E+09,9E+09,9E+09,9E+09,9E+09,9E+09]], v200, z50, toolSprayGun;
MoveL [[479.167,469.47,642.888],[0.5,-0.5,0.5,0.5],[1,0,-1,0],[9E+09,9E+09,9E+09,9E+09,9E+09,9E+09]], v200, z50, toolSprayGun;
MoveL [[482.583,469.546,642.615],[0.5,-0.5,0.5,0.5],[1,0,-1,0],[9E+09,9E+09,9E+09,9E+09,9E+09,9E+09]], v200, z50, toolSprayGun;
MoveL [[484.269,469.424,643.842],[0.5,-0.5,0.5,0.5],[1,0,-1,0],[9E+09,9E+09,9E+09,9E+09,9E+09,9E+09]], v200, z50, toolSprayGun;
MoveL [[487.831,469.259,644.645],[0.5,-0.5,0.5,0.5],[1,0,-1,0],[9E+09,9E+09,9E+09,9E+09,9E+09,9E+09]], v200, z50, toolSprayGun;
MoveL [[490.686,468.787,644.866],[0.5,-0.5,0.5,0.5],[1,0,-1,0],[9E+09,9E+09,9E+09,9E+09,9E+09,9E+09]], v200, z50, toolSprayGun;
MoveL [[494.262,468.709,645.367],[0.5,-0.5,0.5,0.5],[1,0,-1,0],[9E+09,9E+09,9E+09,9E+09,9E+09,9E+09]], v200, z50, toolSprayGun;
MoveL [[497.553,468.437,646.193],[0.5,-0.5,0.5,0.5],[1,0,-1,0],[9E+09,9E+09,9E+09,9E+09,9E+09,9E+09]], v200, z50, toolSprayGun;
MoveL [[500.945,468.586,647.15],[0.5,-0.5,0.5,0.5],[1,0,-1,0],[9E+09,9E+09,9E+09,9E+09,9E+09,9E+09]], v200, z50, toolSprayGun;
MoveL [[502.381,468.586,647.135],[0.5,-0.5,0.5,0.5],[1,0,-1,0],[9E+09,9E+09,9E+09,9E+09,9E+09,9E+09]], v200, z50, toolSprayGun;
MoveL [[506.418,468.042,647.602],[0.5,-0.5,0.5,0.5],[1,0,-1,0],[9E+09,9E+09,9E+09,9E+09,9E+09,9E+09]], v200, z50, toolSprayGun;
MoveL [[508.513,467.852,648.539],[0.5,-0.5,0.5,0.5],[1,0,-1,0],[9E+09,9E+09,9E+09,9E+09,9E+09,9E+09]], v200, z50, toolSprayGun;
MoveL [[511.654,467.727,648.688],[0.5,-0.5,0.5,0.5],[1,0,-1,0],[9E+09,9E+09,9E+09,9E+09,9E+09,9E+09]], v200, z50, toolSprayGun;
MoveL [[513.904,467.441,649.085],[0.5,-0.5,0.5,0.5],[1,0,-1,0],[9E+09,9E+09,9E+09,9E+09,9E+09,9E+09]], v200, z50, toolSprayGun;
MoveL [[516.525,467.001,649.479],[0.5,-0.5,0.5,0.5],[1,0,-1,0],[9E+09,9E+09,9E+09,9E+09,9E+09,9E+09]], v200, z50, toolSprayGun;
MoveL [[517.495,466.96,649.487],[0.5,-0.5,0.5,0.5],[1,0,-1,0],[9E+09,9E+09,9E+09,9E+09,9E+09,9E+09]], v200, z50, toolSprayGun;
MoveL [[518.667,466.912,649.496],[0.5,-0.5,0.5,0.5],[1,0,-1,0],[9E+09,9E+09,9E+09,9E+09,9E+09,9E+09]], v200, z50, toolSprayGun;
MoveL [[519.85,466.913,650.162],[0.5,-0.5,0.5,0.5],[1,0,-1,0],[9E+09,9E+09,9E+09,9E+09,9E+09,9E+09]], v200, z50, toolSprayGun;
MoveL [[521.452,467.006,650.961],[0.5,-0.5,0.5,0.5],[1,0,-1,0],[9E+09,9E+09,9E+09,9E+09,9E+09,9E+09]], v200, z50, toolSprayGun;
MoveL [[523.204,466.96,651.043],[0.5,-0.5,0.5,0.5],[1,0,-1,0],[9E+09,9E+09,9E+09,9E+09,9E+09,9E+09]], v200, z50, toolSprayGun;
MoveL [[525.907,467.159,651.733],[0.5,-0.5,0.5,0.5],[1,0,-1,0],[9E+09,9E+09,9E+09,9E+09,9E+09,9E+09]], v200, z50, toolSprayGun;
MoveL [[527.445,466.545,652.578],[0.5,-0.5,0.5,0.5],[1,0,-1,0],[9E+09,9E+09,9E+09,9E+09,9E+09,9E+09]], v200, z50, toolSprayGun;
MoveL [[528.757,465.893,652.646],[0.5,-0.5,0.5,0.5],[1,0,-1,0],[9E+09,9E+09,9E+09,9E+09,9E+09,9E+09]], v200, z50, toolSprayGun;
MoveL [[530.844,465.775,652.845],[0.5,-0.5,0.5,0.5],[1,0,-1,0],[9E+09,9E+09,9E+09,9E+09,9E+09,9E+09]], v200, z50, toolSprayGun;
MoveL [[531.649,465.417,652.544],[0.5,-0.5,0.5,0.5],[1,0,-1,0],[9E+09,9E+09,9E+09,9E+09,9E+09,9E+09]], v200, z50, toolSprayGun;
MoveL [[532.764,464.745,652.078],[0.5,-0.5,0.5,0.5],[1,0,-1,0],[9E+09,9E+09,9E+09,9E+09,9E+09,9E+09]], v200, z50, toolSprayGun;
MoveL [[533.313,463.926,652.001],[0.5,-0.5,0.5,0.5],[1,0,-1,0],[9E+09,9E+09,9E+09,9E+09,9E+09,9E+09]], v200, z50, toolSprayGun;
MoveL [[533.771,463.08,651.643],[0.5,-0.5,0.5,0.5],[1,0,-1,0],[9E+09,9E+09,9E+09,9E+09,9E+09,9E+09]], v200, z50, toolSprayGun;
MoveL [[534.604,462.935,651.684],[0.5,-0.5,0.5,0.5],[1,0,-1,0],[9E+09,9E+09,9E+09,9E+09,9E+09,9E+09]], v200, z50, toolSprayGun;
MoveL [[535.059,461.456,651.11],[0.5,-0.5,0.5,0.5],[1,0,-1,0],[9E+09,9E+09,9E+09,9E+09,9E+09,9E+09]], v200, z50, toolSprayGun;
MoveL [[535.549,460.076,650.545],[0.5,-0.5,0.5,0.5],[1,0,-1,0],[9E+09,9E+09,9E+09,9E+09,9E+09,9E+09]], v200, z50, toolSprayGun;
MoveL [[535.223,459.002,650.236],[0.5,-0.5,0.5,0.5],[1,0,-1,0],[9E+09,9E+09,9E+09,9E+09,9E+09,9E+09]], v200, z50, toolSprayGun;
MoveL [[536.449,458.499,650.222],[0.5,-0.5,0.5,0.5],[1,0,-1,0],[9E+09,9E+09,9E+09,9E+09,9E+09,9E+09]], v200, z50, toolSprayGun;
MoveL [[535.544,456.571,649.958],[0.5,-0.5,0.5,0.5],[1,0,-1,0],[9E+09,9E+09,9E+09,9E+09,9E+09,9E+09]], v200, z50, toolSprayGun;
MoveL [[535.748,454.561,649.285],[0.5,-0.5,0.5,0.5],[1,0,-1,0],[9E+09,9E+09,9E+09,9E+09,9E+09,9E+09]], v200, z50, toolSprayGun;
MoveL [[536.485,453.991,649.28],[0.5,-0.5,0.5,0.5],[1,0,-1,0],[9E+09,9E+09,9E+09,9E+09,9E+09,9E+09]], v200, z50, toolSprayGun;
MoveL [[536.344,451.88,648.545],[0.5,-0.5,0.5,0.5],[1,0,-1,0],[9E+09,9E+09,9E+09,9E+09,9E+09,9E+09]], v200, z50, toolSprayGun;
MoveL [[536.2,449.164,648.028],[0.5,-0.5,0.5,0.5],[1,0,-1,0],[9E+09,9E+09,9E+09,9E+09,9E+09,9E+09]], v200, z50, toolSprayGun;
MoveL [[536.12,446.524,647.43],[0.5,-0.5,0.5,0.5],[1,0,-1,0],[9E+09,9E+09,9E+09,9E+09,9E+09,9E+09]], v200, z50, toolSprayGun;
MoveL [[535.616,444.02,646.593],[0.5,-0.5,0.5,0.5],[1,0,-1,0],[9E+09,9E+09,9E+09,9E+09,9E+09,9E+09]], v200, z50, toolSprayGun;
MoveL [[536.414,442.329,646.587],[0.5,-0.5,0.5,0.5],[1,0,-1,0],[9E+09,9E+09,9E+09,9E+09,9E+09,9E+09]], v200, z50, toolSprayGun;
MoveL [[536.867,439.228,645.95],[0.5,-0.5,0.5,0.5],[1,0,-1,0],[9E+09,9E+09,9E+09,9E+09,9E+09,9E+09]], v200, z50, toolSprayGun;
MoveL [[537.272,436.571,644.944],[0.5,-0.5,0.5,0.5],[1,0,-1,0],[9E+09,9E+09,9E+09,9E+09,9E+09,9E+09]], v200, z50, toolSprayGun;
MoveL [[538.01,433.13,644.556],[0.5,-0.5,0.5,0.5],[1,0,-1,0],[9E+09,9E+09,9E+09,9E+09,9E+09,9E+09]], v200, z50, toolSprayGun;
MoveL [[538.375,431.883,644.569],[0.5,-0.5,0.5,0.5],[1,0,-1,0],[9E+09,9E+09,9E+09,9E+09,9E+09,9E+09]], v200, z50, toolSprayGun;
MoveL [[538.764,429.356,644.659],[0.5,-0.5,0.5,0.5],[1,0,-1,0],[9E+09,9E+09,9E+09,9E+09,9E+09,9E+09]], v200, z50, toolSprayGun;
MoveL [[538.72,425.48,644.827],[0.5,-0.5,0.5,0.5],[1,0,-1,0],[9E+09,9E+09,9E+09,9E+09,9E+09,9E+09]], v200, z50, toolSprayGun;
MoveL [[539.369,422.848,644.682],[0.5,-0.5,0.5,0.5],[1,0,-1,0],[9E+09,9E+09,9E+09,9E+09,9E+09,9E+09]], v200, z50, toolSprayGun;
MoveL [[539.579,421.81,644.747],[0.5,-0.5,0.5,0.5],[1,0,-1,0],[9E+09,9E+09,9E+09,9E+09,9E+09,9E+09]], v200, z50, toolSprayGun;
MoveL [[540.055,419.166,644.523],[0.5,-0.5,0.5,0.5],[1,0,-1,0],[9E+09,9E+09,9E+09,9E+09,9E+09,9E+09]], v200, z50, toolSprayGun;
MoveL [[540.667,416.347,644.236],[0.5,-0.5,0.5,0.5],[1,0,-1,0],[9E+09,9E+09,9E+09,9E+09,9E+09,9E+09]], v200, z50, toolSprayGun;
MoveL [[541.108,413.271,643.946],[0.5,-0.5,0.5,0.5],[1,0,-1,0],[9E+09,9E+09,9E+09,9E+09,9E+09,9E+09]], v200, z50, toolSprayGun;
MoveL [[541.362,411.765,643.973],[0.5,-0.5,0.5,0.5],[1,0,-1,0],[9E+09,9E+09,9E+09,9E+09,9E+09,9E+09]], v200, z50, toolSprayGun;
MoveL [[541.524,407.381,644.081],[0.5,-0.5,0.5,0.5],[1,0,-1,0],[9E+09,9E+09,9E+09,9E+09,9E+09,9E+09]], v200, z50, toolSprayGun;
MoveL [[541.889,404.865,643.91],[0.5,-0.5,0.5,0.5],[1,0,-1,0],[9E+09,9E+09,9E+09,9E+09,9E+09,9E+09]], v200, z50, toolSprayGun;
MoveL [[542.788,402.19,643.082],[0.5,-0.5,0.5,0.5],[1,0,-1,0],[9E+09,9E+09,9E+09,9E+09,9E+09,9E+09]], v200, z50, toolSprayGun;
MoveL [[543.139,399.886,643.131],[0.5,-0.5,0.5,0.5],[1,0,-1,0],[9E+09,9E+09,9E+09,9E+09,9E+09,9E+09]], v200, z50, toolSprayGun;
MoveL [[543.758,396.743,642.4],[0.5,-0.5,0.5,0.5],[1,0,-1,0],[9E+09,9E+09,9E+09,9E+09,9E+09,9E+09]], v200, z50, toolSprayGun;
MoveL [[544.033,393.211,642.562],[0.5,-0.5,0.5,0.5],[1,0,-1,0],[9E+09,9E+09,9E+09,9E+09,9E+09,9E+09]], v200, z50, toolSprayGun;
MoveL [[544.489,390.714,642.695],[0.5,-0.5,0.5,0.5],[1,0,-1,0],[9E+09,9E+09,9E+09,9E+09,9E+09,9E+09]], v200, z50, toolSprayGun;
MoveL [[544.77,388.836,642.823],[0.5,-0.5,0.5,0.5],[1,0,-1,0],[9E+09,9E+09,9E+09,9E+09,9E+09,9E+09]], v200, z50, toolSprayGun;
MoveL [[545.034,386.689,642.527],[0.5,-0.5,0.5,0.5],[1,0,-1,0],[9E+09,9E+09,9E+09,9E+09,9E+09,9E+09]], v200, z50, toolSprayGun;
MoveL [[545.827,383.963,642.226],[0.5,-0.5,0.5,0.5],[1,0,-1,0],[9E+09,9E+09,9E+09,9E+09,9E+09,9E+09]], v200, z50, toolSprayGun;
MoveL [[546.412,380.944,642.154],[0.5,-0.5,0.5,0.5],[1,0,-1,0],[9E+09,9E+09,9E+09,9E+09,9E+09,9E+09]], v200, z50, toolSprayGun;
MoveL [[546.6,379.78,642.198],[0.5,-0.5,0.5,0.5],[1,0,-1,0],[9E+09,9E+09,9E+09,9E+09,9E+09,9E+09]], v200, z50, toolSprayGun;
MoveL [[546.636,377.155,642.17],[0.5,-0.5,0.5,0.5],[1,0,-1,0],[9E+09,9E+09,9E+09,9E+09,9E+09,9E+09]], v200, z50, toolSprayGun;
MoveL [[546.762,374.558,641.52],[0.5,-0.5,0.5,0.5],[1,0,-1,0],[9E+09,9E+09,9E+09,9E+09,9E+09,9E+09]], v200, z50, toolSprayGun;
MoveL [[546.726,372.842,641.058],[0.5,-0.5,0.5,0.5],[1,0,-1,0],[9E+09,9E+09,9E+09,9E+09,9E+09,9E+09]], v200, z50, toolSprayGun;
MoveL [[546.537,369.508,641.269],[0.5,-0.5,0.5,0.5],[1,0,-1,0],[9E+09,9E+09,9E+09,9E+09,9E+09,9E+09]], v200, z50, toolSprayGun;
MoveL [[546.659,367.383,641.062],[0.5,-0.5,0.5,0.5],[1,0,-1,0],[9E+09,9E+09,9E+09,9E+09,9E+09,9E+09]], v200, z50, toolSprayGun;
MoveL [[546.703,364.242,640.897],[0.5,-0.5,0.5,0.5],[1,0,-1,0],[9E+09,9E+09,9E+09,9E+09,9E+09,9E+09]], v200, z50, toolSprayGun;
MoveL [[546.416,362.442,641.24],[0.5,-0.5,0.5,0.5],[1,0,-1,0],[9E+09,9E+09,9E+09,9E+09,9E+09,9E+09]], v200, z50, toolSprayGun;
MoveL [[545.462,360.429,640.514],[0.5,-0.5,0.5,0.5],[1,0,-1,0],[9E+09,9E+09,9E+09,9E+09,9E+09,9E+09]], v200, z50, toolSprayGun;
MoveL [[545.465,359.065,640.604],[0.5,-0.5,0.5,0.5],[1,0,-1,0],[9E+09,9E+09,9E+09,9E+09,9E+09,9E+09]], v200, z50, toolSprayGun;
MoveL [[545.034,358.068,639.928],[0.5,-0.5,0.5,0.5],[1,0,-1,0],[9E+09,9E+09,9E+09,9E+09,9E+09,9E+09]], v200, z50, toolSprayGun;
MoveL [[545.085,357.986,639.913],[0.5,-0.5,0.5,0.5],[1,0,-1,0],[9E+09,9E+09,9E+09,9E+09,9E+09,9E+09]], v200, z50, toolSprayGun;
MoveL [[544.696,357.477,639.412],[0.5,-0.5,0.5,0.5],[1,0,-1,0],[9E+09,9E+09,9E+09,9E+09,9E+09,9E+09]], v200, z50, toolSprayGun;
MoveL [[544.636,356.015,639.447],[0.5,-0.5,0.5,0.5],[1,0,-1,0],[9E+09,9E+09,9E+09,9E+09,9E+09,9E+09]], v200, z50, toolSprayGun;
MoveL [[544.935,355.94,638.956],[0.5,-0.5,0.5,0.5],[1,0,-1,0],[9E+09,9E+09,9E+09,9E+09,9E+09,9E+09]], v200, z50, toolSprayGun;
MoveL [[544.802,355.245,638.921],[0.5,-0.5,0.5,0.5],[1,0,-1,0],[9E+09,9E+09,9E+09,9E+09,9E+09,9E+09]], v200, z50, toolSprayGun;
MoveL [[544.535,354.681,638.903],[0.5,-0.5,0.5,0.5],[1,0,-1,0],[9E+09,9E+09,9E+09,9E+09,9E+09,9E+09]], v200, z50, toolSprayGun;
MoveL [[543.823,354.188,638.687],[0.5,-0.5,0.5,0.5],[1,0,-1,0],[9E+09,9E+09,9E+09,9E+09,9E+09,9E+09]], v200, z50, toolSprayGun;
MoveL [[543.766,353.433,638.681],[0.5,-0.5,0.5,0.5],[1,0,-1,0],[9E+09,9E+09,9E+09,9E+09,9E+09,9E+09]], v200, z50, toolSprayGun;
MoveL [[543.534,352.899,638.185],[0.5,-0.5,0.5,0.5],[1,0,-1,0],[9E+09,9E+09,9E+09,9E+09,9E+09,9E+09]], v200, z50, toolSprayGun;
MoveL [[543.173,352.737,637.757],[0.5,-0.5,0.5,0.5],[1,0,-1,0],[9E+09,9E+09,9E+09,9E+09,9E+09,9E+09]], v200, z50, toolSprayGun;
MoveL [[542.937,352.73,637.228],[0.5,-0.5,0.5,0.5],[1,0,-1,0],[9E+09,9E+09,9E+09,9E+09,9E+09,9E+09]], v200, z50, toolSprayGun;
MoveL [[542.889,351.925,637.199],[0.5,-0.5,0.5,0.5],[1,0,-1,0],[9E+09,9E+09,9E+09,9E+09,9E+09,9E+09]], v200, z50, toolSprayGun;
MoveL [[542.783,351.899,637.028],[0.5,-0.5,0.5,0.5],[1,0,-1,0],[9E+09,9E+09,9E+09,9E+09,9E+09,9E+09]], v200, z50, toolSprayGun;
MoveL [[542.667,352.378,636.518],[0.5,-0.5,0.5,0.5],[1,0,-1,0],[9E+09,9E+09,9E+09,9E+09,9E+09,9E+09]], v200, z50, toolSprayGun;
MoveL [[542.587,352.341,636.444],[0.5,-0.5,0.5,0.5],[1,0,-1,0],[9E+09,9E+09,9E+09,9E+09,9E+09,9E+09]], v200, z50, toolSprayGun;
MoveL [[542.552,351.991,636.379],[0.5,-0.5,0.5,0.5],[1,0,-1,0],[9E+09,9E+09,9E+09,9E+09,9E+09,9E+09]], v200, z50, toolSprayGun;
MoveL [[542.58,351.733,635.964],[0.5,-0.5,0.5,0.5],[1,0,-1,0],[9E+09,9E+09,9E+09,9E+09,9E+09,9E+09]], v200, z50, toolSprayGun;
MoveL [[542.477,351.771,635.709],[0.5,-0.5,0.5,0.5],[1,0,-1,0],[9E+09,9E+09,9E+09,9E+09,9E+09,9E+09]], v200, z50, toolSprayGun;
MoveL [[542.404,352.105,635.813],[0.5,-0.5,0.5,0.5],[1,0,-1,0],[9E+09,9E+09,9E+09,9E+09,9E+09,9E+09]], v200, z50, toolSprayGun;
MoveL [[542.12,352.05,635.644],[0.5,-0.5,0.5,0.5],[1,0,-1,0],[9E+09,9E+09,9E+09,9E+09,9E+09,9E+09]], v200, z50, toolSprayGun;
MoveL [[541.705,352.495,635.687],[0.5,-0.5,0.5,0.5],[1,0,-1,0],[9E+09,9E+09,9E+09,9E+09,9E+09,9E+09]], v200, z50, toolSprayGun;
MoveL [[541.73,353.218,635.681],[0.5,-0.5,0.5,0.5],[1,0,-1,0],[9E+09,9E+09,9E+09,9E+09,9E+09,9E+09]], v200, z50, toolSprayGun;
MoveL [[541.8,353.601,635.737],[0.5,-0.5,0.5,0.5],[1,0,-1,0],[9E+09,9E+09,9E+09,9E+09,9E+09,9E+09]], v200, z50, toolSprayGun;
MoveL [[541.759,353.445,635.709],[0.5,-0.5,0.5,0.5],[1,0,-1,0],[9E+09,9E+09,9E+09,9E+09,9E+09,9E+09]], v200, z50, toolSprayGun;
MoveL [[541.801,353.767,635.742],[0.5,-0.5,0.5,0.5],[1,0,-1,0],[9E+09,9E+09,9E+09,9E+09,9E+09,9E+09]], v200, z50, toolSprayGun;
MoveL [[541.945,354.17,635.947],[0.5,-0.5,0.5,0.5],[1,0,-1,0],[9E+09,9E+09,9E+09,9E+09,9E+09,9E+09]], v200, z50, toolSprayGun;
MoveL [[541.815,354.719,636.271],[0.5,-0.5,0.5,0.5],[1,0,-1,0],[9E+09,9E+09,9E+09,9E+09,9E+09,9E+09]], v200, z50, toolSprayGun;
MoveL [[541.67,355.33,636.318],[0.5,-0.5,0.5,0.5],[1,0,-1,0],[9E+09,9E+09,9E+09,9E+09,9E+09,9E+09]], v200, z50, toolSprayGun;
MoveL [[541.617,355.224,636.307],[0.5,-0.5,0.5,0.5],[1,0,-1,0],[9E+09,9E+09,9E+09,9E+09,9E+09,9E+09]], v200, z50, toolSprayGun;
MoveL [[541.576,356.027,636.277],[0.5,-0.5,0.5,0.5],[1,0,-1,0],[9E+09,9E+09,9E+09,9E+09,9E+09,9E+09]], v200, z50, toolSprayGun;
MoveL [[541.732,356.902,637.051],[0.5,-0.5,0.5,0.5],[1,0,-1,0],[9E+09,9E+09,9E+09,9E+09,9E+09,9E+09]], v200, z50, toolSprayGun;
MoveL [[541.681,356.818,637.043],[0.5,-0.5,0.5,0.5],[1,0,-1,0],[9E+09,9E+09,9E+09,9E+09,9E+09,9E+09]], v200, z50, toolSprayGun;
MoveL [[541.731,359.139,638.077],[0.5,-0.5,0.5,0.5],[1,0,-1,0],[9E+09,9E+09,9E+09,9E+09,9E+09,9E+09]], v200, z50, toolSprayGun;
MoveL [[541.683,359.097,638.066],[0.5,-0.5,0.5,0.5],[1,0,-1,0],[9E+09,9E+09,9E+09,9E+09,9E+09,9E+09]], v200, z50, toolSprayGun;
MoveL [[541.642,360.101,638.335],[0.5,-0.5,0.5,0.5],[1,0,-1,0],[9E+09,9E+09,9E+09,9E+09,9E+09,9E+09]], v200, z50, toolSprayGun;
MoveL [[541.534,360.038,638.324],[0.5,-0.5,0.5,0.5],[1,0,-1,0],[9E+09,9E+09,9E+09,9E+09,9E+09,9E+09]], v200, z50, toolSprayGun;
MoveL [[541.51,361.282,638.767],[0.5,-0.5,0.5,0.5],[1,0,-1,0],[9E+09,9E+09,9E+09,9E+09,9E+09,9E+09]], v200, z50, toolSprayGun;
MoveL [[541.278,361.626,638.962],[0.5,-0.5,0.5,0.5],[1,0,-1,0],[9E+09,9E+09,9E+09,9E+09,9E+09,9E+09]], v200, z50, toolSprayGun;
MoveL [[541.219,361.608,638.964],[0.5,-0.5,0.5,0.5],[1,0,-1,0],[9E+09,9E+09,9E+09,9E+09,9E+09,9E+09]], v200, z50, toolSprayGun;
MoveL [[541.032,362.023,639.232],[0.5,-0.5,0.5,0.5],[1,0,-1,0],[9E+09,9E+09,9E+09,9E+09,9E+09,9E+09]], v200, z50, toolSprayGun;
MoveL [[540.824,362.359,639.793],[0.5,-0.5,0.5,0.5],[1,0,-1,0],[9E+09,9E+09,9E+09,9E+09,9E+09,9E+09]], v200, z50, toolSprayGun;
MoveL [[540.721,362.855,640.163],[0.5,-0.5,0.5,0.5],[1,0,-1,0],[9E+09,9E+09,9E+09,9E+09,9E+09,9E+09]], v200, z50, toolSprayGun;
MoveL [[540.868,363.566,641.122],[0.5,-0.5,0.5,0.5],[1,0,-1,0],[9E+09,9E+09,9E+09,9E+09,9E+09,9E+09]], v200, z50, toolSprayGun;
MoveL [[540.644,363.902,641.676],[0.5,-0.5,0.5,0.5],[1,0,-1,0],[9E+09,9E+09,9E+09,9E+09,9E+09,9E+09]], v200, z50, toolSprayGun;
MoveL [[540.578,363.881,641.715],[0.5,-0.5,0.5,0.5],[1,0,-1,0],[9E+09,9E+09,9E+09,9E+09,9E+09,9E+09]], v200, z50, toolSprayGun;
MoveL [[540.247,364.088,642.3],[0.5,-0.5,0.5,0.5],[1,0,-1,0],[9E+09,9E+09,9E+09,9E+09,9E+09,9E+09]], v200, z50, toolSprayGun;
MoveL [[540.009,364.031,643.274],[0.5,-0.5,0.5,0.5],[1,0,-1,0],[9E+09,9E+09,9E+09,9E+09,9E+09,9E+09]], v200, z50, toolSprayGun;
MoveL [[539.862,364,643.882],[0.5,-0.5,0.5,0.5],[1,0,-1,0],[9E+09,9E+09,9E+09,9E+09,9E+09,9E+09]], v200, z50, toolSprayGun;
MoveL [[540.312,363.989,644.188],[0.5,-0.5,0.5,0.5],[1,0,-1,0],[9E+09,9E+09,9E+09,9E+09,9E+09,9E+09]], v200, z50, toolSprayGun;
MoveL [[540.539,363.865,644.719],[0.5,-0.5,0.5,0.5],[1,0,-1,0],[9E+09,9E+09,9E+09,9E+09,9E+09,9E+09]], v200, z50, toolSprayGun;
MoveL [[540.474,363.82,644.947],[0.5,-0.5,0.5,0.5],[1,0,-1,0],[9E+09,9E+09,9E+09,9E+09,9E+09,9E+09]], v200, z50, toolSprayGun;
MoveL [[540.579,363.77,645.136],[0.5,-0.5,0.5,0.5],[1,0,-1,0],[9E+09,9E+09,9E+09,9E+09,9E+09,9E+09]], v200, z50, toolSprayGun;
MoveL [[540.543,363.693,645.074],[0.5,-0.5,0.5,0.5],[1,0,-1,0],[9E+09,9E+09,9E+09,9E+09,9E+09,9E+09]], v200, z50, toolSprayGun;
MoveL [[540.553,363.794,645.3],[0.5,-0.5,0.5,0.5],[1,0,-1,0],[9E+09,9E+09,9E+09,9E+09,9E+09,9E+09]], v200, z50, toolSprayGun;
MoveL [[540.534,363.781,645.368],[0.5,-0.5,0.5,0.5],[1,0,-1,0],[9E+09,9E+09,9E+09,9E+09,9E+09,9E+09]], v200, z50, toolSprayGun;
MoveL [[540.331,363.732,645.93],[0.5,-0.5,0.5,0.5],[1,0,-1,0],[9E+09,9E+09,9E+09,9E+09,9E+09,9E+09]], v200, z50, toolSprayGun;
MoveL [[539.988,363.703,646.391],[0.5,-0.5,0.5,0.5],[1,0,-1,0],[9E+09,9E+09,9E+09,9E+09,9E+09,9E+09]], v200, z50, toolSprayGun;
MoveL [[540.039,363.589,646.719],[0.5,-0.5,0.5,0.5],[1,0,-1,0],[9E+09,9E+09,9E+09,9E+09,9E+09,9E+09]], v200, z50, toolSprayGun;
MoveL [[539.996,363.574,646.789],[0.5,-0.5,0.5,0.5],[1,0,-1,0],[9E+09,9E+09,9E+09,9E+09,9E+09,9E+09]], v200, z50, toolSprayGun;
MoveL [[540.038,363.347,647.159],[0.5,-0.5,0.5,0.5],[1,0,-1,0],[9E+09,9E+09,9E+09,9E+09,9E+09,9E+09]], v200, z50, toolSprayGun;
MoveL [[540.058,363.184,647.388],[0.5,-0.5,0.5,0.5],[1,0,-1,0],[9E+09,9E+09,9E+09,9E+09,9E+09,9E+09]], v200, z50, toolSprayGun;
MoveL [[540.016,362.934,647.553],[0.5,-0.5,0.5,0.5],[1,0,-1,0],[9E+09,9E+09,9E+09,9E+09,9E+09,9E+09]], v200, z50, toolSprayGun;
MoveL [[539.935,362.904,647.696],[0.5,-0.5,0.5,0.5],[1,0,-1,0],[9E+09,9E+09,9E+09,9E+09,9E+09,9E+09]], v200, z50, toolSprayGun;
MoveL [[539.94,362.775,647.7],[0.5,-0.5,0.5,0.5],[1,0,-1,0],[9E+09,9E+09,9E+09,9E+09,9E+09,9E+09]], v200, z50, toolSprayGun;
MoveL [[539.756,362.512,647.669],[0.5,-0.5,0.5,0.5],[1,0,-1,0],[9E+09,9E+09,9E+09,9E+09,9E+09,9E+09]], v200, z50, toolSprayGun;
END
PROCENDMODULE
